;FLAVOR:Marlin
;TIME:17412
;Filament used: 9.44186m
;Layer height: 0.2
;MINX:0
;MINY:58.508
;MINZ:0.2
;MAXX:235
;MAXY:177.043
;MAXZ:58
;TARGET_MACHINE.NAME:Creality Ender-3
;Generated with Cura_SteamEngine 5.6.0
M140 S60
M105
M190 S60
M104 S215
M105
M109 S215
M82 ;absolute extrusion mode
; Ender 3 Custom Start G-code
G92 E0 ; Reset Extruder
G28 ; Home all axes
G1 Z2.0 F3000 ; Move Z Axis up little to prevent scratching of Heat Bed
G1 X0.1 Y20 Z0.3 F5000.0 ; Move to start position
G1 X0.1 Y200.0 Z0.3 F1500.0 E15 ; Draw the first line
G1 X0.4 Y200.0 Z0.3 F5000.0 ; Move to side a little
G1 X0.4 Y20 Z0.3 F1500.0 E30 ; Draw the second line
G92 E0 ; Reset Extruder
G1 Z2.0 F3000 ; Move Z Axis up little to prevent scratching of Heat Bed
G1 X5 Y20 Z0.3 F5000.0 ; Move over to prevent blob squish
G92 E0
G92 E0
G1 F2700 E-5
;LAYER_COUNT:290
;LAYER:0
M107
G0 F6000 X0.00 Y111.048 Z0.2
;TYPE:SKIRT
G1 F2700 E0
G1 F1200 X0.739 Y110.36 E0.03358
G1 X2.553 Y108.572 E0.1183
G1 X4.254 Y106.797 E0.20007
G1 X5.971 Y104.902 E0.28512
G1 X8.086 Y102.416 E0.39368
G1 X8.743 Y101.696 E0.4261
G1 X9.434 Y101.061 E0.45731
G1 X10.234 Y100.447 E0.49085
G1 X11.027 Y99.943 E0.5221
G1 X11.938 Y99.471 E0.55623
G1 X15.643 Y97.773 E0.69178
G1 X16.533 Y97.396 E0.72393
G1 X17.642 Y97.004 E0.76305
G1 X18.201 Y96.847 E0.78236
G1 X19.477 Y96.516 E0.82621
G1 X20.405 Y96.293 E0.85795
G1 X20.975 Y96.171 E0.87734
G1 X21.806 Y96.02 E0.90543
G1 X25.7 Y95.365 E1.03677
G1 X26.722 Y95.213 E1.07113
G1 X27.39 Y95.128 E1.09353
G1 X35.383 Y94.233 E1.36104
G1 X37.629 Y94.03 E1.43605
G1 X46.169 Y93.422 E1.72081
G1 X47.564 Y93.338 E1.76729
G1 X56.036 Y92.939 E2.04938
G1 X58.603 Y92.781 E2.13492
G1 X61.102 Y92.556 E2.21837
G1 X63.604 Y92.259 E2.30218
G1 X66.094 Y91.892 E2.38589
G1 X68.57 Y91.456 E2.46951
G1 X71.047 Y90.947 E2.55361
G1 X73.48 Y90.374 E2.63675
G1 X75.891 Y89.734 E2.71972
G1 X78.361 Y89.004 E2.80538
G1 X80.723 Y88.231 E2.88804
G1 X83.113 Y87.374 E2.97249
G1 X85.449 Y86.463 E3.05588
G1 X87.715 Y85.502 E3.13775
G1 X90.978 Y83.994 E3.25731
G1 X91.874 Y83.63 E3.28947
G1 X92.63 Y83.389 E3.31587
G1 X95.273 Y82.659 E3.40706
G1 X97.679 Y81.919 E3.49079
G1 X100.049 Y81.117 E3.574
G1 X102.427 Y80.236 E3.65835
G1 X104.743 Y79.302 E3.74141
G1 X107.072 Y78.286 E3.82592
G1 X109.332 Y77.224 E3.90897
G1 X111.597 Y76.078 E3.9934
G1 X113.791 Y74.892 E4.07635
G1 X115.998 Y73.615 E4.16116
G1 X118.1 Y72.318 E4.24331
G1 X120.228 Y70.921 E4.32798
G1 X122.289 Y69.482 E4.41158
G1 X124.308 Y67.986 E4.49516
G1 X126.281 Y66.436 E4.57861
G1 X128.202 Y64.837 E4.66174
G1 X131.101 Y62.246 E4.79106
G1 X131.98 Y61.429 E4.83098
G1 X132.667 Y60.843 E4.86101
G1 X133.519 Y60.238 E4.89576
G1 X134.33 Y59.765 E4.92699
G1 X135.244 Y59.336 E4.96057
G1 X136.092 Y59.025 E4.99061
G1 X137.101 Y58.754 E5.02536
G1 X138.062 Y58.587 E5.0578
G1 X139.032 Y58.508 E5.09017
G1 X140.005 Y58.514 E5.12254
G1 X140.977 Y58.605 E5.15501
G1 X141.933 Y58.782 E5.18734
G1 X142.838 Y59.032 E5.21857
G1 X143.782 Y59.387 E5.25212
G1 X144.66 Y59.81 E5.28453
G1 X145.496 Y60.308 E5.3169
G1 X146.258 Y60.856 E5.34811
G1 X146.969 Y61.468 E5.37932
G1 X147.917 Y62.47 E5.42519
G1 X149.864 Y64.815 E5.52657
G1 X151.512 Y66.683 E5.60942
G1 X153.26 Y68.557 E5.69466
G1 X154.981 Y70.301 E5.77615
G1 X156.816 Y72.057 E5.86062
G1 X158.693 Y73.755 E5.94481
G1 X160.599 Y75.382 E6.02816
G1 X162.564 Y76.969 E6.11217
G1 X164.533 Y78.466 E6.19443
G1 X166.612 Y79.955 E6.27949
G1 X168.708 Y81.37 E6.3636
G1 X170.807 Y82.701 E6.44627
G1 X173.008 Y84.011 E6.53146
G1 X175.171 Y85.218 E6.61384
G1 X177.414 Y86.389 E6.698
G1 X179.658 Y87.479 E6.78097
G1 X181.969 Y88.523 E6.86532
G1 X184.323 Y89.506 E6.95016
G1 X186.649 Y90.403 E7.03308
G1 X189.018 Y91.236 E7.1166
G1 X191.419 Y92.008 E7.20049
G1 X193.823 Y92.707 E7.28376
G1 X196.251 Y93.337 E7.36719
G1 X198.776 Y93.917 E7.45335
G1 X201.199 Y94.402 E7.53554
G1 X203.655 Y94.823 E7.61842
G1 X206.671 Y95.244 E7.71971
G1 X209.072 Y95.54 E7.80017
G1 X210.064 Y95.68 E7.83349
G1 X210.819 Y95.805 E7.85894
G1 X214.423 Y96.445 E7.98069
G1 X215.262 Y96.606 E8.0091
G1 X216.185 Y96.827 E8.04067
G1 X217.349 Y97.162 E8.08095
G1 X218.712 Y97.589 E8.12846
G1 X219.911 Y98.046 E8.17114
G1 X220.975 Y98.526 E8.20996
G1 X221.276 Y98.646 E8.22074
G1 X222.525 Y99.221 E8.26647
G1 X222.954 Y99.409 E8.28205
G1 X223.796 Y99.825 E8.31329
G1 X224.658 Y100.35 E8.34686
G1 X225.439 Y100.929 E8.37919
G1 X226.144 Y101.552 E8.41048
G1 X226.858 Y102.308 E8.44507
G1 X227.381 Y102.919 E8.47182
G1 X228.225 Y103.935 E8.51575
G1 X229.893 Y105.829 E8.59969
G1 X231.618 Y107.682 E8.6839
G1 X233.391 Y109.481 E8.76791
G1 X235 Y111.02 E8.84196
G1 F2700 E3.84196
G0 F6000 X219.17 Y108.809
G0 X214.815 Y108.409
G0 X147.445 Y105.798
G0 X87.591 Y105.798
G0 X20.22 Y108.409
G0 X15.865 Y108.809
G0 X0.00 Y111.595
G1 F2700 E8.84196
G1 F1200 X1.012 Y110.653 E8.88794
G1 X2.834 Y108.857 E8.97304
G1 X4.543 Y107.074 E9.05518
G1 X6.267 Y105.171 E9.14059
G1 X8.013 Y103.128 E9.22997
G1 X8.382 Y102.685 E9.24915
G1 X9.014 Y101.991 E9.28037
G1 X9.705 Y101.356 E9.31158
G1 X10.449 Y100.785 E9.34277
G1 X11.242 Y100.281 E9.37403
G1 X12.105 Y99.835 E9.40634
G1 X15.799 Y98.141 E9.5415
G1 X16.666 Y97.773 E9.57283
G1 X17.751 Y97.389 E9.61111
G1 X18.301 Y97.234 E9.63011
G1 X19.571 Y96.905 E9.67375
G1 X20.488 Y96.684 E9.70512
G1 X21.047 Y96.565 E9.72413
G1 X21.878 Y96.414 E9.75222
G1 X25.759 Y95.761 E9.88312
G1 X26.772 Y95.61 E9.91718
G1 X27.435 Y95.526 E9.93941
G1 X35.428 Y94.631 E10.20692
G1 X37.657 Y94.429 E10.28136
G1 X46.193 Y93.821 E10.56599
G1 X47.583 Y93.738 E10.6123
G1 X56.055 Y93.338 E10.8944
G1 X58.628 Y93.18 E10.98014
G1 X61.149 Y92.953 E11.06433
G1 X63.662 Y92.655 E11.14849
G1 X66.152 Y92.288 E11.23221
G1 X68.648 Y91.848 E11.3165
G1 X71.127 Y91.339 E11.40068
G1 X73.583 Y90.761 E11.48459
G1 X75.994 Y90.121 E11.56756
G1 X78.474 Y89.388 E11.65357
G1 X80.858 Y88.608 E11.737
G1 X83.248 Y87.751 E11.82145
G1 X85.594 Y86.836 E11.9052
G1 X87.883 Y85.865 E11.9879
G1 X91.129 Y84.364 E12.10685
G1 X91.995 Y84.011 E12.13795
G1 X92.736 Y83.775 E12.16382
G1 X95.379 Y83.045 E12.25502
G1 X97.807 Y82.298 E12.33951
G1 X100.177 Y81.496 E12.42272
G1 X102.577 Y80.607 E12.50785
G1 X104.904 Y79.669 E12.5913
G1 X107.232 Y78.653 E12.67578
G1 X109.513 Y77.581 E12.75961
G1 X111.778 Y76.435 E12.84403
G1 X113.981 Y75.244 E12.92733
G1 X116.198 Y73.961 E13.01252
G1 X118.32 Y72.652 E13.09545
G1 X120.448 Y71.255 E13.18012
G1 X122.518 Y69.81 E13.26408
G1 X124.555 Y68.301 E13.3484
G1 X126.528 Y66.751 E13.43185
G1 X128.469 Y65.135 E13.51585
G1 X131.374 Y62.539 E13.64543
G1 X132.24 Y61.733 E13.68478
G1 X132.927 Y61.147 E13.71481
G1 X133.721 Y60.584 E13.74719
G1 X134.532 Y60.111 E13.77841
G1 X135.382 Y59.712 E13.80964
G1 X136.23 Y59.401 E13.83968
G1 X137.17 Y59.148 E13.87206
G1 X138.095 Y58.986 E13.9033
G1 X139.03 Y58.908 E13.9345
G1 X139.968 Y58.912 E13.9657
G1 X140.904 Y58.998 E13.99696
G1 X141.826 Y59.168 E14.02815
G1 X142.731 Y59.418 E14.05937
G1 X143.609 Y59.748 E14.09057
G1 X144.456 Y60.154 E14.12181
G1 X145.262 Y60.633 E14.15299
G1 X146.024 Y61.181 E14.18421
G1 X146.708 Y61.771 E14.21426
G1 X147.609 Y62.726 E14.25792
G1 X149.556 Y65.071 E14.3593
G1 X151.219 Y66.956 E14.44291
G1 X152.967 Y68.83 E14.52814
G1 X154.704 Y70.59 E14.61039
G1 X156.539 Y72.346 E14.69486
G1 X158.433 Y74.059 E14.7798
G1 X160.339 Y75.686 E14.86315
G1 X162.322 Y77.287 E14.94792
G1 X164.3 Y78.791 E15.03056
G1 X166.388 Y80.287 E15.116
G1 X168.484 Y81.702 E15.20011
G1 X170.602 Y83.045 E15.28352
G1 X172.803 Y84.355 E15.36871
G1 X174.986 Y85.573 E15.45186
G1 X177.239 Y86.749 E15.53639
G1 X179.493 Y87.844 E15.61973
G1 X181.804 Y88.887 E15.70406
G1 X184.179 Y89.879 E15.78967
G1 X186.509 Y90.777 E15.87272
G1 X188.896 Y91.617 E15.95689
G1 X191.3 Y92.39 E16.04087
G1 X193.716 Y93.092 E16.12455
G1 X196.161 Y93.727 E16.20857
G1 X198.686 Y94.307 E16.29474
G1 X201.124 Y94.795 E16.37744
G1 X203.593 Y95.218 E16.46075
G1 X206.622 Y95.641 E16.56248
G1 X209.016 Y95.936 E16.6427
G1 X209.999 Y96.075 E16.67572
G1 X210.749 Y96.199 E16.70101
G1 X214.348 Y96.838 E16.82258
G1 X215.169 Y96.995 E16.85038
G1 X216.074 Y97.211 E16.88133
G1 X217.23 Y97.544 E16.92134
G1 X218.57 Y97.963 E16.96804
G1 X219.747 Y98.411 E17.00993
G1 X220.816 Y98.893 E17.04893
G1 X221.109 Y99.009 E17.05941
G1 X222.364 Y99.587 E17.10537
G1 X222.777 Y99.768 E17.12036
G1 X223.588 Y100.167 E17.15042
G1 X224.42 Y100.672 E17.1828
G1 X225.174 Y101.229 E17.21397
G1 X225.879 Y101.852 E17.24527
G1 X226.554 Y102.568 E17.278
G1 X227.073 Y103.175 E17.30456
G1 X227.918 Y104.191 E17.34851
G1 X229.6 Y106.102 E17.43318
G1 X231.325 Y107.955 E17.51739
G1 X233.114 Y109.77 E17.60215
G1 X235 Y111.573 E17.68893
G1 F2700 E12.68893
G0 F6000 X219.17 Y108.809
G0 X214.815 Y108.409
G0 X147.445 Y105.798
G0 X87.591 Y105.798
G0 X20.22 Y108.409
G0 X15.865 Y108.809
G0 X0.00 Y112.142
G1 F2700 E17.68893
G1 F1200 X1.285 Y110.946 E17.74732
G1 X3.115 Y109.142 E17.83279
G1 X4.832 Y107.351 E17.91531
G1 X6.563 Y105.44 E18.00107
G1 X8.321 Y103.384 E18.09104
G1 X8.678 Y102.954 E18.10963
G1 X9.285 Y102.285 E18.13967
G1 X9.949 Y101.673 E18.16971
G1 X10.664 Y101.122 E18.19973
G1 X11.426 Y100.636 E18.22979
G1 X12.272 Y100.199 E18.26146
G1 X15.956 Y98.509 E18.39627
G1 X16.8 Y98.15 E18.42677
G1 X17.86 Y97.774 E18.46418
G1 X18.401 Y97.621 E18.48288
G1 X19.665 Y97.294 E18.52631
G1 X20.571 Y97.075 E18.55731
G1 X21.119 Y96.959 E18.57594
G1 X21.95 Y96.808 E18.60403
G1 X25.818 Y96.157 E18.73449
G1 X26.822 Y96.007 E18.76825
G1 X27.48 Y95.924 E18.79031
G1 X35.473 Y95.029 E19.05782
G1 X37.685 Y94.828 E19.1317
G1 X46.217 Y94.22 E19.41619
G1 X47.602 Y94.138 E19.46234
G1 X56.074 Y93.737 E19.74443
G1 X58.655 Y93.579 E19.83044
G1 X61.196 Y93.35 E19.91529
G1 X63.72 Y93.051 E19.99983
G1 X66.21 Y92.684 E20.08354
G1 X68.729 Y92.24 E20.16862
G1 X71.208 Y91.73 E20.25279
G1 X73.686 Y91.148 E20.33746
G1 X76.105 Y90.506 E20.4207
G1 X78.588 Y89.771 E20.50682
G1 X80.993 Y88.985 E20.59098
G1 X83.392 Y88.125 E20.67574
G1 X85.74 Y87.208 E20.75958
G1 X88.051 Y86.228 E20.84307
G1 X91.28 Y84.734 E20.96141
G1 X92.116 Y84.392 E20.99145
G1 X92.843 Y84.161 E21.01682
G1 X95.486 Y83.43 E21.10803
G1 X97.935 Y82.677 E21.19324
G1 X100.305 Y81.875 E21.27646
G1 X102.716 Y80.982 E21.36198
G1 X105.064 Y80.036 E21.44617
G1 X107.392 Y79.02 E21.53065
G1 X109.694 Y77.938 E21.61525
G1 X111.959 Y76.792 E21.69968
G1 X114.171 Y75.596 E21.78332
G1 X116.398 Y74.307 E21.8689
G1 X118.54 Y72.986 E21.9526
G1 X120.668 Y71.589 E22.03727
G1 X122.747 Y70.138 E22.12159
G1 X124.802 Y68.616 E22.20665
G1 X126.775 Y67.066 E22.2901
G1 X128.725 Y65.442 E22.3745
G1 X131.647 Y62.832 E22.50481
G1 X132.5 Y62.037 E22.5436
G1 X133.187 Y61.451 E22.57363
G1 X133.923 Y60.929 E22.60364
G1 X134.703 Y60.473 E22.63369
G1 X135.52 Y60.088 E22.66373
G1 X136.368 Y59.777 E22.69377
G1 X137.24 Y59.542 E22.72381
G1 X138.129 Y59.385 E22.75384
G1 X139.029 Y59.308 E22.78388
G1 X139.932 Y59.31 E22.81391
G1 X140.832 Y59.392 E22.84397
G1 X141.72 Y59.554 E22.87399
G1 X142.591 Y59.793 E22.90403
G1 X143.437 Y60.109 E22.93407
G1 X144.252 Y60.498 E22.96411
G1 X145.029 Y60.958 E22.99414
G1 X145.763 Y61.484 E23.02417
G1 X146.447 Y62.074 E23.05422
G1 X147.301 Y62.982 E23.09568
G1 X149.248 Y65.327 E23.19705
G1 X150.919 Y67.221 E23.28106
G1 X152.682 Y69.111 E23.36702
G1 X154.427 Y70.879 E23.44965
G1 X156.262 Y72.635 E23.53412
G1 X158.173 Y74.363 E23.61981
G1 X160.079 Y75.99 E23.70316
G1 X162.08 Y77.605 E23.78869
G1 X164.067 Y79.116 E23.87171
G1 X166.164 Y80.619 E23.95752
G1 X168.26 Y82.034 E24.04164
G1 X170.397 Y83.389 E24.1258
G1 X172.598 Y84.699 E24.21099
G1 X174.801 Y85.928 E24.29489
G1 X177.064 Y87.109 E24.37979
G1 X179.319 Y88.205 E24.46318
G1 X181.64 Y89.252 E24.54787
G1 X184.035 Y90.252 E24.63419
G1 X186.369 Y91.151 E24.71738
G1 X188.774 Y91.998 E24.80219
G1 X191.181 Y92.772 E24.88628
G1 X193.609 Y93.477 E24.97037
G1 X196.071 Y94.117 E25.05498
G1 X198.596 Y94.697 E25.14115
G1 X201.043 Y95.187 E25.22415
G1 X203.538 Y95.614 E25.30835
G1 X206.573 Y96.038 E25.41027
G1 X208.96 Y96.332 E25.49026
G1 X209.934 Y96.47 E25.52298
G1 X210.679 Y96.593 E25.54809
G1 X214.273 Y97.231 E25.6695
G1 X215.076 Y97.384 E25.69669
G1 X215.963 Y97.595 E25.72701
G1 X217.111 Y97.926 E25.76675
G1 X218.428 Y98.337 E25.81264
G1 X219.583 Y98.776 E25.85374
G1 X220.652 Y99.258 E25.89274
G1 X220.942 Y99.372 E25.9031
G1 X222.203 Y99.953 E25.94928
G1 X222.6 Y100.127 E25.9637
G1 X223.411 Y100.526 E25.99376
G1 X224.183 Y100.994 E26.02379
G1 X224.91 Y101.529 E26.05381
G1 X225.588 Y102.126 E26.08385
G1 X226.25 Y102.828 E26.11595
G1 X226.766 Y103.431 E26.14234
G1 X227.618 Y104.455 E26.18665
G1 X229.307 Y106.375 E26.2717
G1 X231.032 Y108.228 E26.3559
G1 X232.837 Y110.059 E26.44142
G1 X234.627 Y111.775 E26.52389
G1 X235 Y112.113 E26.54064
G1 F2700 E21.54064
G0 F6000 X235 Y142.166
G1 F2700 E26.54064
G1 F1200 X234.013 Y142.349 E26.57402
G1 X232.862 Y142.447 E26.61244
G1 X232.19 Y142.462 E26.6348
G1 X213.756 Y142.467 E27.24792
G1 X211.184 Y142.542 E27.3335
G1 X208.738 Y142.681 E27.41498
G1 X206.179 Y142.901 E27.50041
G1 X203.697 Y143.187 E27.58351
G1 X201.19 Y143.546 E27.66774
G1 X198.737 Y143.968 E27.75053
G1 X196.263 Y144.465 E27.83446
G1 X193.818 Y145.031 E27.91793
G1 X191.358 Y145.673 E28.00249
G1 X188.948 Y146.376 E28.08599
G1 X186.544 Y147.151 E28.17
G1 X184.199 Y147.98 E28.25272
G1 X181.871 Y148.878 E28.33571
G1 X179.509 Y149.869 E28.42091
G1 X177.223 Y150.904 E28.50437
G1 X174.936 Y152.016 E28.58895
G1 X172.745 Y153.163 E28.67121
G1 X170.511 Y154.412 E28.75633
G1 X168.391 Y155.68 E28.83849
G1 X166.223 Y157.057 E28.92392
G1 X164.181 Y158.438 E29.00591
G1 X162.132 Y159.911 E29.08984
G1 X160.074 Y161.481 E29.17593
G1 X158.163 Y163.023 E29.25761
G1 X156.238 Y164.67 E29.34187
G1 X154.399 Y166.338 E29.42445
G1 X152.555 Y168.107 E29.50944
G1 X150.782 Y169.906 E29.59345
G1 X149.057 Y171.76 E29.67767
G1 X147.646 Y173.349 E29.74835
G1 X146.953 Y174.059 E29.78135
G1 X146.216 Y174.693 E29.81369
G1 X145.483 Y175.22 E29.84371
G1 X144.583 Y175.752 E29.87849
G1 X143.703 Y176.17 E29.91089
G1 X142.789 Y176.509 E29.94331
G1 X141.85 Y176.765 E29.97568
G1 X140.884 Y176.937 E30.00832
G1 X139.756 Y177.029 E30.04596
G1 X139.107 Y177.043 E30.06755
G1 X96.087 Y177.042 E31.4984
G1 X95.35 Y177.03 E31.52292
G1 X94.378 Y176.971 E31.55531
G1 X93.415 Y176.825 E31.5877
G1 X92.468 Y176.594 E31.62012
G1 X91.547 Y176.281 E31.65248
G1 X90.655 Y175.887 E31.68491
G1 X89.802 Y175.416 E31.71732
G1 X88.995 Y174.872 E31.74969
G1 X88.229 Y174.249 E31.78253
G1 X87.344 Y173.366 E31.82411
G1 X85.824 Y171.652 E31.9003
G1 X84.133 Y169.843 E31.98267
G1 X82.334 Y168.022 E32.0678
G1 X80.484 Y166.252 E32.15296
G1 X78.669 Y164.612 E32.23432
G1 X76.701 Y162.932 E32.32038
G1 X74.821 Y161.416 E32.40071
G1 X72.763 Y159.853 E32.48666
G1 X70.742 Y158.404 E32.56937
G1 X68.625 Y156.976 E32.65431
G1 X66.534 Y155.649 E32.73668
G1 X64.358 Y154.353 E32.82091
G1 X62.147 Y153.121 E32.9051
G1 X59.931 Y151.965 E32.98823
G1 X57.646 Y150.856 E33.07271
G1 X55.373 Y149.83 E33.15565
G1 X53.016 Y148.846 E33.2406
G1 X50.683 Y147.948 E33.32375
G1 X48.311 Y147.112 E33.4074
G1 X45.926 Y146.346 E33.49071
G1 X43.538 Y145.653 E33.57342
G1 X41.072 Y145.013 E33.65815
G1 X38.575 Y144.439 E33.74337
G1 X36.162 Y143.956 E33.82522
G1 X33.651 Y143.527 E33.90994
G1 X31.168 Y143.174 E33.99336
G1 X28.713 Y142.897 E34.07553
G1 X26.14 Y142.677 E34.16142
G1 X23.659 Y142.539 E34.24407
G1 X21.122 Y142.468 E34.32848
G1 X3.068 Y142.461 E34.92896
G1 X2.351 Y142.45 E34.95281
G1 X1.363 Y142.39 E34.98573
G1 X0.399 Y142.244 E35.01816
G1 X0.00 Y142.148 E35.03181
G0 F6000 X0.00 Y141.737
G1 F1200 X0.492 Y141.855 E35.04864
G1 X1.422 Y141.994 E35.07991
G1 X2.375 Y142.051 E35.11167
G1 X3.074 Y142.061 E35.13492
G1 X21.133 Y142.068 E35.73556
G1 X23.67 Y142.139 E35.81998
G1 X26.174 Y142.279 E35.90339
G1 X28.747 Y142.498 E35.98928
G1 X31.224 Y142.778 E36.07219
G1 X33.707 Y143.131 E36.1556
G1 X36.236 Y143.563 E36.24094
G1 X38.665 Y144.049 E36.32333
G1 X41.162 Y144.623 E36.40854
G1 X43.639 Y145.266 E36.49366
G1 X46.048 Y145.965 E36.57709
G1 X48.433 Y146.731 E36.6604
G1 X50.827 Y147.575 E36.74483
G1 X53.17 Y148.477 E36.82834
G1 X55.538 Y149.465 E36.91368
