;FLAVOR:Marlin
;TIME:6454
;Filament used: 3.35251m
;Layer height: 0.2
;MINX:39.496
;MINY:34.843
;MINZ:0.2
;MAXX:201.077
;MAXY:177.467
;MAXZ:1.4
;TARGET_MACHINE.NAME:Creality Ender-3
;Generated with Cura_SteamEngine 5.6.0
M140 S50
M105
M190 S50
M104 S200
M105
M109 S200
M82 ;absolute extrusion mode
; Ender 3 Custom Start G-code
G92 E0 ; Reset Extruder
G28 ; Home all axes
G1 Z2.0 F3000 ; Move Z Axis up little to prevent scratching of Heat Bed
G1 X0.1 Y20 Z0.3 F5000.0 ; Move to start position
G1 X0.1 Y200.0 Z0.3 F1500.0 E15 ; Draw the first line
G1 X0.4 Y200.0 Z0.3 F5000.0 ; Move to side a little
G1 X0.4 Y20 Z0.3 F1500.0 E30 ; Draw the second line
G92 E0 ; Reset Extruder
G1 Z2.0 F3000 ; Move Z Axis up little to prevent scratching of Heat Bed
G1 X5 Y20 Z0.3 F5000.0 ; Move over to prevent blob squish
G92 E0
G92 E0
G1 F2700 E-5
;LAYER_COUNT:7
;LAYER:0
M107
G0 F6000 X49.085 Y38.619 Z0.2
;TYPE:SKIRT
G1 F2700 E0
G1 F1200 X49.757 Y37.914 E0.03239
G1 X50.489 Y37.272 E0.06478
G1 X51.275 Y36.696 E0.09719
G1 X52.109 Y36.193 E0.12958
G1 X52.984 Y35.766 E0.16197
G1 X53.893 Y35.418 E0.19434
G1 X54.828 Y35.15 E0.22669
G1 X55.714 Y34.977 E0.25671
G1 X57.066 Y34.856 E0.30186
G1 X57.673 Y34.843 E0.32205
G1 X76.665 Y34.843 E0.95373
G1 X77.548 Y34.856 E0.9831
G1 X78.52 Y34.915 E1.01549
G1 X79.442 Y35.052 E1.04649
G1 X80.013 Y35.179 E1.06595
G1 X81.58 Y35.569 E1.11966
G1 X84.093 Y36.145 E1.20541
G1 X86.6 Y36.645 E1.29043
G1 X89.048 Y37.062 E1.37303
G1 X91.521 Y37.412 E1.4561
G1 X94.041 Y37.695 E1.54044
G1 X96.559 Y37.909 E1.62449
G1 X99.004 Y38.045 E1.70594
G1 X102.888 Y38.125 E1.83515
G1 X104.449 Y38.126 E1.88707
G1 X105.479 Y38.144 E1.92133
G1 X106.167 Y38.173 E1.94423
G1 X108.759 Y38.247 E2.03048
G1 X111.246 Y38.247 E2.1132
G1 X115.33 Y38.125 E2.24909
G1 X134.449 Y38.126 E2.88499
G1 X135.479 Y38.144 E2.91926
G1 X136.167 Y38.173 E2.94216
G1 X138.759 Y38.247 E3.02841
G1 X141.246 Y38.247 E3.11112
G1 X145.33 Y38.125 E3.24702
G1 X164.464 Y38.126 E3.88342
G1 X165.209 Y38.139 E3.9082
G1 X166.139 Y38.195 E3.93919
G1 X166.767 Y38.278 E3.96026
G1 X168.439 Y38.55 E4.0166
G1 X170.929 Y38.904 E4.10025
G1 X173.44 Y39.188 E4.1843
G1 X175.951 Y39.404 E4.26812
G1 X178.403 Y39.541 E4.3498
G1 X182.367 Y39.625 E4.48168
G1 X189.024 Y39.626 E4.70309
G1 X189.757 Y39.638 E4.72747
G1 X190.729 Y39.697 E4.75986
G1 X191.692 Y39.843 E4.79226
G1 X192.639 Y40.074 E4.82468
G1 X193.527 Y40.374 E4.85585
G1 X194.419 Y40.764 E4.88823
G1 X195.302 Y41.251 E4.92177
G1 X196.053 Y41.753 E4.95182
G1 X196.868 Y42.411 E4.98666
G1 X197.566 Y43.089 E5.01902
G1 X198.202 Y43.826 E5.0514
G1 X198.772 Y44.616 E5.0838
G1 X199.234 Y45.392 E5.11384
G1 X199.688 Y46.334 E5.14862
G1 X200.017 Y47.212 E5.1798
G1 X200.286 Y48.184 E5.21335
G1 X200.463 Y49.15 E5.24601
G1 X200.558 Y50.28 E5.28373
G1 X200.573 Y50.955 E5.30618
G1 X200.572 Y65.075 E5.77582
G1 X200.56 Y65.811 E5.8003
G1 X200.501 Y66.78 E5.83259
G1 X200.378 Y67.624 E5.86096
G1 X200.193 Y68.617 E5.89455
G1 X199.984 Y69.656 E5.9298
G1 X199.56 Y72.131 E6.01332
G1 X199.207 Y74.616 E6.0968
G1 X198.927 Y77.091 E6.17964
G1 X198.709 Y79.64 E6.26473
G1 X198.569 Y82.133 E6.34778
G1 X198.495 Y84.738 E6.43446
G1 X198.473 Y86.276 E6.48562
G1 X198.473 Y88.887 E6.57246
G1 X198.497 Y89.983 E6.60892
G1 X198.5 Y104.293 E7.08488
G1 X198.473 Y106.27 E7.15064
G1 X198.473 Y108.882 E7.23751
G1 X198.497 Y109.981 E7.27407
G1 X198.5 Y124.293 E7.75009
G1 X198.473 Y126.27 E7.81585
G1 X198.473 Y128.899 E7.9033
G1 X198.547 Y132.007 E8.0067
G1 X198.673 Y134.578 E8.09231
G1 X198.864 Y137.045 E8.17461
G1 X199.137 Y139.611 E8.26044
G1 X199.467 Y142.052 E8.34236
G1 X199.875 Y144.543 E8.42632
G1 X200.353 Y147.023 E8.51032
G1 X200.817 Y149.14 E8.5824
G1 X200.982 Y150.105 E8.61497
G1 X201.062 Y151.14 E8.64949
G1 X201.077 Y151.797 E8.67135
G1 X201.076 Y165.867 E9.13932
G1 X201.065 Y166.63 E9.1647
G1 X201.008 Y167.603 E9.19712
G1 X200.863 Y168.566 E9.22951
G1 X200.634 Y169.512 E9.26188
G1 X200.323 Y170.436 E9.29431
G1 X199.931 Y171.327 E9.32668
G1 X199.463 Y172.179 E9.35902
G1 X198.941 Y172.96 E9.39026
G1 X198.308 Y173.745 E9.4238
G1 X197.683 Y174.396 E9.45382
G1 X196.894 Y175.084 E9.48863
G1 X196.134 Y175.634 E9.51984
G1 X195.267 Y176.151 E9.55341
G1 X194.389 Y176.573 E9.58581
G1 X193.478 Y176.915 E9.61818
G1 X192.539 Y177.176 E9.65059
G1 X191.573 Y177.354 E9.68326
G1 X190.422 Y177.452 E9.72168
G1 X189.747 Y177.467 E9.74414
G1 X170.627 Y177.466 E10.38007
G1 X169.891 Y177.454 E10.40456
G1 X168.916 Y177.393 E10.43705
G1 X167.903 Y177.239 E10.47113
G1 X164.828 Y176.617 E10.57547
G1 X162.404 Y176.203 E10.65726
G1 X159.864 Y175.842 E10.74259
G1 X157.408 Y175.564 E10.8248
G1 X154.859 Y175.346 E10.90989
G1 X152.414 Y175.208 E10.99134
G1 X148.468 Y175.125 E11.12261
G1 X145.551 Y175.124 E11.21963
G1 X144.521 Y175.106 E11.2539
G1 X143.833 Y175.077 E11.2768
G1 X141.241 Y175.003 E11.36305
G1 X138.754 Y175.003 E11.44576
G1 X134.694 Y175.125 E11.58086
G1 X118.312 Y175.125 E12.12573
G1 X115.728 Y175.162 E12.21168
G1 X113.16 Y175.271 E12.29717
G1 X110.686 Y175.446 E12.37966
G1 X108.214 Y175.691 E12.46228
G1 X105.651 Y176.019 E12.54823
G1 X103.167 Y176.409 E12.63186
G1 X100.868 Y176.829 E12.70959
G1 X99.912 Y176.959 E12.74168
G1 X99.228 Y177 E12.76447
G1 X98.604 Y177.013 E12.78522
G1 X79.483 Y177.012 E13.42119
G1 X78.766 Y177.001 E13.44504
G1 X77.778 Y176.941 E13.47796
G1 X76.829 Y176.799 E13.50988
G1 X76.334 Y176.689 E13.52674
G1 X74.595 Y176.256 E13.58635
G1 X72.138 Y175.692 E13.6702
G1 X69.674 Y175.199 E13.75377
G1 X67.196 Y174.776 E13.83738
G1 X64.682 Y174.42 E13.92183
G1 X62.24 Y174.144 E14.00357
G1 X59.663 Y173.924 E14.0896
G1 X57.243 Y173.789 E14.17021
G1 X53.315 Y173.707 E14.30088
G1 X51.045 Y173.706 E14.37638
G1 X50.312 Y173.694 E14.40077
G1 X49.34 Y173.635 E14.43316
G1 X48.377 Y173.489 E14.46555
G1 X47.43 Y173.258 E14.49797
G1 X46.542 Y172.958 E14.52915
G1 X45.65 Y172.568 E14.56153
G1 X44.767 Y172.081 E14.59507
G1 X44.016 Y171.579 E14.62511
G1 X43.201 Y170.921 E14.65995
G1 X42.503 Y170.243 E14.69231
G1 X41.867 Y169.506 E14.72469
G1 X41.297 Y168.716 E14.75709
G1 X40.835 Y167.94 E14.78713
G1 X40.381 Y166.998 E14.82191
G1 X40.052 Y166.12 E14.8531
G1 X39.783 Y165.147 E14.88667
G1 X39.606 Y164.18 E14.91937
G1 X39.51 Y163.015 E14.95825
G1 X39.496 Y162.365 E14.97987
G1 X39.497 Y148.228 E15.45007
G1 X39.511 Y147.479 E15.47499
G1 X39.574 Y146.509 E15.50732
G1 X39.722 Y145.545 E15.53976
G1 X39.951 Y144.612 E15.57171
G1 X40.803 Y141.701 E15.67259
G1 X41.443 Y139.242 E15.7571
G1 X41.997 Y136.833 E15.83932
G1 X42.508 Y134.288 E15.92565
G1 X42.922 Y131.873 E16.00715
G1 X43.281 Y129.348 E16.09198
G1 X43.559 Y126.899 E16.17395
G1 X43.777 Y124.361 E16.25868
G1 X43.917 Y121.859 E16.34203
G1 X43.991 Y119.293 E16.42741
G1 X44 Y117.987 E16.47085
G1 X44.001 Y109.68 E16.74714
G1 X44.027 Y107.846 E16.80814
G1 X44.027 Y105.221 E16.89545
G1 X44.002 Y104.025 E16.93524
G1 X44.001 Y89.68 E17.41235
G1 X44.027 Y87.846 E17.47336
G1 X44.027 Y85.221 E17.56067
G1 X44.002 Y84.025 E17.60046
G1 X44.001 Y69.66 E18.07824
G1 X44.014 Y68.917 E18.10295
G1 X44.076 Y67.943 E18.13541
G1 X44.23 Y66.943 E18.16907
G1 X44.867 Y63.796 E18.27586
G1 X45.292 Y61.317 E18.35951
G1 X45.64 Y58.862 E18.44198
G1 X45.922 Y56.371 E18.52536
G1 X46.14 Y53.822 E18.61045
G1 X46.278 Y51.378 E18.69187
G1 X46.361 Y47.405 E18.82404
G1 X46.371 Y45.752 E18.87902
G1 X46.416 Y44.85 E18.90906
G1 X46.562 Y43.815 E18.94382
G1 X46.785 Y42.868 E18.97618
G1 X47.089 Y41.942 E19.0086
G1 X47.445 Y41.111 E19.03867
G1 X47.94 Y40.192 E19.07339
G1 X48.477 Y39.38 E19.10577
G1 X49.085 Y38.619 E19.13816
G0 F6000 X49.375 Y38.894
G1 F1200 X50.021 Y38.214 E19.16936
G1 X50.726 Y37.594 E19.20058
G1 X51.482 Y37.038 E19.2318
G1 X52.285 Y36.552 E19.26302
G1 X53.128 Y36.139 E19.29424
G1 X54.003 Y35.802 E19.32542
G1 X54.905 Y35.543 E19.35664
G1 X55.791 Y35.37 E19.38666
G1 X57.075 Y35.256 E19.42954
G1 X57.682 Y35.243 E19.44973
G1 X76.659 Y35.243 E20.08091
G1 X77.524 Y35.255 E20.10968
G1 X78.461 Y35.311 E20.1409
G1 X79.383 Y35.448 E20.1719
G1 X79.916 Y35.567 E20.19007
G1 X81.491 Y35.959 E20.24405
G1 X84.004 Y36.535 E20.3298
G1 X86.526 Y37.038 E20.41533
G1 X88.992 Y37.458 E20.49854
G1 X91.465 Y37.808 E20.58161
G1 X94.007 Y38.094 E20.66669
G1 X96.525 Y38.307 E20.75074
G1 X98.996 Y38.445 E20.83305
G1 X102.88 Y38.525 E20.96226
G1 X104.442 Y38.526 E21.01421
G1 X105.462 Y38.544 E21.04814
G1 X106.15 Y38.573 E21.07105
G1 X108.748 Y38.647 E21.15749
G1 X111.258 Y38.647 E21.24097
G1 X115.33 Y38.525 E21.37647
G1 X134.442 Y38.526 E22.01214
G1 X135.462 Y38.544 E22.04607
G1 X136.15 Y38.573 E22.06897
G1 X138.748 Y38.647 E22.15542
G1 X141.258 Y38.647 E22.2389
G1 X145.33 Y38.525 E22.3744
G1 X164.457 Y38.526 E23.01056
G1 X165.185 Y38.538 E23.03478
G1 X166.087 Y38.592 E23.06483
G1 X166.703 Y38.673 E23.0855
G1 X168.375 Y38.945 E23.14184
G1 X170.873 Y39.3 E23.22576
G1 X173.406 Y39.587 E23.31054
G1 X175.917 Y39.802 E23.39437
G1 X178.395 Y39.941 E23.47691
G1 X182.359 Y40.025 E23.60879
G1 X189.018 Y40.026 E23.83027
G1 X189.733 Y40.037 E23.85405
G1 X190.67 Y40.093 E23.88527
G1 X191.598 Y40.232 E23.91648
G1 X192.511 Y40.453 E23.94772
G1 X193.367 Y40.741 E23.97776
G1 X194.259 Y41.131 E24.01014
G1 X195.08 Y41.584 E24.04133
G1 X195.831 Y42.086 E24.07138
G1 X196.59 Y42.698 E24.1038
G1 X197.264 Y43.351 E24.13502
G1 X197.878 Y44.06 E24.16621
G1 X198.428 Y44.821 E24.19744
G1 X198.89 Y45.597 E24.22748
G1 X199.313 Y46.474 E24.25986
G1 X199.642 Y47.352 E24.29105
G1 X199.893 Y48.257 E24.32229
G1 X200.064 Y49.184 E24.35364
G1 X200.159 Y50.314 E24.39135
G1 X200.173 Y50.955 E24.41268
G1 X200.172 Y65.069 E24.88211
G1 X200.161 Y65.787 E24.906
G1 X200.105 Y66.723 E24.93718
G1 X199.985 Y67.551 E24.96501
G1 X199.801 Y68.538 E24.9984
G1 X199.592 Y69.577 E25.03365
G1 X199.166 Y72.063 E25.11754
G1 X198.811 Y74.56 E25.20143
G1 X198.528 Y77.057 E25.28501
G1 X198.311 Y79.606 E25.3701
G1 X198.169 Y82.122 E25.45391
G1 X198.095 Y84.727 E25.54059
G1 X198.073 Y86.27 E25.59192
G1 X198.073 Y88.887 E25.67896
G1 X198.097 Y89.983 E25.71542
G1 X198.1 Y104.288 E26.19121
G1 X198.073 Y106.265 E26.25697
G1 X198.073 Y108.882 E26.34401
G1 X198.097 Y109.981 E26.38057
G1 X198.1 Y124.288 E26.85642
G1 X198.073 Y126.265 E26.92219
G1 X198.073 Y128.899 E27.00979
G1 X198.147 Y132.027 E27.11386
G1 X198.274 Y134.609 E27.19984
G1 X198.466 Y137.087 E27.28251
G1 X198.739 Y139.653 E27.36833
G1 X199.072 Y142.117 E27.45103
G1 X199.482 Y144.619 E27.53536
G1 X199.962 Y147.109 E27.6197
G1 X200.423 Y149.208 E27.69118
G1 X200.583 Y150.136 E27.7225
G1 X200.662 Y151.149 E27.75629
G1 X200.677 Y151.797 E27.77785
G1 X200.676 Y165.862 E28.24566
G1 X200.666 Y166.607 E28.27044
G1 X200.612 Y167.544 E28.30165
G1 X200.474 Y168.473 E28.33289
G1 X200.255 Y169.385 E28.36409
G1 X199.957 Y170.275 E28.3953
G1 X199.58 Y171.135 E28.42654
G1 X199.13 Y171.957 E28.4577
G1 X198.608 Y172.738 E28.48895
G1 X198.019 Y173.468 E28.52015
G1 X197.394 Y174.119 E28.55016
G1 X196.659 Y174.76 E28.5826
G1 X195.899 Y175.31 E28.6138
G1 X195.093 Y175.791 E28.64502
G1 X194.248 Y176.199 E28.67623
G1 X193.37 Y176.53 E28.70744
G1 X192.466 Y176.783 E28.73866
G1 X191.539 Y176.955 E28.77002
G1 X190.388 Y177.053 E28.80844
G1 X189.747 Y177.067 E28.82976
G1 X170.633 Y177.066 E29.4655
G1 X169.915 Y177.055 E29.48938
G1 X168.976 Y176.998 E29.52067
G1 X167.982 Y176.847 E29.55411
G1 X164.907 Y176.225 E29.65846
G1 X162.46 Y175.807 E29.74102
G1 X159.92 Y175.446 E29.82635
G1 X157.442 Y175.165 E29.9093
G1 X154.893 Y174.948 E29.99439
G1 X152.422 Y174.808 E30.0767
G1 X148.476 Y174.725 E30.20798
G1 X145.558 Y174.724 E30.30503
G1 X144.538 Y174.706 E30.33896
G1 X143.85 Y174.677 E30.36186
G1 X141.252 Y174.603 E30.44831
G1 X138.742 Y174.603 E30.53179
G1 X134.682 Y174.725 E30.66689
G1 X118.306 Y174.725 E31.21156
G1 X115.711 Y174.762 E31.29788
G1 X113.143 Y174.871 E31.38337
G1 X110.655 Y175.047 E31.46632
G1 X108.163 Y175.294 E31.54961
G1 X105.6 Y175.622 E31.63555
G1 X103.105 Y176.014 E31.71956
G1 X100.814 Y176.433 E31.79702
G1 X99.888 Y176.56 E31.82811
G1 X99.22 Y176.6 E31.85036
G1 X98.604 Y176.613 E31.87086
G1 X79.489 Y176.612 E32.50662
G1 X78.79 Y176.602 E32.52988
G1 X77.837 Y176.545 E32.56163
G1 X76.915 Y176.408 E32.59263
G1 X76.431 Y176.301 E32.60912
G1 X74.684 Y175.866 E32.669
G1 X72.227 Y175.302 E32.75284
G1 X69.748 Y174.806 E32.83693
G1 X67.252 Y174.38 E32.92115
G1 X64.738 Y174.024 E33.0056
G1 X62.274 Y173.745 E33.08807
G1 X59.697 Y173.526 E33.17409
G1 X57.251 Y173.389 E33.25558
G1 X53.323 Y173.307 E33.38625
G1 X51.051 Y173.306 E33.46182
G1 X50.336 Y173.295 E33.4856
G1 X49.399 Y173.239 E33.51682
G1 X48.471 Y173.1 E33.54803
G1 X47.558 Y172.879 E33.57927
G1 X46.702 Y172.591 E33.60931
G1 X45.81 Y172.201 E33.64169
G1 X44.989 Y171.748 E33.67288
G1 X44.238 Y171.246 E33.70293
G1 X43.479 Y170.634 E33.73535
G1 X42.805 Y169.981 E33.76657
G1 X42.191 Y169.272 E33.79776
G1 X41.641 Y168.511 E33.82899
G1 X41.179 Y167.735 E33.85903
G1 X40.756 Y166.858 E33.89141
G1 X40.427 Y165.98 E33.9226
G1 X40.176 Y165.075 E33.95384
G1 X40.005 Y164.147 E33.98522
G1 X39.909 Y162.982 E34.0241
G1 X39.896 Y162.365 E34.04463
G1 X39.897 Y148.235 E34.51459
G1 X39.91 Y147.504 E34.53891
G1 X39.969 Y146.569 E34.57007
G1 X40.11 Y145.64 E34.60132
G1 X40.335 Y144.724 E34.63269
G1 X41.187 Y141.813 E34.73358
G1 X41.83 Y139.343 E34.81847
G1 X42.387 Y136.923 E34.90106
G1 X42.9 Y134.367 E34.98777
G1 X43.316 Y131.941 E35.06964
G1 X43.677 Y129.404 E35.15487
G1 X43.958 Y126.933 E35.23758
G1 X44.175 Y124.395 E35.3223
G1 X44.317 Y121.871 E35.40639
G1 X44.391 Y119.305 E35.49177
G1 X44.4 Y117.99 E35.53551
G1 X44.401 Y109.686 E35.8117
G1 X44.427 Y107.852 E35.8727
G1 X44.427 Y105.221 E35.96021
G1 X44.402 Y104.025 E36
G1 X44.401 Y89.686 E36.47691
G1 X44.427 Y87.852 E36.53792
G1 X44.427 Y85.221 E36.62543
G1 X44.402 Y84.025 E36.66522
G1 X44.401 Y69.667 E37.14276
G1 X44.413 Y68.942 E37.16688
G1 X44.471 Y68.004 E37.19814
G1 X44.622 Y67.022 E37.23118
G1 X45.259 Y63.875 E37.33798
G1 X45.686 Y61.385 E37.422
G1 X46.036 Y58.918 E37.50488
G1 X46.321 Y56.405 E37.589
G1 X46.538 Y53.856 E37.67408
G1 X46.678 Y51.386 E37.75637
G1 X46.761 Y47.413 E37.88854
G1 X46.771 Y45.772 E37.94312
G1 X46.816 Y44.87 E37.97316
G1 X46.951 Y43.906 E38.00553
G1 X47.165 Y42.992 E38.03675
G1 X47.457 Y42.1 E38.06797
G1 X47.813 Y41.269 E38.09804
G1 X48.274 Y40.412 E38.13041
G1 X48.79 Y39.629 E38.1616
G1 X49.375 Y38.894 E38.19284
G0 F6000 X49.665 Y39.169
G1 F1200 X50.286 Y38.514 E38.22286
G1 X50.963 Y37.916 E38.2529
G1 X51.69 Y37.38 E38.28295
G1 X52.462 Y36.911 E38.31299
G1 X53.272 Y36.512 E38.34302
G1 X54.114 Y36.186 E38.37305
G1 X54.982 Y35.936 E38.4031
G1 X55.868 Y35.763 E38.43312
G1 X57.084 Y35.656 E38.47372
G1 X57.691 Y35.643 E38.49391
G1 X76.654 Y35.643 E39.12463
G1 X77.501 Y35.654 E39.1528
G1 X78.403 Y35.707 E39.18285
G1 X79.296 Y35.839 E39.21288
G1 X79.819 Y35.955 E39.23069
G1 X81.402 Y36.349 E39.28495
G1 X83.915 Y36.925 E39.3707
G1 X86.452 Y37.431 E39.45674
G1 X88.936 Y37.854 E39.54055
G1 X91.409 Y38.204 E39.62362
G1 X93.973 Y38.493 E39.70944
G1 X96.491 Y38.705 E39.79349
G1 X98.988 Y38.845 E39.87667
G1 X102.872 Y38.925 E40.00588
G1 X104.435 Y38.926 E40.05786
G1 X105.445 Y38.944 E40.09146
G1 X106.133 Y38.973 E40.11437
G1 X108.737 Y39.047 E40.20101
G1 X111.27 Y39.047 E40.28526
G1 X115.33 Y38.925 E40.42036
G1 X134.435 Y38.926 E41.05579
G1 X135.445 Y38.944 E41.08939
G1 X136.133 Y38.973 E41.11229
G1 X138.737 Y39.047 E41.19894
G1 X141.27 Y39.047 E41.28318
G1 X145.33 Y38.925 E41.41828
G1 X164.451 Y38.926 E42.05425
G1 X165.161 Y38.937 E42.07787
G1 X166.063 Y38.991 E42.10792
G1 X166.639 Y39.068 E42.12725
G1 X168.311 Y39.34 E42.18359
G1 X170.817 Y39.696 E42.26778
G1 X173.372 Y39.986 E42.3533
G1 X175.883 Y40.2 E42.43712
G1 X178.387 Y40.341 E42.52054
G1 X182.351 Y40.425 E42.65241
G1 X189.012 Y40.426 E42.87396
G1 X189.71 Y40.436 E42.89717
G1 X190.612 Y40.489 E42.92723
G1 X191.505 Y40.621 E42.95725
G1 X192.383 Y40.832 E42.98728
G1 X193.239 Y41.12 E43.01732
G1 X194.066 Y41.482 E43.04735
G1 X194.858 Y41.917 E43.0774
G1 X195.609 Y42.419 E43.10745
G1 X196.312 Y42.986 E43.13749
G1 X196.962 Y43.613 E43.16752
G1 X197.554 Y44.295 E43.19756
G1 X198.084 Y45.026 E43.22759
G1 X198.546 Y45.802 E43.25763
