;FLAVOR:Marlin
;TIME:18421
;Filament used: 13.6727m
;Layer height: 0.2
;MINX:40.987
;MINY:27.533
;MINZ:0.2
;MAXX:222.319
;MAXY:191.533
;MAXZ:34
;TARGET_MACHINE.NAME:Creality Ender-3
;Generated with Cura_SteamEngine 5.6.0
M140 S50
M105
M190 S50
M104 S200
M105
M109 S200
M82 ;absolute extrusion mode
; Ender 3 Custom Start G-code
G92 E0 ; Reset Extruder
G28 ; Home all axes
G1 Z2.0 F3000 ; Move Z Axis up little to prevent scratching of Heat Bed
G1 X0.1 Y20 Z0.3 F5000.0 ; Move to start position
G1 X0.1 Y200.0 Z0.3 F1500.0 E15 ; Draw the first line
G1 X0.4 Y200.0 Z0.3 F5000.0 ; Move to side a little
G1 X0.4 Y20 Z0.3 F1500.0 E30 ; Draw the second line
G92 E0 ; Reset Extruder
G1 Z2.0 F3000 ; Move Z Axis up little to prevent scratching of Heat Bed
G1 X5 Y20 Z0.3 F5000.0 ; Move over to prevent blob squish
G92 E0
G92 E0
G1 F2700 E-5
;LAYER_COUNT:170
;LAYER:0
M107
G0 F6000 X43.586 Y32.752 Z0.2
;TYPE:SKIRT
G1 F2700 E0
G1 F1200 X44.177 Y32.031 E0.03101
G1 X44.579 Y31.605 E0.05049
G1 X45.049 Y31.136 E0.07257
G1 X45.769 Y30.479 E0.10499
G1 X46.486 Y29.93 E0.13503
G1 X47.756 Y29.16 E0.18442
G1 X48.34 Y28.859 E0.20628
G1 X49.225 Y28.453 E0.23866
G1 X50.143 Y28.127 E0.27106
G1 X51.07 Y27.887 E0.30291
G1 X51.593 Y27.788 E0.32062
G1 X52.219 Y27.686 E0.34171
G1 X53.662 Y27.548 E0.38992
G1 X54.286 Y27.534 E0.41068
G1 X99.291 Y27.533 E1.90756
G1 X100.258 Y27.548 E1.93972
G1 X101.223 Y27.608 E1.97188
G1 X101.961 Y27.712 E1.99667
G1 X102.553 Y27.818 E2.01667
G1 X103.474 Y28.025 E2.04807
G1 X104.703 Y28.435 E2.09116
G1 X106.828 Y29.288 E2.16732
G1 X109.202 Y30.168 E2.25153
G1 X111.611 Y30.985 E2.33614
G1 X114.021 Y31.726 E2.42
G1 X116.441 Y32.398 E2.50353
G1 X118.845 Y32.991 E2.58588
G1 X121.391 Y33.542 E2.67253
G1 X123.809 Y33.996 E2.75435
G1 X126.266 Y34.386 E2.8371
G1 X128.839 Y34.719 E2.92339
G1 X131.288 Y34.965 E3.00525
G1 X133.802 Y35.149 E3.08909
G1 X136.32 Y35.259 E3.17292
G1 X139.087 Y35.301 E3.26496
G1 X161.557 Y35.302 E4.01232
G1 X162.372 Y35.317 E4.03943
G1 X163.4 Y35.384 E4.07369
G1 X164.746 Y35.594 E4.119
G1 X165.04 Y35.661 E4.12903
G1 X166.426 Y36.062 E4.17702
G1 X167.392 Y36.455 E4.21171
G1 X168.304 Y36.916 E4.2457
G1 X169.14 Y37.406 E4.27793
G1 X169.826 Y37.887 E4.30579
G1 X170.079 Y38.081 E4.3164
G1 X170.819 Y38.7 E4.34848
G1 X171.34 Y39.206 E4.37264
G1 X171.982 Y39.906 E4.40423
G1 X172.538 Y40.617 E4.43425
G1 X173.083 Y41.413 E4.46634
G1 X173.487 Y42.114 E4.49325
G1 X173.952 Y43.052 E4.52807
G1 X175.122 Y45.72 E4.62496
G1 X176.214 Y48.019 E4.70962
G1 X177.343 Y50.235 E4.79234
G1 X178.562 Y52.467 E4.87692
G1 X179.829 Y54.639 E4.96056
G1 X181.161 Y56.782 E5.04448
G1 X182.56 Y58.896 E5.12879
G1 X183.985 Y60.924 E5.21123
G1 X185.49 Y62.942 E5.29496
G1 X187.062 Y64.929 E5.37923
G1 X188.661 Y66.837 E5.46203
G1 X190.345 Y68.732 E5.54635
G1 X192.07 Y70.571 E5.63021
G1 X193.838 Y72.349 E5.71361
G1 X195.684 Y74.103 E5.7983
G1 X197.529 Y75.761 E5.8808
G1 X199.489 Y77.424 E5.9663
G1 X201.406 Y78.959 E6.04798
G1 X203.45 Y80.502 E6.13316
G1 X205.492 Y81.955 E6.21651
G1 X207.598 Y83.366 E6.30083
G1 X209.704 Y84.694 E6.38364
G1 X211.835 Y85.952 E6.46594
G1 X215.824 Y88.117 E6.6169
G1 X216.636 Y88.594 E6.64822
G1 X217.606 Y89.299 E6.68811
G1 X217.843 Y89.493 E6.69829
G1 X218.517 Y90.094 E6.72833
G1 X219.356 Y91.002 E6.76945
G1 X219.57 Y91.263 E6.78067
G1 X220.113 Y91.985 E6.81072
G1 X220.779 Y93.082 E6.8534
G1 X220.938 Y93.384 E6.86476
G1 X221.34 Y94.235 E6.89606
G1 X221.731 Y95.317 E6.93432
G1 X221.832 Y95.653 E6.94599
G1 X222.068 Y96.597 E6.97836
G1 X222.221 Y97.561 E7.01082
G1 X222.29 Y98.567 E7.04436
G1 X222.318 Y99.898 E7.08864
G1 X222.319 Y125.461 E7.93887
G1 X222.312 Y126.027 E7.95769
G1 X222.279 Y126.72 E7.98077
G1 X222.233 Y127.289 E7.99976
G1 X222.107 Y128.273 E8.03275
G1 X221.758 Y129.727 E8.08249
G1 X221.362 Y130.831 E8.1215
G1 X220.907 Y131.795 E8.15695
G1 X220.726 Y132.131 E8.16964
G1 X220.221 Y132.973 E8.2023
G1 X219.563 Y133.864 E8.23914
G1 X219.327 Y134.149 E8.25145
G1 X218.666 Y134.874 E8.28408
G1 X217.843 Y135.622 E8.32107
G1 X217.556 Y135.856 E8.33338
G1 X216.795 Y136.418 E8.36485
G1 X215.586 Y137.127 E8.41146
G1 X212.831 Y138.512 E8.51402
G1 X210.609 Y139.706 E8.59792
G1 X208.407 Y140.968 E8.68234
G1 X206.265 Y142.279 E8.76586
G1 X204.175 Y143.64 E8.84882
G1 X202.084 Y145.088 E8.93341
G1 X200.032 Y146.595 E9.01809
G1 X198.111 Y148.094 E9.09913
G1 X196.125 Y149.734 E9.1848
G1 X194.27 Y151.358 E9.2668
G1 X192.369 Y153.118 E9.35296
G1 X190.607 Y154.846 E9.43505
G1 X188.833 Y156.686 E9.52006
G1 X187.162 Y158.52 E9.60258
G1 X185.499 Y160.452 E9.68736
G1 X183.927 Y162.387 E9.77028
G1 X182.403 Y164.376 E9.85363
G1 X180.908 Y166.442 E9.93844
G1 X179.503 Y168.507 E10.02152
G1 X178.151 Y170.621 E10.10498
G1 X176.844 Y172.798 E10.18943
G1 X175.618 Y174.978 E10.27262
G1 X174.439 Y177.218 E10.35681
G1 X173.322 Y179.493 E10.44111
G1 X172.515 Y181.244 E10.50523
G1 X172.075 Y182.103 E10.53733
G1 X171.583 Y182.93 E10.56934
G1 X171.217 Y183.455 E10.59063
G1 X171.018 Y183.721 E10.60167
G1 X170.403 Y184.471 E10.63393
G1 X169.796 Y185.101 E10.66303
G1 X169.048 Y185.785 E10.69674
G1 X168.435 Y186.265 E10.72264
G1 X167.594 Y186.84 E10.75652
G1 X166.853 Y187.265 E10.78493
G1 X165.94 Y187.713 E10.81876
G1 X165.193 Y188.011 E10.84551
G1 X164.226 Y188.328 E10.87936
G1 X163.316 Y188.545 E10.91047
G1 X162.35 Y188.711 E10.94307
G1 X161.219 Y188.795 E10.98079
G1 X159.902 Y188.823 E11.02461
G1 X129.247 Y188.824 E12.0442
G1 X128.254 Y188.806 E12.07723
G1 X127.663 Y188.781 E12.0969
G1 X125.057 Y188.707 E12.18361
G1 X122.569 Y188.707 E12.26636
G1 X120.029 Y188.779 E12.35088
G1 X117.522 Y188.921 E12.4344
G1 X115.02 Y189.132 E12.51791
G1 X112.535 Y189.415 E12.60109
G1 X109.987 Y189.777 E12.68669
G1 X107.555 Y190.194 E12.76876
G1 X105.042 Y190.698 E12.85401
G1 X103.039 Y191.152 E12.92232
G1 X102.391 Y191.277 E12.94427
G1 X101.742 Y191.382 E12.96613
G1 X100.31 Y191.518 E13.01398
G1 X99.687 Y191.532 E13.0347
G1 X85.682 Y191.533 E13.50051
G1 X84.867 Y191.521 E13.52762
G1 X83.626 Y191.427 E13.56902
G1 X82.843 Y191.319 E13.5953
G1 X81.887 Y191.141 E13.62765
G1 X80.933 Y190.874 E13.6606
G1 X79.661 Y190.366 E13.70615
G1 X78.913 Y189.996 E13.73391
G1 X78.571 Y189.81 E13.74686
G1 X77.736 Y189.309 E13.77925
G1 X77.004 Y188.779 E13.8093
G1 X76.14 Y188.019 E13.84758
G1 X75.748 Y187.636 E13.8658
G1 X74.809 Y186.59 E13.91256
G1 X74.101 Y185.687 E13.95072
G1 X44.021 Y145.67 E15.61578
G1 X43.491 Y144.945 E15.64565
G1 X42.945 Y144.118 E15.67861
G1 X42.718 Y143.736 E15.69339
G1 X42.263 Y142.885 E15.72548
G1 X41.762 Y141.655 E15.76966
G1 X41.597 Y141.165 E15.78685
G1 X41.349 Y140.296 E15.81691
G1 X41.098 Y138.828 E15.86644
G1 X41.05 Y138.344 E15.88262
G1 X40.996 Y137.444 E15.91261
G1 X40.987 Y136.902 E15.93064
G1 X40.987 Y41.046 E19.11882
G1 X40.999 Y40.336 E19.14244
G1 X41.072 Y39.26 E19.17831
G1 X41.181 Y38.468 E19.2049
G1 X41.257 Y38.026 E19.21982
G1 X41.468 Y37.076 E19.25218
G1 X41.752 Y36.176 E19.28357
G1 X42.248 Y35.019 E19.32544
G1 X42.559 Y34.401 E19.34845
G1 X43.037 Y33.553 E19.38083
G1 X43.586 Y32.752 E19.41313
G0 F6000 X43.896 Y33.005
G1 F1200 X44.468 Y32.306 E19.44317
G1 X44.87 Y31.88 E19.46265
G1 X45.319 Y31.431 E19.48377
G1 X46.012 Y30.797 E19.51501
G1 X46.729 Y30.248 E19.54505
G1 X47.94 Y29.515 E19.59213
G1 X48.507 Y29.222 E19.61335
G1 X49.36 Y28.83 E19.64458
G1 X50.244 Y28.514 E19.6758
G1 X51.144 Y28.28 E19.70673
G1 X51.657 Y28.183 E19.7241
G1 X52.283 Y28.081 E19.74519
G1 X53.671 Y27.948 E19.79157
G1 X54.286 Y27.934 E19.81203
G1 X99.285 Y27.933 E21.3087
G1 X100.234 Y27.947 E21.34027
G1 X101.167 Y28.004 E21.37136
G1 X101.891 Y28.106 E21.39568
G1 X102.465 Y28.208 E21.41507
G1 X103.386 Y28.415 E21.44646
G1 X104.554 Y28.806 E21.48743
G1 X106.689 Y29.663 E21.56395
G1 X109.074 Y30.547 E21.64855
G1 X111.483 Y31.364 E21.73315
G1 X113.91 Y32.11 E21.8176
G1 X116.345 Y32.786 E21.90165
G1 X118.76 Y33.382 E21.98439
G1 X121.304 Y33.933 E22.07096
G1 X123.746 Y34.391 E22.1536
G1 X126.215 Y34.783 E22.23675
G1 X128.788 Y35.116 E22.32304
G1 X131.255 Y35.364 E22.40551
G1 X133.785 Y35.549 E22.48988
G1 X136.303 Y35.659 E22.57371
G1 X139.081 Y35.701 E22.66612
G1 X161.55 Y35.702 E23.41344
G1 X162.347 Y35.716 E23.43995
G1 X163.339 Y35.779 E23.47301
G1 X164.658 Y35.984 E23.51741
G1 X164.929 Y36.045 E23.52665
G1 X166.275 Y36.433 E23.57324
G1 X167.241 Y36.826 E23.60792
G1 X168.102 Y37.261 E23.64001
G1 X168.91 Y37.733 E23.67113
G1 X169.583 Y38.205 E23.69847
G1 X169.823 Y38.388 E23.70851
G1 X170.54 Y38.987 E23.73958
G1 X171.061 Y39.493 E23.76374
G1 X171.687 Y40.176 E23.79456
G1 X172.208 Y40.843 E23.82271
G1 X172.736 Y41.613 E23.85376
G1 X173.14 Y42.314 E23.88067
G1 X173.586 Y43.213 E23.91405
G1 X174.761 Y45.892 E24.01134
G1 X175.858 Y48.201 E24.09637
G1 X176.992 Y50.427 E24.17946
G1 X178.216 Y52.669 E24.26442
G1 X179.483 Y54.841 E24.34805
G1 X180.827 Y57.003 E24.43272
G1 X182.226 Y59.117 E24.51704
G1 X183.664 Y61.163 E24.60021
G1 X185.176 Y63.19 E24.68432
G1 X186.755 Y65.186 E24.76897
G1 X188.362 Y67.103 E24.85217
G1 X190.053 Y69.006 E24.93684
G1 X191.786 Y70.853 E25.02108
G1 X193.562 Y72.639 E25.10485
G1 X195.408 Y74.393 E25.18955
G1 X197.27 Y76.066 E25.2728
G1 X199.23 Y77.729 E25.3583
G1 X201.165 Y79.278 E25.44074
G1 X203.218 Y80.828 E25.5263
G1 X205.26 Y82.281 E25.60965
G1 X207.375 Y83.698 E25.69433
G1 X209.501 Y85.038 E25.77791
G1 X211.644 Y86.304 E25.8607
G1 X215.622 Y88.462 E26.01122
G1 X216.401 Y88.918 E26.04124
G1 X217.353 Y89.609 E26.08037
G1 X217.577 Y89.792 E26.08999
G1 X218.251 Y90.393 E26.12002
G1 X219.047 Y91.256 E26.15907
G1 X219.25 Y91.503 E26.1697
G1 X219.793 Y92.225 E26.19975
G1 X220.425 Y93.269 E26.24034
G1 X220.576 Y93.555 E26.2511
G1 X220.978 Y94.406 E26.2824
G1 X221.348 Y95.432 E26.31868
G1 X221.444 Y95.751 E26.32976
G1 X221.673 Y96.66 E26.36094
G1 X221.822 Y97.588 E26.3922
G1 X221.89 Y98.575 E26.4251
G1 X221.918 Y99.898 E26.46912
G1 X221.919 Y125.456 E27.31918
G1 X221.912 Y126.008 E27.33754
G1 X221.88 Y126.688 E27.36018
G1 X221.836 Y127.239 E27.37857
G1 X221.718 Y128.18 E27.41011
G1 X221.369 Y129.634 E27.45984
G1 X221 Y130.66 E27.49611
G1 X220.545 Y131.624 E27.53156
G1 X220.383 Y131.926 E27.54296
G1 X219.899 Y132.735 E27.57432
G1 X219.241 Y133.626 E27.61116
G1 X219.031 Y133.88 E27.62212
G1 X218.397 Y134.578 E27.65348
G1 X217.574 Y135.326 E27.69047
G1 X217.318 Y135.534 E27.70144
G1 X216.557 Y136.096 E27.73291
G1 X215.406 Y136.77 E27.77727
G1 X212.651 Y138.155 E27.87983
G1 X210.41 Y139.359 E27.96444
G1 X208.208 Y140.621 E28.04885
G1 X206.056 Y141.938 E28.13277
G1 X203.947 Y143.311 E28.21647
G1 X201.856 Y144.759 E28.30107
G1 X199.795 Y146.273 E28.38612
G1 X197.856 Y147.786 E28.46792
G1 X195.87 Y149.426 E28.55359
G1 X193.998 Y151.064 E28.63632
G1 X192.097 Y152.824 E28.72249
G1 X190.327 Y154.56 E28.80495
G1 X188.545 Y156.408 E28.89033
G1 X186.866 Y158.251 E28.97326
G1 X185.196 Y160.191 E29.05839
G1 X183.609 Y162.144 E29.14209
G1 X182.085 Y164.133 E29.22543
G1 X180.577 Y166.217 E29.31099
G1 X179.172 Y168.282 E29.39406
G1 X177.814 Y170.405 E29.47789
G1 X176.501 Y172.592 E29.56273
G1 X175.269 Y174.782 E29.6463
G1 X174.085 Y177.032 E29.73087
G1 X172.963 Y179.317 E29.81553
G1 X172.159 Y181.062 E29.87944
G1 X171.731 Y181.899 E29.9107
G1 X171.255 Y182.701 E29.94172
G1 X170.896 Y183.216 E29.9626
G1 X170.708 Y183.468 E29.97306
G1 X170.115 Y184.193 E30.00421
G1 X169.508 Y184.823 E30.03331
G1 X168.801 Y185.47 E30.06518
G1 X168.188 Y185.95 E30.09108
G1 X167.395 Y186.493 E30.12305
G1 X166.654 Y186.918 E30.15146
G1 X165.792 Y187.341 E30.18339
G1 X165.045 Y187.639 E30.21014
G1 X164.133 Y187.939 E30.24208
G1 X163.248 Y188.151 E30.27234
G1 X162.32 Y188.312 E30.30367
G1 X161.21 Y188.395 E30.34069
G1 X159.902 Y188.423 E30.38421
G1 X129.254 Y188.424 E31.40356
G1 X128.271 Y188.406 E31.43626
G1 X127.68 Y188.381 E31.45594
G1 X125.068 Y188.307 E31.54285
G1 X122.558 Y188.307 E31.62633
G1 X120.018 Y188.379 E31.71085
G1 X117.488 Y188.522 E31.79513
G1 X114.986 Y188.734 E31.87864
G1 X112.479 Y189.019 E31.96256
G1 X109.931 Y189.381 E32.04816
G1 X107.48 Y189.801 E32.13087
G1 X104.963 Y190.306 E32.21625
G1 X102.963 Y190.759 E32.28446
G1 X102.327 Y190.882 E32.306
G1 X101.678 Y190.987 E32.32787
G1 X100.301 Y191.118 E32.37388
G1 X99.687 Y191.132 E32.3943
G1 X85.688 Y191.133 E32.85991
G1 X84.897 Y191.122 E32.88622
G1 X83.656 Y191.028 E32.92762
G1 X82.916 Y190.926 E32.95246
G1 X81.994 Y190.756 E32.98365
G1 X81.081 Y190.502 E33.01517
G1 X79.838 Y190.007 E33.05967
G1 X79.103 Y189.644 E33.08693
G1 X78.776 Y189.467 E33.0993
G1 X77.971 Y188.985 E33.1305
G1 X77.239 Y188.455 E33.16056
G1 X76.419 Y187.733 E33.1969
G1 X76.046 Y187.369 E33.21424
G1 X75.124 Y186.343 E33.26012
G1 X74.421 Y185.447 E33.29799
G1 X44.344 Y145.434 E34.96288
G1 X43.825 Y144.724 E34.99214
G1 X43.289 Y143.913 E35.02447
G1 X43.071 Y143.547 E35.03864
G1 X42.616 Y142.696 E35.07073
G1 X42.133 Y141.505 E35.11348
G1 X41.982 Y141.055 E35.12927
G1 X41.734 Y140.186 E35.15932
G1 X41.496 Y138.788 E35.20649
G1 X41.449 Y138.32 E35.22213
G1 X41.396 Y137.437 E35.25156
G1 X41.387 Y136.895 E35.26959
G1 X41.387 Y41.052 E38.45734
G1 X41.398 Y40.363 E38.48026
G1 X41.471 Y39.287 E38.51613
G1 X41.575 Y38.536 E38.54134
G1 X41.648 Y38.112 E38.55565
G1 X41.85 Y37.196 E38.58685
G1 X42.12 Y36.334 E38.61689
G1 X42.616 Y35.177 E38.65876
G1 X42.908 Y34.597 E38.68036
G1 X43.367 Y33.779 E38.71156
G1 X43.896 Y33.005 E38.74274
G0 F6000 X44.206 Y33.258
G1 F1200 X44.778 Y32.559 E38.77278
G1 X45.153 Y32.163 E38.79092
G1 X45.589 Y31.726 E38.81145
G1 X46.255 Y31.115 E38.84151
G1 X46.972 Y30.566 E38.87155
G1 X48.124 Y29.87 E38.91631
G1 X48.675 Y29.585 E38.93695
G1 X49.495 Y29.206 E38.96699
G1 X50.345 Y28.901 E38.99703
G1 X51.218 Y28.673 E39.02704
G1 X51.721 Y28.578 E39.04406
G1 X52.347 Y28.476 E39.06516
G1 X53.68 Y28.348 E39.1097
G1 X54.286 Y28.334 E39.12986
G1 X99.279 Y28.333 E40.62633
G1 X100.21 Y28.346 E40.6573
G1 X101.111 Y28.4 E40.68732
G1 X101.822 Y28.5 E40.7112
G1 X102.378 Y28.598 E40.72998
G1 X103.259 Y28.794 E40.76
G1 X104.405 Y29.177 E40.80019
G1 X106.55 Y30.038 E40.87706
G1 X108.946 Y30.926 E40.96205
G1 X111.355 Y31.743 E41.04666
G1 X113.792 Y32.492 E41.13146
G1 X116.249 Y33.174 E41.21627
G1 X118.675 Y33.773 E41.29938
G1 X121.217 Y34.324 E41.38589
G1 X123.683 Y34.786 E41.46933
G1 X126.164 Y35.18 E41.55289
G1 X128.737 Y35.513 E41.63918
G1 X131.222 Y35.763 E41.72225
G1 X133.768 Y35.949 E41.80715
G1 X136.286 Y36.059 E41.89098
G1 X139.075 Y36.101 E41.98376
G1 X161.543 Y36.102 E42.73104
G1 X162.322 Y36.115 E42.75696
G1 X163.278 Y36.174 E42.78882
G1 X164.571 Y36.375 E42.83234
G1 X164.819 Y36.43 E42.84079
G1 X166.124 Y36.804 E42.88594
G1 X167.09 Y37.197 E42.92062
G1 X167.901 Y37.607 E42.95085
G1 X168.681 Y38.061 E42.98087
G1 X169.341 Y38.523 E43.00766
G1 X169.567 Y38.695 E43.01711
G1 X170.261 Y39.274 E43.04717
G1 X170.782 Y39.78 E43.07133
G1 X171.392 Y40.446 E43.10136
G1 X171.878 Y41.069 E43.12764
G1 X172.389 Y41.813 E43.15766
G1 X172.793 Y42.514 E43.18457
G1 X173.22 Y43.374 E43.21651
G1 X174.4 Y46.064 E43.31421
G1 X175.502 Y48.383 E43.39961
G1 X176.641 Y50.619 E43.48307
G1 X177.87 Y52.871 E43.5684
G1 X179.137 Y55.043 E43.65203
G1 X180.493 Y57.224 E43.73745
G1 X181.892 Y59.338 E43.82176
G1 X183.343 Y61.402 E43.90568
G1 X184.862 Y63.438 E43.99017
G1 X186.448 Y65.443 E44.07519
G1 X188.063 Y67.369 E44.15879
G1 X189.761 Y69.28 E44.24382
G1 X191.502 Y71.135 E44.32843
G1 X193.286 Y72.929 E44.41258
G1 X195.132 Y74.683 E44.49728
G1 X197.011 Y76.371 E44.58129
G1 X198.971 Y78.034 E44.66678
G1 X200.924 Y79.597 E44.74998
G1 X202.986 Y81.154 E44.83592
G1 X205.027 Y82.607 E44.91925
G1 X207.152 Y84.03 E45.00431
G1 X209.298 Y85.382 E45.08867
G1 X211.453 Y86.655 E45.17191
G1 X214.9 Y88.532 E45.30246
G1 X215.42 Y88.807 E45.32202
G1 X216.199 Y89.263 E45.35205
G1 X217.1 Y89.919 E45.38911
G1 X217.311 Y90.091 E45.39817
G1 X217.985 Y90.692 E45.4282
G1 X218.738 Y91.51 E45.46518
G1 X218.93 Y91.743 E45.47522
G1 X219.473 Y92.465 E45.50527
G1 X220.072 Y93.456 E45.54379
G1 X220.215 Y93.726 E45.55395
G1 X220.602 Y94.542 E45.58399
G1 X220.965 Y95.548 E45.61956
G1 X221.056 Y95.849 E45.63002
G1 X221.278 Y96.724 E45.66004
G1 X221.423 Y97.616 E45.6901
G1 X221.49 Y98.584 E45.72237
