;FLAVOR:Marlin
;TIME:4443
;Filament used: 2.61714m
;Layer height: 0.16
;MINX:90.033
;MINY:91.7
;MINZ:0.2
;MAXX:167.583
;MAXY:156.705
;MAXZ:17.92
;TARGET_MACHINE.NAME:Creality Ender-3
;Generated with Cura_SteamEngine 5.6.0
M140 S50
M105
M190 S50
M104 S200
M105
M109 S200
M82 ;absolute extrusion mode
; Ender 3 Custom Start G-code
G92 E0 ; Reset Extruder
G28 ; Home all axes
G1 Z2.0 F3000 ; Move Z Axis up little to prevent scratching of Heat Bed
G1 X0.1 Y20 Z0.3 F5000.0 ; Move to start position
G1 X0.1 Y200.0 Z0.3 F1500.0 E15 ; Draw the first line
G1 X0.4 Y200.0 Z0.3 F5000.0 ; Move to side a little
G1 X0.4 Y20 Z0.3 F1500.0 E30 ; Draw the second line
G92 E0 ; Reset Extruder
G1 Z2.0 F3000 ; Move Z Axis up little to prevent scratching of Heat Bed
G1 X5 Y20 Z0.3 F5000.0 ; Move over to prevent blob squish
G92 E0
G92 E0
G1 F2700 E-5
;LAYER_COUNT:99
;LAYER:0
M107
G0 F6000 X93.618 Y93.304 Z0.2
;TYPE:SKIRT
G1 F2700 E0
G1 F1200 X96.186 Y91.991 E0.09593
G1 X98.05 Y91.745 E0.15846
G1 X136.166 Y91.7 E1.42621
G1 X138.761 Y91.964 E1.51296
G1 X141.396 Y93.306 E1.61132
G1 X143.367 Y95.274 E1.70395
G1 X144.702 Y97.899 E1.8019
G1 X144.949 Y100.116 E1.8761
G1 X144.895 Y105.532 E2.05624
G1 X144.659 Y107.176 E2.11148
G1 X143.359 Y109.752 E2.20745
G1 X141.936 Y111.151 E2.27383
G1 X158.459 Y111.121 E2.82338
G1 X161.075 Y111.413 E2.91093
G1 X163.81 Y112.803 E3.01297
G1 X165.898 Y114.891 E3.11119
G1 X167.284 Y117.616 E3.21287
G1 X167.583 Y120.285 E3.3022
G1 X167.491 Y148.66 E4.24596
G1 X167.221 Y150.334 E4.30236
G1 X165.898 Y152.934 E4.39938
G1 X163.818 Y155.014 E4.49722
G1 X161.07 Y156.412 E4.59977
G1 X158.46 Y156.705 E4.68712
G1 X130.112 Y156.618 E5.62998
G1 X128.368 Y156.345 E5.6887
G1 X125.767 Y155.022 E5.78575
G1 X123.683 Y152.938 E5.88378
G1 X122.289 Y150.197 E5.98606
G1 X121.989 Y147.403 E6.07952
G1 X122 Y142.409 E6.24562
G1 X120.785 Y143.034 E6.29107
G1 X118.523 Y143.284 E6.36676
G1 X97.8 Y143.228 E7.05601
G1 X96.126 Y142.985 E7.11227
G1 X93.615 Y141.708 E7.20597
G1 X91.632 Y139.727 E7.29919
G1 X90.298 Y137.1 E7.39719
G1 X90.033 Y134.495 E7.48428
G1 X90.105 Y99.468 E8.64928
G1 X90.341 Y97.824 E8.70452
G1 X91.641 Y95.248 E8.80049
G1 X93.618 Y93.304 E8.89271
G0 F6000 X93.854 Y93.633
G1 F1200 X96.305 Y92.379 E8.98428
G1 X98.102 Y92.142 E9.04457
G1 X136.166 Y92.1 E10.31058
G1 X138.648 Y92.355 E10.39357
G1 X141.156 Y93.632 E10.48718
G1 X143.039 Y95.512 E10.57568
G1 X144.312 Y98.015 E10.66908
G1 X144.551 Y100.16 E10.74086
G1 X144.499 Y105.475 E10.91765
G1 X144.272 Y107.055 E10.97074
G1 X143.031 Y109.514 E11.06235
G1 X141.146 Y111.367 E11.15026
G1 X140.784 Y111.553 E11.1638
G1 X158.415 Y111.519 E11.75021
G1 X160.959 Y111.803 E11.83535
G1 X163.572 Y113.131 E11.93284
G1 X165.57 Y115.129 E12.02682
G1 X166.894 Y117.732 E12.12395
G1 X167.185 Y120.33 E12.2109
G1 X167.096 Y148.596 E13.15104
G1 X166.836 Y150.208 E13.20535
G1 X165.57 Y152.696 E13.29819
G1 X163.58 Y154.686 E13.3918
G1 X160.954 Y156.022 E13.48979
G1 X158.415 Y156.307 E13.57477
G1 X130.174 Y156.223 E14.51407
G1 X128.494 Y155.96 E14.57063
G1 X126.005 Y154.694 E14.66351
G1 X124.011 Y152.7 E14.7573
G1 X122.679 Y150.081 E14.85503
G1 X122.389 Y147.404 E14.94459
G1 X122.402 Y141.753 E15.13254
G1 X120.668 Y142.644 E15.19738
G1 X118.524 Y142.884 E15.26914
G1 X97.858 Y142.832 E15.95649
G1 X96.249 Y142.598 E16.01057
G1 X93.853 Y141.38 E16.09997
G1 X91.96 Y139.489 E16.18896
G1 X90.688 Y136.985 E16.28238
G1 X90.433 Y134.496 E16.36559
G1 X90.501 Y99.525 E17.52874
G1 X90.728 Y97.945 E17.58183
G1 X91.969 Y95.486 E17.67344
G1 X93.854 Y93.633 E17.76135
G0 F6000 X94.09 Y93.961
G1 F1200 X96.424 Y92.767 E17.84855
G1 X98.154 Y92.539 E17.90659
G1 X136.166 Y92.5 E19.17087
G1 X138.534 Y92.745 E19.25005
G1 X140.917 Y93.959 E19.339
G1 X142.711 Y95.75 E19.42332
G1 X143.922 Y98.131 E19.51217
G1 X144.153 Y100.204 E19.58154
G1 X144.103 Y105.418 E19.75497
G1 X143.885 Y106.934 E19.80591
G1 X142.703 Y109.276 E19.89316
G1 X140.91 Y111.039 E19.9768
G1 X139.118 Y111.956 E20.04375
G1 X158.371 Y111.917 E20.68411
G1 X160.843 Y112.193 E20.76684
G1 X163.334 Y113.459 E20.85977
G1 X165.242 Y115.367 E20.94952
G1 X166.504 Y117.848 E21.0421
G1 X166.787 Y120.375 E21.12667
G1 X166.701 Y148.532 E22.06318
G1 X166.451 Y150.082 E22.1154
G1 X165.242 Y152.458 E22.20407
G1 X163.342 Y154.358 E22.29344
G1 X160.838 Y155.632 E22.38689
G1 X158.37 Y155.909 E22.46949
G1 X130.236 Y155.828 E23.40523
G1 X128.62 Y155.575 E23.45964
G1 X126.243 Y154.366 E23.54833
G1 X124.339 Y152.462 E23.63789
G1 X123.069 Y149.965 E23.73107
G1 X122.789 Y147.405 E23.81672
G1 X122.803 Y141.097 E24.02653
G1 X120.551 Y142.254 E24.11074
G1 X118.479 Y142.486 E24.18008
G1 X97.915 Y142.436 E24.86404
G1 X96.372 Y142.212 E24.9159
G1 X94.091 Y141.052 E25.00102
G1 X92.288 Y139.251 E25.08578
G1 X91.078 Y136.87 E25.17461
G1 X90.833 Y134.497 E25.25395
G1 X90.897 Y99.582 E26.41523
G1 X91.115 Y98.066 E26.46617
G1 X92.297 Y95.724 E26.55343
G1 X94.09 Y93.961 E26.63706
G0 F6000 X94.326 Y94.289
G1 F1200 X96.543 Y93.155 E26.71989
G1 X98.206 Y92.936 E26.77568
G1 X136.166 Y92.9 E28.03823
G1 X138.42 Y93.135 E28.11361
G1 X140.678 Y94.286 E28.1979
G1 X142.383 Y95.988 E28.27803
G1 X143.532 Y98.247 E28.36232
G1 X143.755 Y100.248 E28.42929
G1 X143.707 Y105.361 E28.59936
G1 X143.498 Y106.813 E28.64815
G1 X142.375 Y109.038 E28.73104
G1 X140.674 Y110.711 E28.8104
G1 X138.457 Y111.845 E28.89322
G1 X136.795 Y112.064 E28.94898
G1 X125.761 Y112.093 E29.31597
G1 X125.758 Y114.51 E29.39636
G1 X126.481 Y113.787 E29.43037
G1 X128.795 Y112.611 E29.5167
G1 X130.367 Y112.375 E29.56957
G1 X158.327 Y112.315 E30.49953
G1 X160.727 Y112.583 E30.57985
G1 X163.096 Y113.787 E30.66823
G1 X164.914 Y115.605 E30.75375
G1 X166.114 Y117.964 E30.84178
G1 X166.389 Y120.42 E30.92397
G1 X166.306 Y148.468 E31.85686
G1 X166.066 Y149.956 E31.90699
G1 X164.914 Y152.22 E31.99148
G1 X163.104 Y154.03 E32.07661
G1 X160.722 Y155.242 E32.16551
G1 X158.325 Y155.511 E32.24573
G1 X130.298 Y155.433 E33.17792
G1 X128.746 Y155.19 E33.23016
G1 X126.481 Y154.038 E33.31468
G1 X124.665 Y152.222 E33.4001
G1 X123.459 Y149.852 E33.48855
G1 X123.189 Y147.406 E33.5704
G1 X123.205 Y140.189 E33.81043
G1 X122.669 Y140.716 E33.83544
G1 X120.434 Y141.864 E33.919
G1 X118.434 Y142.088 E33.98594
G1 X97.973 Y142.04 E34.66648
G1 X96.495 Y141.825 E34.71615
G1 X94.329 Y140.724 E34.79697
G1 X92.616 Y139.013 E34.8775
G1 X91.468 Y136.755 E34.96175
G1 X91.233 Y134.498 E35.03722
G1 X91.293 Y99.639 E36.19664
G1 X91.502 Y98.187 E36.24543
G1 X92.625 Y95.962 E36.32832
G1 X94.326 Y94.289 E36.40768
G0 F6000 X94.564 Y94.616
G1 F1200 X96.662 Y93.543 E36.48605
G1 X98.258 Y93.333 E36.53959
G1 X136.166 Y93.3 E37.80042
G1 X138.306 Y93.525 E37.87199
G1 X140.439 Y94.613 E37.95163
G1 X142.055 Y96.226 E38.02757
G1 X143.142 Y98.363 E38.10731
G1 X143.357 Y100.292 E38.17187
G1 X143.311 Y105.304 E38.33858
G1 X143.111 Y106.692 E38.38522
G1 X142.048 Y108.798 E38.46368
G1 X140.436 Y110.384 E38.5389
G1 X138.338 Y111.457 E38.61727
G1 X136.743 Y111.667 E38.67078
G1 X125.362 Y111.694 E39.04932
G1 X125.356 Y115.478 E39.17517
G1 X126.719 Y114.115 E39.23928
G1 X128.918 Y112.998 E39.32132
G1 X130.427 Y112.771 E39.37207
G1 X158.283 Y112.713 E40.29857
G1 X160.611 Y112.973 E40.37648
G1 X162.858 Y114.115 E40.46031
G1 X164.586 Y115.843 E40.54159
G1 X165.725 Y118.083 E40.62517
G1 X165.989 Y120.419 E40.70336
G1 X165.911 Y148.404 E41.63415
G1 X165.681 Y149.83 E41.68219
G1 X164.586 Y151.982 E41.7625
G1 X162.866 Y153.702 E41.84341
G1 X160.606 Y154.852 E41.92775
G1 X158.28 Y155.113 E42.00559
G1 X130.36 Y155.038 E42.93422
G1 X128.872 Y154.805 E42.98432
G1 X126.719 Y153.71 E43.06465
G1 X124.991 Y151.982 E43.14593
G1 X123.849 Y149.738 E43.22968
G1 X123.589 Y147.407 E43.30769
G1 X123.607 Y139.232 E43.57959
G1 X122.432 Y140.388 E43.63441
G1 X120.317 Y141.474 E43.71349
G1 X118.389 Y141.69 E43.77802
G1 X98.03 Y141.644 E44.45516
G1 X96.618 Y141.439 E44.50262
G1 X94.567 Y140.396 E44.57915
G1 X92.944 Y138.775 E44.65544
G1 X91.858 Y136.64 E44.73511
G1 X91.633 Y134.499 E44.80671
G1 X91.689 Y99.696 E45.96427
G1 X91.889 Y98.308 E46.01091
G1 X92.952 Y96.202 E46.08937
G1 X94.564 Y94.616 E46.16459
G0 F6000 X94.802 Y94.943
G1 F1200 X96.781 Y93.931 E46.23852
G1 X98.31 Y93.73 E46.28981
G1 X136.166 Y93.7 E47.5489
G1 X138.191 Y93.915 E47.61663
G1 X140.2 Y94.94 E47.69165
G1 X141.727 Y96.464 E47.7634
G1 X142.752 Y98.479 E47.8386
G1 X142.959 Y100.336 E47.90074
G1 X142.915 Y105.247 E48.06409
G1 X142.724 Y106.571 E48.10858
G1 X141.721 Y108.558 E48.18261
G1 X140.198 Y110.057 E48.25369
G1 X138.219 Y111.069 E48.32762
G1 X136.691 Y111.27 E48.37887
G1 X124.963 Y111.295 E48.76895
G1 X124.954 Y116.798 E48.95198
G1 X125.319 Y116.081 E48.97874
G1 X126.957 Y114.443 E49.05579
G1 X129.041 Y113.384 E49.13354
G1 X130.486 Y113.167 E49.18214
G1 X158.284 Y113.113 E50.1067
G1 X160.493 Y113.362 E50.18064
G1 X162.62 Y114.443 E50.26
G1 X164.258 Y116.081 E50.33704
G1 X165.336 Y118.202 E50.41618
G1 X165.589 Y120.418 E50.49036
G1 X165.516 Y148.34 E51.41905
G1 X165.296 Y149.704 E51.46501
G1 X164.258 Y151.744 E51.54114
G1 X162.626 Y153.376 E51.6179
G1 X160.49 Y154.463 E51.69761
G1 X158.281 Y154.713 E51.77155
G1 X130.422 Y154.643 E52.69815
G1 X128.998 Y154.42 E52.74609
G1 X126.957 Y153.382 E52.82225
G1 X125.319 Y151.744 E52.8993
G1 X124.238 Y149.619 E52.97859
G1 X123.989 Y147.408 E53.0526
G1 X124.01 Y137.984 E53.36604
G1 X123.721 Y138.558 E53.38742
G1 X122.195 Y140.06 E53.45863
G1 X120.2 Y141.084 E53.53322
G1 X118.344 Y141.292 E53.59533
G1 X98.088 Y141.248 E54.26905
G1 X96.741 Y141.052 E54.31433
G1 X94.805 Y140.068 E54.38656
G1 X93.272 Y138.537 E54.45862
G1 X92.248 Y136.524 E54.53373
G1 X92.033 Y134.5 E54.60143
G1 X92.085 Y99.753 E55.75712
G1 X92.276 Y98.429 E55.80162
G1 X93.279 Y96.442 E55.87565
G1 X94.802 Y94.943 E55.94672
G0 F6000 X95.04 Y95.27
G1 F1200 X96.9 Y94.319 E56.0162
G1 X98.362 Y94.127 E56.06525
G1 X136.166 Y94.1 E57.32261
G1 X138.076 Y94.305 E57.3865
G1 X139.961 Y95.267 E57.45689
G1 X141.399 Y96.702 E57.52446
G1 X142.362 Y98.595 E57.5951
G1 X142.561 Y100.38 E57.65484
G1 X142.519 Y105.19 E57.81483
G1 X142.337 Y106.45 E57.85717
G1 X141.394 Y108.318 E57.92677
G1 X139.96 Y109.73 E57.9937
G1 X138.1 Y110.681 E58.06318
G1 X136.639 Y110.873 E58.11219
G1 X124.564 Y110.896 E58.51381
G1 X124.551 Y118.97 E58.78235
G1 X124.665 Y118.25 E58.8066
G1 X125.647 Y116.319 E58.87865
G1 X127.195 Y114.771 E58.95146
G1 X129.164 Y113.771 E59.02492
G1 X130.546 Y113.563 E59.0714
G1 X158.285 Y113.513 E59.994
G1 X160.374 Y113.751 E60.06393
G1 X162.382 Y114.771 E60.13884
G1 X163.93 Y116.319 E60.21166
G1 X164.947 Y118.321 E60.28634
G1 X165.189 Y120.417 E60.35652
G1 X165.121 Y148.276 E61.28311
G1 X164.911 Y149.578 E61.32698
G1 X163.93 Y151.506 E61.39893
G1 X162.386 Y153.05 E61.47155
G1 X160.374 Y154.074 E61.54664
G1 X158.282 Y154.313 E61.61667
G1 X130.484 Y154.248 E62.54124
G1 X129.124 Y154.035 E62.58703
G1 X127.195 Y153.054 E62.65901
G1 X125.647 Y151.506 E62.73182
G1 X124.627 Y149.5 E62.80667
G1 X124.389 Y147.409 E62.87666
G1 X124.415 Y135.911 E63.25909
G1 X124.337 Y136.45 E63.2772
G1 X123.394 Y138.318 E63.3468
G1 X121.958 Y139.732 E63.41383
G1 X120.083 Y140.694 E63.48392
G1 X118.299 Y140.894 E63.54363
G1 X98.145 Y140.852 E64.21396
G1 X96.864 Y140.666 E64.25701
G1 X95.043 Y139.74 E64.32496
G1 X93.6 Y138.299 E64.39279
G1 X92.638 Y136.408 E64.46335
G1 X92.433 Y134.501 E64.52714
G1 X92.481 Y99.81 E65.68097
G1 X92.663 Y98.55 E65.72331
G1 X93.606 Y96.682 E65.79291
G1 X95.04 Y95.27 E65.85985
G0 F6000 X95.278 Y95.597
G1 F1200 X97.019 Y94.707 E65.92488
G1 X98.414 Y94.524 E65.97168
G1 X136.166 Y94.5 E67.22731
G1 X137.961 Y94.695 E67.28737
G1 X139.722 Y95.594 E67.35313
G1 X141.071 Y96.94 E67.41651
G1 X141.972 Y98.711 E67.4826
G1 X142.163 Y100.424 E67.53993
G1 X142.123 Y105.133 E67.69656
G1 X141.95 Y106.329 E67.73675
G1 X141.067 Y108.078 E67.80191
G1 X139.722 Y109.403 E67.86471
G1 X137.981 Y110.293 E67.92974
G1 X136.587 Y110.476 E67.97651
G1 X124.165 Y110.497 E68.38966
G1 X124.123 Y135.133 E69.20906
G1 X123.95 Y136.329 E69.24925
G1 X123.067 Y138.078 E69.31442
G1 X121.721 Y139.404 E69.37726
G1 X119.966 Y140.304 E69.44286
G1 X118.254 Y140.496 E69.50016
G1 X98.203 Y140.456 E70.16706
G1 X96.987 Y140.279 E70.20793
G1 X95.281 Y139.412 E70.27158
G1 X93.928 Y138.061 E70.33517
G1 X93.028 Y136.292 E70.40119
G1 X92.833 Y134.502 E70.46108
G1 X92.877 Y99.867 E71.61304
G1 X93.05 Y98.671 E71.65323
G1 X93.933 Y96.922 E71.7184
G1 X95.278 Y95.597 E71.7812
G0 F6000 X95.516 Y95.924
G1 F1200 X97.138 Y95.095 E71.84178
G1 X98.466 Y94.921 E71.88633
G1 X136.166 Y94.9 E73.14024
G1 X137.846 Y95.085 E73.19645
G1 X139.483 Y95.921 E73.25759
G1 X140.743 Y97.178 E73.31678
G1 X141.582 Y98.827 E73.37832
G1 X141.765 Y100.468 E73.43324
G1 X141.727 Y105.076 E73.58651
G1 X141.563 Y106.208 E73.62455
G1 X140.74 Y107.838 E73.68528
G1 X139.484 Y109.076 E73.74394
G1 X137.862 Y109.905 E73.80452
G1 X136.535 Y110.079 E73.84904
G1 X123.766 Y110.098 E74.27374
G1 X123.727 Y135.076 E75.10451
G1 X123.563 Y136.208 E75.14255
G1 X122.74 Y137.838 E75.20329
G1 X121.483 Y139.077 E75.26199
G1 X119.85 Y139.914 E75.32302
G1 X118.209 Y140.098 E75.37794
G1 X98.26 Y140.06 E76.04145
G1 X97.11 Y139.893 E76.0801
G1 X95.519 Y139.084 E76.13947
G1 X94.254 Y137.821 E76.19892
G1 X93.418 Y136.179 E76.26021
G1 X93.233 Y134.502 E76.31632
G1 X93.273 Y99.924 E77.46639
G1 X93.437 Y98.792 E77.50443
G1 X94.26 Y97.162 E77.56517
G1 X95.516 Y95.924 E77.62382
G0 F6000 X95.754 Y96.251
G1 F1200 X97.257 Y95.483 E77.67996
G1 X98.518 Y95.318 E77.72226
G1 X136.166 Y95.3 E78.97444
G1 X137.731 Y95.475 E79.02681
G1 X139.246 Y96.249 E79.0834
G1 X140.416 Y97.416 E79.13836
G1 X141.192 Y98.941 E79.19527
G1 X141.367 Y100.512 E79.24785
G1 X141.331 Y105.019 E79.39776
G1 X141.176 Y106.087 E79.43365
G1 X140.413 Y107.598 E79.48995
G1 X139.246 Y108.749 E79.54447
G1 X137.743 Y109.517 E79.6006
G1 X136.483 Y109.682 E79.64287
G1 X123.367 Y109.699 E80.07911
G1 X123.331 Y135.019 E80.92126
G1 X123.176 Y136.087 E80.95715
G1 X122.413 Y137.598 E81.01345
G1 X121.245 Y138.75 E81.06802
G1 X119.735 Y139.524 E81.12445
G1 X118.164 Y139.7 E81.17703
G1 X98.318 Y139.664 E81.83711
G1 X97.233 Y139.506 E81.87358
G1 X95.757 Y138.756 E81.92865
G1 X94.581 Y137.582 E81.98392
G1 X93.808 Y136.064 E82.04057
G1 X93.633 Y134.502 E82.09285
G1 X93.669 Y99.981 E83.24102
G1 X93.824 Y98.913 E83.27692
G1 X94.587 Y97.402 E83.33322
G1 X95.754 Y96.251 E83.38774
G0 F6000 X95.992 Y96.578
G1 F1200 X97.378 Y95.87 E83.4395
G1 X98.518 Y95.718 E83.47775
G1 X136.166 Y95.7 E84.72993
G1 X137.613 Y95.864 E84.77837
G1 X139.009 Y96.577 E84.8305
G1 X140.089 Y97.654 E84.88123
G1 X140.803 Y99.057 E84.93359
G1 X140.967 Y100.509 E84.98219
G1 X140.935 Y104.961 E85.13027
G1 X140.789 Y105.966 E85.16405
G1 X140.086 Y107.358 E85.21591
G1 X139.008 Y108.422 E85.26629
G1 X137.622 Y109.13 E85.31806
G1 X136.482 Y109.282 E85.35631
G1 X122.967 Y109.3 E85.80582
G1 X122.935 Y134.961 E86.65931
G1 X122.789 Y135.966 E86.69309
G1 X122.086 Y137.358 E86.74495
G1 X121.007 Y138.423 E86.79538
G1 X119.617 Y139.135 E86.84732
G1 X118.165 Y139.3 E86.89593
G1 X98.375 Y139.268 E87.55415
G1 X97.356 Y139.12 E87.58839
G1 X95.995 Y138.428 E87.63918
G1 X94.908 Y137.343 E87.69026
G1 X94.197 Y135.947 E87.74236
G1 X94.033 Y134.502 E87.79073
G1 X94.065 Y100.039 E88.93698
G1 X94.211 Y99.034 E88.97076
G1 X94.914 Y97.642 E89.02262
G1 X95.992 Y96.578 E89.073
G0 F6000 X96.23 Y96.905
G1 F1200 X97.497 Y96.258 E89.12032
G1 X98.571 Y96.115 E89.15635
G1 X136.166 Y96.1 E90.40677
G1 X137.495 Y96.253 E90.45126
G1 X138.772 Y96.905 E90.49895
G1 X139.762 Y97.892 E90.54545
G1 X140.414 Y99.173 E90.59326
G1 X140.567 Y100.506 E90.63788
G1 X140.539 Y104.903 E90.78413
G1 X140.402 Y105.845 E90.81579
G1 X139.759 Y107.118 E90.86323
G1 X138.77 Y108.095 E90.90946
G1 X137.503 Y108.742 E90.95678
G1 X136.429 Y108.885 E90.99282
G1 X122.567 Y108.9 E91.45387
G1 X122.539 Y134.903 E92.31873
G1 X122.402 Y135.845 E92.3504
G1 X121.759 Y137.118 E92.39783
G1 X120.769 Y138.096 E92.44412
G1 X119.499 Y138.746 E92.49157
G1 X118.166 Y138.9 E92.5362
G1 X98.432 Y138.872 E93.19255
G1 X97.479 Y138.734 E93.22458
G1 X96.233 Y138.1 E93.27108
G1 X95.235 Y137.104 E93.31798
G1 X94.586 Y135.83 E93.36553
