;FLAVOR:Marlin
;TIME:6427
;Filament used: 3.37m
;Layer height: 0.16
;MINX:48.723
;MINY:45.63
;MINZ:0.2
;MAXX:234.323
;MAXY:182.147
;MAXZ:1.48
;TARGET_MACHINE.NAME:Creality Ender-3
;Generated with Cura_SteamEngine 5.6.0
M140 S50
M105
M190 S50
M104 S200
M105
M109 S200
M82 ;absolute extrusion mode
; Ender 3 Custom Start G-code
G92 E0 ; Reset Extruder
G28 ; Home all axes
G1 Z2.0 F3000 ; Move Z Axis up little to prevent scratching of Heat Bed
G1 X0.1 Y20 Z0.3 F5000.0 ; Move to start position
G1 X0.1 Y200.0 Z0.3 F1500.0 E15 ; Draw the first line
G1 X0.4 Y200.0 Z0.3 F5000.0 ; Move to side a little
G1 X0.4 Y20 Z0.3 F1500.0 E30 ; Draw the second line
G92 E0 ; Reset Extruder
G1 Z2.0 F3000 ; Move Z Axis up little to prevent scratching of Heat Bed
G1 X5 Y20 Z0.3 F5000.0 ; Move over to prevent blob squish
G92 E0
G92 E0
G1 F2700 E-5
;LAYER_COUNT:8
;LAYER:0
M107
G0 F6000 X51.803 Y71.955 Z0.2
;TYPE:SKIRT
G1 F2700 E0
G1 F1200 X53.826 Y70.748 E0.07835
G1 X55.544 Y70.466 E0.13626
G1 X76.828 Y70.393 E0.84417
G1 X77.556 Y68.992 E0.89668
G1 X78.723 Y67.904 E0.94975
G1 X78.723 Y55.34 E1.36763
G1 X79.189 Y53.444 E1.43257
G1 X80.242 Y51.416 E1.50857
G1 X81.803 Y49.957 E1.57964
G1 X83.826 Y48.75 E1.65799
G1 X85.544 Y48.468 E1.71589
G1 X107.376 Y48.393 E2.44203
G1 X109.272 Y48.859 E2.50697
G1 X109.951 Y49.211 E2.53241
G1 X110.241 Y48.654 E2.55329
G1 X111.803 Y47.194 E2.62441
G1 X113.826 Y45.987 E2.70276
G1 X115.544 Y45.705 E2.76066
G1 X137.376 Y45.63 E3.4868
G1 X139.272 Y46.096 E3.55174
G1 X141.3 Y47.149 E3.62774
G1 X142.779 Y48.731 E3.69978
G1 X143.826 Y48.107 E3.74031
G1 X145.544 Y47.825 E3.79822
G1 X167.376 Y47.75 E4.52436
G1 X169.272 Y48.216 E4.5893
G1 X171.3 Y49.269 E4.6653
G1 X172.762 Y50.833 E4.73651
G1 X173.004 Y51.24 E4.75226
G1 X173.828 Y50.748 E4.78418
G1 X175.544 Y50.466 E4.84202
G1 X197.376 Y50.391 E5.56816
G1 X199.272 Y50.857 E5.63309
G1 X201.3 Y51.91 E5.7091
G1 X202.759 Y53.471 E5.78016
G1 X203.966 Y55.494 E5.85851
G1 X204.248 Y57.212 E5.91642
G1 X204.323 Y74.047 E6.47636
G1 X204.132 Y74.821 E6.50287
G1 X204.248 Y75.516 E6.52631
G1 X204.317 Y90.668 E7.03027
G1 X205.544 Y90.466 E7.07163
G1 X227.376 Y90.391 E7.79777
G1 X229.272 Y90.857 E7.86271
G1 X231.3 Y91.91 E7.93871
G1 X232.759 Y93.471 E8.00978
G1 X233.966 Y95.494 E8.08813
G1 X234.248 Y97.212 E8.14603
G1 X234.323 Y114.039 E8.70571
G1 X233.856 Y115.941 E8.77085
G1 X232.804 Y117.968 E8.84681
G1 X231.243 Y119.427 E8.91787
G1 X229.22 Y120.634 E8.99622
G1 X227.502 Y120.916 E9.05413
G1 X205.67 Y120.991 E9.78027
G1 X203.774 Y120.525 E9.84521
G1 X201.807 Y119.504 E9.91892
G1 X201.6 Y119.316 E9.92822
G1 X201.634 Y129.628 E10.2712
G1 X201.168 Y131.524 E10.33614
G1 X200.115 Y133.552 E10.41214
G1 X198.554 Y135.011 E10.4832
G1 X196.539 Y136.213 E10.56124
G1 X197.654 Y136.792 E10.60303
G1 X199.113 Y138.353 E10.6741
G1 X200.32 Y140.376 E10.75245
G1 X200.602 Y142.094 E10.81035
G1 X200.677 Y158.921 E11.37003
G1 X200.21 Y160.823 E11.43517
G1 X199.158 Y162.85 E11.51112
G1 X197.597 Y164.309 E11.58219
G1 X195.574 Y165.516 E11.66054
G1 X193.856 Y165.798 E11.71845
G1 X172.024 Y165.873 E12.44459
G1 X170.128 Y165.407 E12.50952
G1 X168.1 Y164.354 E12.58553
G1 X166.638 Y162.79 E12.65673
G1 X165.512 Y160.901 E12.72988
G1 X165.41 Y160.618 E12.73988
G1 X165.137 Y158.866 E12.79886
G1 X165.119 Y156.45 E12.87922
G1 X164.749 Y156.505 E12.89166
G1 X142.981 Y156.575 E13.61567
G1 X141.085 Y156.109 E13.68061
G1 X139.057 Y155.057 E13.75659
G1 X138.8 Y154.782 E13.76911
G1 X138.557 Y155.009 E13.78017
G1 X136.531 Y156.218 E13.85864
G1 X134.813 Y156.5 E13.91655
G1 X128.101 Y156.538 E14.13979
G1 X128.178 Y156.721 E14.1464
G1 X128.448 Y158.368 E14.20191
G1 X128.523 Y175.195 E14.76158
G1 X128.056 Y177.097 E14.82672
G1 X127.004 Y179.124 E14.90268
G1 X125.443 Y180.583 E14.97374
G1 X123.42 Y181.79 E15.0521
G1 X121.702 Y182.072 E15.11
G1 X99.87 Y182.147 E15.83614
G1 X97.974 Y181.681 E15.90108
G1 X95.946 Y180.628 E15.97708
G1 X94.487 Y179.067 E16.04815
G1 X93.28 Y177.044 E16.1265
G1 X92.998 Y175.326 E16.1844
G1 X92.931 Y160.983 E16.66146
G1 X85.67 Y160.991 E16.90296
G1 X83.774 Y160.525 E16.9679
G1 X81.746 Y159.473 E17.04389
G1 X81.489 Y159.198 E17.05641
G1 X81.246 Y159.425 E17.06747
G1 X79.22 Y160.634 E17.14594
G1 X77.502 Y160.916 E17.20384
G1 X55.67 Y160.991 E17.92998
G1 X53.774 Y160.525 E17.99492
G1 X51.746 Y159.472 E18.07092
G1 X50.287 Y157.911 E18.14199
G1 X49.08 Y155.888 E18.22034
G1 X48.798 Y154.17 E18.27825
G1 X48.723 Y137.343 E18.83792
G1 X49.102 Y135.796 E18.89089
G1 X49.033 Y135.592 E18.89806
G1 X48.798 Y134.172 E18.94593
G1 X48.723 Y117.343 E19.50567
G1 X49.102 Y115.796 E19.55864
G1 X49.033 Y115.592 E19.56581
G1 X48.798 Y114.172 E19.61368
G1 X48.723 Y97.343 E20.17342
G1 X49.102 Y95.796 E20.22639
G1 X49.033 Y95.592 E20.23356
G1 X48.798 Y94.172 E20.28143
G1 X48.723 Y77.343 E20.84117
G1 X49.19 Y75.441 E20.90631
G1 X50.242 Y73.414 E20.98227
G1 X51.803 Y71.955 E21.05333
G0 F6000 X52.042 Y72.279
G1 F1200 X53.966 Y71.131 E21.12785
G1 X55.609 Y70.861 E21.18323
G1 X77.071 Y70.792 E21.89706
G1 X77.878 Y69.239 E21.95527
G1 X79.123 Y68.079 E22.01187
G1 X79.123 Y55.386 E22.43404
G1 X79.565 Y53.587 E22.49566
G1 X80.565 Y51.661 E22.56783
G1 X82.042 Y50.281 E22.63507
G1 X83.966 Y49.133 E22.70958
G1 X85.609 Y48.863 E22.76496
G1 X107.33 Y48.793 E23.48741
G1 X109.129 Y49.235 E23.54902
G1 X110.122 Y49.75 E23.58623
G1 X110.565 Y48.898 E23.61817
G1 X112.042 Y47.518 E23.6854
G1 X113.966 Y46.37 E23.75992
G1 X115.609 Y46.1 E23.8153
G1 X137.33 Y46.03 E24.53774
G1 X139.129 Y46.472 E24.59936
G1 X141.055 Y47.472 E24.67154
G1 X142.441 Y48.955 E24.73905
G1 X142.636 Y49.283 E24.75174
G1 X143.966 Y48.49 E24.80324
G1 X145.609 Y48.22 E24.85862
G1 X167.33 Y48.15 E25.58107
G1 X169.129 Y48.592 E25.64269
G1 X171.055 Y49.592 E25.71486
G1 X172.438 Y51.072 E25.78224
G1 X172.865 Y51.788 E25.80996
G1 X173.966 Y51.131 E25.85261
G1 X175.609 Y50.861 E25.90799
G1 X197.33 Y50.791 E26.63043
G1 X199.129 Y51.233 E26.69205
G1 X201.055 Y52.233 E26.76423
G1 X202.435 Y53.71 E26.83146
G1 X203.583 Y55.634 E26.90598
G1 X203.853 Y57.277 E26.96136
G1 X203.923 Y74 E27.51757
G1 X203.724 Y74.807 E27.54521
G1 X203.853 Y75.582 E27.57135
G1 X203.919 Y91.139 E28.08878
G1 X205.609 Y90.861 E28.14574
G1 X227.33 Y90.791 E28.86819
G1 X229.129 Y91.233 E28.92981
G1 X231.055 Y92.233 E29.00198
G1 X232.435 Y93.71 E29.06922
G1 X233.583 Y95.634 E29.14373
G1 X233.853 Y97.277 E29.19911
G1 X233.923 Y113.994 E29.75513
G1 X233.48 Y115.798 E29.81691
G1 X232.481 Y117.723 E29.88905
G1 X231.004 Y119.103 E29.95628
G1 X229.08 Y120.251 E30.03079
G1 X227.437 Y120.521 E30.08617
G1 X205.716 Y120.591 E30.80862
G1 X203.917 Y120.149 E30.87024
G1 X201.991 Y119.149 E30.94241
G1 X201.197 Y118.299 E30.9811
G1 X201.234 Y129.582 E31.35638
G1 X200.792 Y131.381 E31.41799
G1 X199.792 Y133.307 E31.49017
G1 X198.315 Y134.687 E31.5574
G1 X196.391 Y135.835 E31.63192
G1 X195.163 Y136.037 E31.67331
G1 X195.483 Y136.115 E31.68427
G1 X197.409 Y137.115 E31.75645
G1 X198.789 Y138.592 E31.82368
G1 X199.937 Y140.516 E31.8982
G1 X200.207 Y142.159 E31.95357
G1 X200.277 Y158.876 E32.50959
G1 X199.834 Y160.68 E32.57137
G1 X198.835 Y162.605 E32.64351
G1 X197.358 Y163.985 E32.71074
G1 X195.434 Y165.133 E32.78526
G1 X193.791 Y165.403 E32.84064
G1 X172.07 Y165.473 E33.56308
G1 X170.271 Y165.031 E33.6247
G1 X168.345 Y164.031 E33.69688
G1 X166.962 Y162.551 E33.76425
G1 X165.856 Y160.696 E33.83608
G1 X165.805 Y160.555 E33.84107
G1 X165.537 Y158.863 E33.89804
G1 X165.516 Y155.979 E33.99397
G1 X164.748 Y156.105 E34.01985
G1 X143.027 Y156.175 E34.7423
G1 X141.228 Y155.733 E34.80392
G1 X139.302 Y154.733 E34.87609
G1 X138.819 Y154.217 E34.8996
G1 X138.315 Y154.687 E34.92252
G1 X136.391 Y155.835 E34.99704
G1 X134.748 Y156.105 E35.05242
G1 X127.396 Y156.142 E35.29695
G1 X127.783 Y156.786 E35.32194
G1 X128.053 Y158.433 E35.37745
G1 X128.123 Y175.15 E35.93347
G1 X127.68 Y176.954 E35.99525
G1 X126.681 Y178.879 E36.06739
G1 X125.204 Y180.259 E36.13462
G1 X123.28 Y181.407 E36.20913
G1 X121.637 Y181.677 E36.26451
G1 X99.916 Y181.747 E36.98696
G1 X98.117 Y181.305 E37.04858
G1 X96.191 Y180.305 E37.12075
G1 X94.811 Y178.828 E37.18799
G1 X93.663 Y176.904 E37.2625
G1 X93.393 Y175.261 E37.31788
G1 X93.329 Y160.583 E37.80608
G1 X85.716 Y160.591 E38.05929
G1 X83.917 Y160.149 E38.1209
G1 X81.991 Y159.149 E38.19308
G1 X81.508 Y158.633 E38.21659
G1 X81.004 Y159.103 E38.23951
G1 X79.08 Y160.251 E38.31403
G1 X77.437 Y160.521 E38.36941
G1 X55.716 Y160.591 E39.09186
G1 X53.917 Y160.149 E39.15347
G1 X51.991 Y159.149 E39.22565
G1 X50.611 Y157.672 E39.29288
G1 X49.463 Y155.748 E39.3674
G1 X49.193 Y154.105 E39.42278
G1 X49.123 Y137.388 E39.97879
G1 X49.52 Y135.769 E40.03424
G1 X49.428 Y135.527 E40.04285
G1 X49.193 Y134.107 E40.09072
G1 X49.123 Y117.388 E40.6468
G1 X49.52 Y115.769 E40.70224
G1 X49.428 Y115.527 E40.71085
G1 X49.193 Y114.107 E40.75873
G1 X49.123 Y97.388 E41.31481
G1 X49.52 Y95.769 E41.37025
G1 X49.428 Y95.527 E41.37886
G1 X49.193 Y94.107 E41.42673
G1 X49.123 Y77.388 E41.98281
G1 X49.566 Y75.584 E42.0446
G1 X50.565 Y73.659 E42.11673
G1 X52.042 Y72.279 E42.18396
G0 F6000 X52.284 Y72.6
G1 F1200 X54.104 Y71.514 E42.25445
G1 X55.674 Y71.256 E42.30737
G1 X77.314 Y71.191 E43.02713
G1 X78.2 Y69.486 E43.09103
G1 X79.523 Y68.254 E43.15116
G1 X79.523 Y55.433 E43.57759
G1 X79.942 Y53.729 E43.63595
G1 X80.888 Y51.906 E43.70426
G1 X82.284 Y50.602 E43.7678
G1 X84.104 Y49.516 E43.83829
G1 X85.674 Y49.258 E43.89121
G1 X107.283 Y49.193 E44.60993
G1 X108.987 Y49.612 E44.6683
G1 X110.293 Y50.289 E44.71722
G1 X110.888 Y49.143 E44.76017
G1 X112.284 Y47.839 E44.82371
G1 X114.104 Y46.753 E44.8942
G1 X115.674 Y46.495 E44.94712
G1 X137.283 Y46.43 E45.66584
G1 X138.987 Y46.849 E45.7242
G1 X140.81 Y47.795 E45.79251
G1 X142.117 Y49.194 E45.85619
G1 X142.497 Y49.832 E45.88089
G1 X144.104 Y48.873 E45.94313
G1 X145.674 Y48.615 E45.99605
G1 X167.283 Y48.55 E46.71477
G1 X168.987 Y48.969 E46.77314
G1 X170.81 Y49.915 E46.84145
G1 X172.114 Y51.311 E46.90498
G1 X172.726 Y52.337 E46.94472
G1 X174.104 Y51.514 E46.9981
G1 X175.674 Y51.256 E47.05102
G1 X197.283 Y51.191 E47.76974
G1 X198.987 Y51.61 E47.82811
G1 X200.81 Y52.556 E47.89642
G1 X202.114 Y53.952 E47.95995
G1 X203.2 Y55.772 E48.03044
G1 X203.458 Y57.342 E48.08336
G1 X203.523 Y73.953 E48.63585
G1 X203.316 Y74.793 E48.66463
G1 X203.458 Y75.648 E48.69345
G1 X203.522 Y91.861 E49.2327
G1 X204.104 Y91.514 E49.25524
G1 X205.674 Y91.256 E49.30816
G1 X227.283 Y91.191 E50.02688
G1 X228.987 Y91.61 E50.08524
G1 X230.81 Y92.556 E50.15356
G1 X232.114 Y93.952 E50.21709
G1 X233.2 Y95.772 E50.28758
G1 X233.458 Y97.342 E50.3405
G1 X233.523 Y113.949 E50.89286
G1 X233.104 Y115.655 E50.95129
G1 X232.158 Y117.478 E51.0196
G1 X230.762 Y118.782 E51.08313
G1 X228.942 Y119.868 E51.15362
G1 X227.372 Y120.126 E51.20654
G1 X205.763 Y120.191 E51.92526
G1 X204.059 Y119.772 E51.98363
G1 X202.236 Y118.826 E52.05194
G1 X200.961 Y117.461 E52.11406
G1 X200.793 Y117.198 E52.12444
G1 X200.834 Y129.535 E52.53478
G1 X200.415 Y131.239 E52.59314
G1 X199.469 Y133.062 E52.66145
G1 X198.073 Y134.366 E52.72499
G1 X196.253 Y135.452 E52.79548
G1 X194.683 Y135.71 E52.8484
G1 X173.074 Y135.775 E53.56712
G1 X171.37 Y135.356 E53.62548
G1 X170.796 Y135.059 E53.64698
G1 X170.801 Y136.34 E53.68958
G1 X172.028 Y136.138 E53.73094
G1 X193.637 Y136.073 E54.44967
G1 X195.341 Y136.492 E54.50803
G1 X197.164 Y137.438 E54.57634
G1 X198.468 Y138.834 E54.63988
G1 X199.554 Y140.654 E54.71037
G1 X199.812 Y142.224 E54.76329
G1 X199.877 Y158.831 E55.31564
G1 X199.458 Y160.537 E55.37407
G1 X198.512 Y162.36 E55.44238
G1 X197.116 Y163.664 E55.50592
G1 X195.296 Y164.75 E55.57641
G1 X193.726 Y165.008 E55.62933
G1 X172.117 Y165.073 E56.34805
G1 X170.413 Y164.654 E56.40641
G1 X168.59 Y163.708 E56.47472
G1 X167.286 Y162.312 E56.53826
G1 X166.2 Y160.491 E56.60878
G1 X165.937 Y158.86 E56.66373
G1 X165.913 Y155.508 E56.77522
G1 X164.683 Y155.71 E56.81668
G1 X143.074 Y155.775 E57.5354
G1 X141.37 Y155.356 E57.59376
G1 X139.547 Y154.41 E57.66207
G1 X138.838 Y153.652 E57.69659
G1 X138.073 Y154.366 E57.7314
G1 X136.253 Y155.452 E57.80189
G1 X134.683 Y155.71 E57.85481
G1 X126.691 Y155.745 E58.12062
G1 X127.4 Y156.926 E58.16644
G1 X127.658 Y158.498 E58.21942
G1 X127.723 Y175.105 E58.77178
G1 X127.304 Y176.811 E58.83021
G1 X126.358 Y178.634 E58.89852
G1 X124.962 Y179.938 E58.96206
G1 X123.142 Y181.024 E59.03255
G1 X121.572 Y181.282 E59.08546
G1 X99.963 Y181.347 E59.80419
G1 X98.259 Y180.928 E59.86255
G1 X96.436 Y179.982 E59.93086
G1 X95.132 Y178.586 E59.9944
G1 X94.046 Y176.766 E60.06489
G1 X93.788 Y175.196 E60.11781
G1 X93.727 Y160.183 E60.61715
G1 X85.763 Y160.191 E60.88203
G1 X84.059 Y159.772 E60.94039
G1 X82.236 Y158.826 E61.0087
G1 X81.527 Y158.068 E61.04323
G1 X80.762 Y158.782 E61.07803
G1 X78.942 Y159.868 E61.14852
G1 X77.372 Y160.126 E61.20144
G1 X55.763 Y160.191 E61.92016
G1 X54.059 Y159.772 E61.97852
G1 X52.236 Y158.826 E62.04684
G1 X50.932 Y157.43 E62.11037
G1 X49.846 Y155.61 E62.18086
G1 X49.588 Y154.04 E62.23378
G1 X49.523 Y137.433 E62.78614
G1 X49.94 Y135.733 E62.84436
G1 X49.823 Y135.462 E62.85417
G1 X49.588 Y134.042 E62.90204
G1 X49.523 Y117.433 E63.45447
G1 X49.94 Y115.733 E63.51269
G1 X49.823 Y115.462 E63.5225
G1 X49.588 Y114.042 E63.57037
G1 X49.523 Y97.433 E64.1228
G1 X49.94 Y95.733 E64.18101
G1 X49.823 Y95.462 E64.19083
G1 X49.588 Y94.042 E64.2387
G1 X49.523 Y77.433 E64.79113
G1 X49.942 Y75.727 E64.84955
G1 X50.888 Y73.904 E64.91787
G1 X52.284 Y72.6 E64.9814
G0 F6000 X52.526 Y72.921
G1 F1200 X54.242 Y71.897 E65.04787
G1 X55.739 Y71.651 E65.09832
G1 X77.237 Y71.591 E65.81335
G1 X77.574 Y71.674 E65.8249
G1 X77.65 Y71.412 E65.83397
G1 X78.523 Y69.731 E65.89697
G1 X79.769 Y68.568 E65.95366
G1 X79.923 Y68.462 E65.95988
G1 X79.923 Y55.479 E66.39169
G1 X80.318 Y53.872 E66.44673
G1 X81.211 Y52.151 E66.51122
G1 X82.526 Y50.923 E66.57106
G1 X84.242 Y49.899 E66.63753
G1 X85.739 Y49.653 E66.68799
G1 X107.237 Y49.593 E67.40302
G1 X108.844 Y49.988 E67.45806
G1 X110.464 Y50.828 E67.51875
G1 X111.211 Y49.388 E67.57271
G1 X112.526 Y48.16 E67.63255
G1 X114.242 Y47.136 E67.69901
G1 X115.739 Y46.89 E67.74947
G1 X137.237 Y46.83 E68.4645
G1 X138.844 Y47.225 E68.51954
G1 X140.565 Y48.118 E68.58403
G1 X141.793 Y49.433 E68.64387
G1 X142.38 Y50.417 E68.68198
G1 X142.563 Y50.258 E68.69004
G1 X144.242 Y49.256 E68.75507
G1 X145.739 Y49.01 E68.80553
G1 X167.237 Y48.95 E69.52056
G1 X168.844 Y49.345 E69.5756
G1 X170.565 Y50.238 E69.64009
G1 X171.793 Y51.553 E69.69993
G1 X172.588 Y52.885 E69.75152
G1 X174.242 Y51.897 E69.8156
G1 X175.739 Y51.651 E69.86606
G1 X197.237 Y51.591 E70.58109
G1 X198.844 Y51.986 E70.63613
G1 X200.565 Y52.879 E70.70062
G1 X201.793 Y54.194 E70.76046
G1 X202.817 Y55.91 E70.82693
G1 X203.063 Y57.407 E70.87738
G1 X203.123 Y73.906 E71.42615
G1 X202.908 Y74.779 E71.45605
G1 X203.063 Y75.713 E71.48754
G1 X203.123 Y92.212 E72.0363
G1 X203.022 Y92.625 E72.05044
G1 X204.242 Y91.897 E72.0977
G1 X205.739 Y91.651 E72.14815
G1 X227.237 Y91.591 E72.86318
G1 X228.844 Y91.986 E72.91822
G1 X230.565 Y92.879 E72.98271
G1 X231.793 Y94.194 E73.04255
G1 X232.817 Y95.91 E73.10902
G1 X233.063 Y97.407 E73.15948
G1 X233.123 Y113.904 E73.70817
G1 X232.728 Y115.512 E73.76324
G1 X231.835 Y117.233 E73.82773
G1 X230.52 Y118.461 E73.88757
G1 X228.804 Y119.485 E73.95404
G1 X227.307 Y119.731 E74.0045
G1 X205.809 Y119.791 E74.71953
G1 X204.202 Y119.396 E74.77457
G1 X202.481 Y118.503 E74.83905
G1 X201.253 Y117.188 E74.8989
G1 X200.388 Y115.738 E74.95505
G1 X200.434 Y129.489 E75.41242
G1 X200.039 Y131.096 E75.46746
G1 X199.146 Y132.817 E75.53194
G1 X197.831 Y134.045 E75.59179
G1 X196.115 Y135.069 E75.65825
G1 X194.618 Y135.315 E75.70871
G1 X173.12 Y135.375 E76.42374
G1 X171.513 Y134.98 E76.47878
G1 X170.394 Y134.4 E76.5207
G1 X170.403 Y136.893 E76.60362
G1 X170.669 Y136.767 E76.61341
G1 X172.093 Y136.533 E76.6614
G1 X193.591 Y136.473 E77.37643
G1 X195.198 Y136.868 E77.43147
G1 X196.919 Y137.761 E77.49596
G1 X198.147 Y139.076 E77.5558
G1 X199.171 Y140.792 E77.62227
G1 X199.417 Y142.289 E77.67272
G1 X199.477 Y158.786 E78.22142
G1 X199.082 Y160.394 E78.27649
G1 X198.189 Y162.115 E78.34098
G1 X196.874 Y163.343 E78.40082
