;FLAVOR:Marlin
;TIME:7224
;Filament used: 4.23358m
;Layer height: 0.16
;MINX:60.864
;MINY:75.25
;MINZ:0.2
;MAXX:174.204
;MAXY:159.809
;MAXZ:19.96
;TARGET_MACHINE.NAME:Creality Ender-3
;Generated with Cura_SteamEngine 5.6.0
M140 S50
M105
M190 S50
M104 S200
M105
M109 S200
M82 ;absolute extrusion mode
; Ender 3 Custom Start G-code
G92 E0 ; Reset Extruder
G28 ; Home all axes
G1 Z2.0 F3000 ; Move Z Axis up little to prevent scratching of Heat Bed
G1 X0.1 Y20 Z0.3 F5000.0 ; Move to start position
G1 X0.1 Y200.0 Z0.3 F1500.0 E15 ; Draw the first line
G1 X0.4 Y200.0 Z0.3 F5000.0 ; Move to side a little
G1 X0.4 Y20 Z0.3 F1500.0 E30 ; Draw the second line
G92 E0 ; Reset Extruder
G1 Z2.0 F3000 ; Move Z Axis up little to prevent scratching of Heat Bed
G1 X5 Y20 Z0.3 F5000.0 ; Move over to prevent blob squish
G92 E0
G92 E0
G1 F2700 E-5
;LAYER_COUNT:107
;LAYER:0
M107
G0 F6000 X78.74 Y78.866 Z0.2
;TYPE:SKIRT
G1 F2700 E0
G1 F1200 X79.431 Y78.231 E0.03121
G1 X80.232 Y77.617 E0.06478
G1 X81.017 Y77.118 E0.09572
G1 X81.492 Y76.858 E0.11373
G1 X82.072 Y76.561 E0.1354
G1 X82.959 Y76.158 E0.16781
G1 X83.877 Y75.836 E0.20016
G1 X84.803 Y75.598 E0.23196
G1 X85.298 Y75.505 E0.24871
G1 X85.924 Y75.403 E0.26981
G1 X87.367 Y75.265 E0.31802
G1 X87.991 Y75.251 E0.33878
G1 X121.496 Y75.25 E1.45316
G1 X122.463 Y75.265 E1.48533
G1 X123.428 Y75.325 E1.51749
G1 X124.166 Y75.429 E1.54228
G1 X124.757 Y75.535 E1.56225
G1 X125.706 Y75.749 E1.5946
G1 X126.633 Y76.046 E1.62698
G1 X127.483 Y76.401 E1.65762
G1 X129.464 Y77.33 E1.73039
G1 X131.752 Y78.331 E1.81345
G1 X134.137 Y79.294 E1.899
G1 X136.438 Y80.148 E1.98063
G1 X138.859 Y80.971 E2.06568
G1 X141.259 Y81.713 E2.14924
G1 X143.644 Y82.375 E2.23156
G1 X146.125 Y82.989 E2.31657
G1 X148.59 Y83.526 E2.40048
G1 X151.049 Y83.99 E2.48371
G1 X153.508 Y84.381 E2.56652
G1 X156.046 Y84.711 E2.65165
G1 X158.528 Y84.963 E2.73462
G1 X161.101 Y85.153 E2.82043
G1 X162.342 Y85.219 E2.86177
G1 X163.471 Y85.342 E2.89954
G1 X163.945 Y85.419 E2.91551
G1 X164.899 Y85.62 E2.94794
G1 X165.802 Y85.895 E2.97933
G1 X167.031 Y86.413 E3.02369
G1 X167.509 Y86.651 E3.04145
G1 X168.359 Y87.126 E3.07384
G1 X169.163 Y87.674 E3.1062
G1 X169.886 Y88.263 E3.13722
G1 X170.33 Y88.68 E3.15748
G1 X170.681 Y89.03 E3.17396
G1 X171.338 Y89.749 E3.20636
G1 X171.93 Y90.522 E3.23874
G1 X172.431 Y91.31 E3.2698
G1 X172.907 Y92.209 E3.30363
G1 X173.314 Y93.095 E3.33606
G1 X173.638 Y94.012 E3.36841
G1 X173.878 Y94.94 E3.40029
G1 X173.982 Y95.494 E3.41904
G1 X174.063 Y96.014 E3.43654
G1 X174.189 Y97.364 E3.48164
G1 X174.204 Y98.021 E3.5035
G1 X174.203 Y124.152 E4.37262
G1 X174.19 Y124.905 E4.39767
G1 X174.134 Y125.836 E4.42869
G1 X174.052 Y126.458 E4.44955
G1 X173.977 Y126.921 E4.46515
G1 X173.772 Y127.891 E4.49813
G1 X173.511 Y128.756 E4.52818
G1 X172.941 Y130.103 E4.57683
G1 X172.714 Y130.552 E4.59356
G1 X172.234 Y131.398 E4.62591
G1 X171.682 Y132.199 E4.65827
G1 X171.072 Y132.938 E4.69014
G1 X170.713 Y133.316 E4.70748
G1 X170.363 Y133.667 E4.72396
G1 X169.644 Y134.324 E4.75636
G1 X168.871 Y134.916 E4.78874
G1 X168.083 Y135.417 E4.8198
G1 X167.195 Y135.888 E4.85323
G1 X166.342 Y136.282 E4.88448
G1 X165.377 Y136.625 E4.91855
G1 X164.062 Y136.941 E4.96353
G1 X162.768 Y137.167 E5.00722
G1 X160.212 Y137.653 E5.09375
G1 X157.749 Y138.192 E5.17761
G1 X155.312 Y138.799 E5.26114
G1 X152.88 Y139.479 E5.34514
G1 X150.448 Y140.233 E5.42982
G1 X148.117 Y141.031 E5.51177
G1 X145.725 Y141.923 E5.59668
G1 X143.408 Y142.863 E5.67984
G1 X141.115 Y143.871 E5.76315
G1 X138.815 Y144.96 E5.84779
G1 X136.622 Y146.07 E5.92954
G1 X135.533 Y146.545 E5.96906
G1 X132.518 Y147.654 E6.07591
G1 X130.24 Y148.572 E6.15759
G1 X127.881 Y149.6 E6.24318
G1 X125.613 Y150.664 E6.3265
G1 X123.387 Y151.789 E6.40946
G1 X121.155 Y152.995 E6.49384
G1 X118.973 Y154.256 E6.57766
G1 X116.863 Y155.559 E6.66014
G1 X114.118 Y157.373 E6.76958
G1 X113.695 Y157.664 E6.78665
G1 X112.572 Y158.339 E6.83023
G1 X112.262 Y158.501 E6.84187
G1 X111.363 Y158.92 E6.87485
G1 X110.515 Y159.229 E6.90487
G1 X109.51 Y159.498 E6.93948
G1 X108.649 Y159.654 E6.96858
G1 X107.187 Y159.795 E7.01743
G1 X106.581 Y159.809 E7.03759
G1 X73.401 Y159.809 E8.14116
G1 X72.648 Y159.796 E8.16621
G1 X71.681 Y159.736 E8.19844
G1 X70.789 Y159.608 E8.22841
G1 X69.835 Y159.408 E8.26083
G1 X68.929 Y159.133 E8.29232
G1 X67.645 Y158.592 E8.33866
G1 X67.336 Y158.436 E8.35017
G1 X66.486 Y157.96 E8.38258
G1 X65.682 Y157.41 E8.41498
G1 X64.96 Y156.818 E8.44603
G1 X64.34 Y156.228 E8.4745
G1 X63.701 Y155.54 E8.50573
G1 X63.083 Y154.743 E8.53927
G1 X62.561 Y153.93 E8.5714
G1 X62.172 Y153.209 E8.59865
G1 X61.751 Y152.304 E8.63185
G1 X61.42 Y151.387 E8.66428
G1 X61.174 Y150.452 E8.69643
G1 X61.019 Y149.596 E8.72537
G1 X60.905 Y148.627 E8.75782
G1 X60.877 Y148.119 E8.77474
G1 X60.864 Y147.513 E8.7949
G1 X60.864 Y111.015 E10.00883
G1 X60.877 Y110.262 E10.03388
G1 X60.937 Y109.295 E10.0661
G1 X61.065 Y108.403 E10.09607
G1 X61.265 Y107.449 E10.12849
G1 X61.549 Y106.518 E10.16087
G1 X61.908 Y105.625 E10.19288
G1 X62.273 Y104.883 E10.22038
G1 X62.759 Y104.031 E10.25301
G1 X63.44 Y103.064 E10.29234
G1 X65.169 Y100.878 E10.38504
G1 X66.687 Y98.841 E10.46954
G1 X68.105 Y96.821 E10.55163
G1 X69.525 Y94.669 E10.63738
G1 X70.825 Y92.574 E10.71938
G1 X72.1 Y90.384 E10.80367
G1 X73.306 Y88.169 E10.88755
G1 X74.44 Y85.94 E10.97073
G1 X75.82 Y83.006 E11.07857
G1 X76.271 Y82.106 E11.11205
G1 X76.75 Y81.257 E11.14448
G1 X77.302 Y80.456 E11.17683
G1 X77.912 Y79.716 E11.20873
G1 X78.273 Y79.336 E11.22616
G1 X78.74 Y78.866 E11.2482
G0 F6000 X79.011 Y79.161
G1 F1200 X79.702 Y78.526 E11.27941
G1 X80.447 Y77.955 E11.31063
G1 X81.232 Y77.456 E11.34157
G1 X81.675 Y77.214 E11.35836
G1 X82.238 Y76.925 E11.37941
G1 X83.092 Y76.535 E11.41063
G1 X83.977 Y76.223 E11.44184
G1 X84.877 Y75.991 E11.47276
G1 X85.362 Y75.9 E11.48917
G1 X85.988 Y75.798 E11.51026
G1 X87.376 Y75.665 E11.55664
G1 X87.991 Y75.651 E11.5771
G1 X121.49 Y75.65 E12.69128
G1 X122.439 Y75.664 E12.72285
G1 X123.372 Y75.721 E12.75394
G1 X124.096 Y75.823 E12.77826
G1 X124.67 Y75.925 E12.79765
G1 X125.585 Y76.13 E12.82884
G1 X126.479 Y76.415 E12.86004
G1 X127.313 Y76.763 E12.8901
G1 X129.294 Y77.692 E12.96287
G1 X131.602 Y78.702 E13.04667
G1 X133.987 Y79.665 E13.13222
G1 X136.309 Y80.527 E13.2146
G1 X138.73 Y81.35 E13.29964
G1 X141.141 Y82.095 E13.38357
G1 X143.548 Y82.763 E13.46666
G1 X146.04 Y83.38 E13.55204
G1 X148.505 Y83.917 E13.63595
G1 X150.986 Y84.385 E13.71993
G1 X153.456 Y84.778 E13.80311
G1 X155.994 Y85.108 E13.88824
G1 X158.495 Y85.362 E13.97185
G1 X161.072 Y85.552 E14.05779
G1 X162.299 Y85.617 E14.09866
G1 X163.407 Y85.737 E14.13573
G1 X163.863 Y85.811 E14.15109
G1 X164.783 Y86.003 E14.18235
G1 X165.647 Y86.264 E14.21237
G1 X166.876 Y86.782 E14.25673
G1 X167.314 Y87 E14.273
G1 X168.134 Y87.457 E14.30423
G1 X168.91 Y87.984 E14.33543
G1 X169.633 Y88.573 E14.36644
G1 X170.048 Y88.963 E14.38538
G1 X170.386 Y89.3 E14.40126
G1 X171.021 Y89.992 E14.4325
G1 X171.592 Y90.737 E14.46372
G1 X172.093 Y91.525 E14.49477
G1 X172.544 Y92.376 E14.52681
G1 X172.937 Y93.229 E14.55804
G1 X173.251 Y94.113 E14.58925
G1 X173.485 Y95.014 E14.62021
G1 X173.587 Y95.556 E14.63855
G1 X173.665 Y96.051 E14.65522
G1 X173.789 Y97.373 E14.69938
G1 X173.804 Y98.021 E14.72094
G1 X173.803 Y124.145 E15.58983
G1 X173.791 Y124.881 E15.61431
G1 X173.735 Y125.812 E15.64533
G1 X173.657 Y126.394 E15.66486
G1 X173.582 Y126.857 E15.68046
G1 X173.389 Y127.775 E15.71166
G1 X173.128 Y128.64 E15.74171
G1 X172.584 Y129.923 E15.78806
G1 X172.366 Y130.355 E15.80416
G1 X171.904 Y131.172 E15.83537
G1 X171.373 Y131.945 E15.86657
G1 X170.781 Y132.663 E15.89752
G1 X170.43 Y133.034 E15.9145
G1 X170.093 Y133.372 E15.93038
G1 X169.401 Y134.007 E15.96162
G1 X168.656 Y134.578 E15.99284
G1 X167.868 Y135.079 E16.02389
G1 X167.027 Y135.525 E16.05556
G1 X166.207 Y135.905 E16.08562
G1 X165.283 Y136.236 E16.11826
G1 X163.993 Y136.547 E16.1624
G1 X162.693 Y136.774 E16.20629
G1 X160.126 Y137.262 E16.2932
G1 X157.663 Y137.801 E16.37705
G1 X155.215 Y138.411 E16.46096
G1 X152.772 Y139.094 E16.54534
G1 X150.33 Y139.851 E16.63037
G1 X147.977 Y140.656 E16.71308
G1 X145.585 Y141.548 E16.79799
G1 X143.258 Y142.492 E16.88152
G1 X140.944 Y143.509 E16.96559
G1 X138.644 Y144.598 E17.05023
G1 X136.462 Y145.703 E17.13157
G1 X135.373 Y146.178 E17.17109
G1 X132.369 Y147.283 E17.27755
G1 X130.08 Y148.205 E17.35963
G1 X127.721 Y149.233 E17.44521
G1 X125.443 Y150.302 E17.52891
G1 X123.197 Y151.437 E17.61261
G1 X120.965 Y152.643 E17.69699
G1 X118.773 Y153.91 E17.78119
G1 X116.642 Y155.225 E17.86448
G1 X113.897 Y157.039 E17.97391
G1 X113.468 Y157.334 E17.99123
G1 X112.387 Y157.984 E18.03318
G1 X112.077 Y158.146 E18.04482
G1 X111.226 Y158.544 E18.07606
G1 X110.378 Y158.853 E18.10608
G1 X109.439 Y159.104 E18.13841
G1 X108.578 Y159.26 E18.16751
G1 X107.178 Y159.395 E18.21429
G1 X106.572 Y159.409 E18.23446
G1 X73.408 Y159.409 E19.33749
G1 X72.672 Y159.397 E19.36198
G1 X71.738 Y159.34 E19.3931
G1 X70.87 Y159.216 E19.42226
G1 X69.951 Y159.025 E19.45348
G1 X69.045 Y158.75 E19.48497
G1 X67.824 Y158.234 E19.52906
G1 X67.531 Y158.087 E19.53996
G1 X66.711 Y157.629 E19.5712
G1 X65.936 Y157.101 E19.60239
G1 X65.214 Y156.509 E19.63345
G1 X64.633 Y155.955 E19.66015
G1 X64.017 Y155.294 E19.6902
G1 X63.419 Y154.526 E19.72257
G1 X62.913 Y153.74 E19.75367
G1 X62.524 Y153.019 E19.78091
G1 X62.127 Y152.168 E19.81215
G1 X61.807 Y151.285 E19.84338
G1 X61.568 Y150.381 E19.87449
G1 X61.413 Y149.525 E19.90342
G1 X61.304 Y148.605 E19.93423
G1 X61.277 Y148.11 E19.95072
G1 X61.264 Y147.504 E19.97088
G1 X61.264 Y111.022 E21.18428
G1 X61.276 Y110.286 E21.20876
G1 X61.333 Y109.352 E21.23988
G1 X61.457 Y108.484 E21.26905
G1 X61.648 Y107.565 E21.30026
G1 X61.92 Y106.667 E21.33147
G1 X62.267 Y105.801 E21.3625
G1 X62.621 Y105.08 E21.38922
G1 X63.086 Y104.261 E21.42054
G1 X63.754 Y103.312 E21.45914
G1 X65.483 Y101.126 E21.55184
G1 X67.008 Y99.08 E21.63671
G1 X68.432 Y97.051 E21.71916
G1 X69.859 Y94.889 E21.80532
G1 X71.165 Y92.785 E21.88768
G1 X72.446 Y90.585 E21.97236
G1 X73.663 Y88.35 E22.057
G1 X74.797 Y86.121 E22.14018
G1 X76.178 Y83.185 E22.24809
G1 X76.62 Y82.302 E22.28094
G1 X77.08 Y81.483 E22.31218
G1 X77.611 Y80.71 E22.34337
G1 X78.203 Y79.991 E22.37435
G1 X78.556 Y79.618 E22.39143
G1 X79.011 Y79.161 E22.41288
G0 F6000 X79.282 Y79.455
G1 F1200 X79.946 Y78.843 E22.44291
G1 X80.662 Y78.292 E22.47296
G1 X81.424 Y77.807 E22.503
G1 X81.858 Y77.57 E22.51945
G1 X82.405 Y77.289 E22.5399
G1 X83.226 Y76.912 E22.56995
G1 X84.077 Y76.61 E22.59999
G1 X84.951 Y76.384 E22.63001
G1 X85.426 Y76.295 E22.64609
G1 X86.052 Y76.193 E22.66718
G1 X87.385 Y76.065 E22.71172
G1 X87.991 Y76.051 E22.73188
G1 X121.484 Y76.05 E23.84586
G1 X122.415 Y76.063 E23.87683
G1 X123.316 Y76.117 E23.90685
G1 X124.027 Y76.217 E23.93073
G1 X124.583 Y76.315 E23.94951
G1 X125.464 Y76.511 E23.97953
G1 X126.325 Y76.784 E24.00957
G1 X127.143 Y77.125 E24.03905
G1 X129.124 Y78.054 E24.11182
G1 X131.452 Y79.073 E24.19634
G1 X133.837 Y80.036 E24.28189
G1 X136.18 Y80.906 E24.36502
G1 X138.601 Y81.729 E24.45007
G1 X141.023 Y82.477 E24.53438
G1 X143.452 Y83.151 E24.61822
G1 X145.955 Y83.771 E24.70398
G1 X148.42 Y84.308 E24.78789
G1 X150.923 Y84.78 E24.87261
G1 X153.404 Y85.175 E24.95617
G1 X155.942 Y85.505 E25.04129
G1 X158.462 Y85.761 E25.12554
G1 X161.043 Y85.951 E25.21162
G1 X162.256 Y86.015 E25.25202
G1 X163.343 Y86.132 E25.28838
G1 X163.782 Y86.203 E25.30317
G1 X164.667 Y86.386 E25.33323
G1 X165.531 Y86.647 E25.36325
G1 X166.698 Y87.14 E25.40538
G1 X167.12 Y87.35 E25.42106
G1 X167.91 Y87.788 E25.45111
G1 X168.658 Y88.294 E25.48114
G1 X169.359 Y88.864 E25.51119
G1 X169.766 Y89.247 E25.52978
G1 X170.092 Y89.571 E25.54507
G1 X170.704 Y90.236 E25.57513
G1 X171.255 Y90.952 E25.60518
G1 X171.74 Y91.713 E25.63519
G1 X172.181 Y92.544 E25.66648
G1 X172.56 Y93.364 E25.69653
G1 X172.864 Y94.214 E25.72655
G1 X173.092 Y95.088 E25.75659
G1 X173.192 Y95.619 E25.77457
G1 X173.267 Y96.089 E25.7904
G1 X173.389 Y97.382 E25.83359
G1 X173.404 Y98.021 E25.85485
G1 X173.403 Y124.139 E26.72354
G1 X173.392 Y124.857 E26.74742
G1 X173.338 Y125.759 E26.77748
G1 X173.262 Y126.33 E26.79664
G1 X173.19 Y126.775 E26.81163
G1 X173.006 Y127.659 E26.84166
G1 X172.745 Y128.524 E26.87171
G1 X172.227 Y129.743 E26.91577
G1 X172.017 Y130.159 E26.93126
G1 X171.574 Y130.946 E26.9613
G1 X171.064 Y131.691 E26.99133
G1 X170.49 Y132.388 E27.02136
G1 X170.146 Y132.752 E27.03802
G1 X169.822 Y133.078 E27.05331
G1 X169.157 Y133.69 E27.08337
G1 X168.441 Y134.241 E27.11342
G1 X167.68 Y134.726 E27.14343
G1 X166.859 Y135.162 E27.17435
G1 X166.039 Y135.542 E27.20441
G1 X165.189 Y135.847 E27.23444
G1 X163.924 Y136.153 E27.27773
G1 X162.618 Y136.381 E27.32183
G1 X160.04 Y136.871 E27.40911
G1 X157.577 Y137.41 E27.49296
G1 X155.118 Y138.023 E27.57725
G1 X152.664 Y138.709 E27.662
G1 X150.212 Y139.469 E27.74738
G1 X147.837 Y140.281 E27.83087
G1 X145.445 Y141.173 E27.91578
G1 X143.108 Y142.121 E27.99966
G1 X140.773 Y143.147 E28.08449
G1 X138.473 Y144.236 E28.16913
G1 X136.302 Y145.336 E28.25007
G1 X135.213 Y145.811 E28.28959
G1 X132.22 Y146.912 E28.39566
G1 X129.92 Y147.838 E28.47812
G1 X127.561 Y148.866 E28.56371
G1 X125.273 Y149.94 E28.64778
G1 X123.007 Y151.085 E28.73222
G1 X120.775 Y152.291 E28.8166
G1 X118.573 Y153.564 E28.9012
G1 X116.421 Y154.891 E28.98529
G1 X113.676 Y156.705 E29.09472
G1 X113.241 Y157.004 E29.11228
G1 X112.201 Y157.63 E29.15265
G1 X111.907 Y157.784 E29.16369
G1 X111.089 Y158.168 E29.19374
G1 X110.241 Y158.477 E29.22376
G1 X109.368 Y158.71 E29.25382
G1 X108.507 Y158.866 E29.28292
G1 X107.169 Y158.995 E29.32763
G1 X106.563 Y159.009 E29.34779
G1 X73.414 Y159.009 E30.45033
G1 X72.696 Y158.998 E30.47421
G1 X71.794 Y158.944 E30.50427
G1 X70.951 Y158.824 E30.53259
G1 X70.066 Y158.642 E30.56264
G1 X69.201 Y158.382 E30.59268
G1 X68.003 Y157.876 E30.63593
G1 X67.725 Y157.737 E30.64627
G1 X66.936 Y157.298 E30.6763
G1 X66.189 Y156.791 E30.70633
G1 X65.49 Y156.219 E30.73637
G1 X64.926 Y155.682 E30.76227
G1 X64.31 Y155.021 E30.79232
G1 X63.755 Y154.309 E30.82235
G1 X63.265 Y153.55 E30.8524
G1 X62.886 Y152.849 E30.8789
G1 X62.503 Y152.031 E30.90894
G1 X62.194 Y151.182 E30.93899
G1 X61.962 Y150.31 E30.96901
G1 X61.807 Y149.454 E30.99794
G1 X61.701 Y148.558 E31.02795
G1 X61.677 Y148.101 E31.04317
G1 X61.664 Y147.495 E31.06333
G1 X61.664 Y111.028 E32.27623
G1 X61.675 Y110.31 E32.30011
G1 X61.729 Y109.408 E32.33017
G1 X61.849 Y108.565 E32.35849
G1 X62.031 Y107.68 E32.38854
G1 X62.291 Y106.815 E32.41858
G1 X62.626 Y105.977 E32.4486
G1 X62.969 Y105.277 E32.47452
G1 X63.413 Y104.491 E32.50455
G1 X64.068 Y103.56 E32.54241
G1 X65.797 Y101.374 E32.63511
G1 X67.329 Y99.319 E32.72036
G1 X68.759 Y97.281 E32.80317
G1 X70.193 Y95.109 E32.88973
G1 X71.505 Y92.996 E32.97246
G1 X72.792 Y90.786 E33.05752
G1 X74.02 Y88.531 E33.14292
G1 X75.154 Y86.302 E33.2261
G1 X76.536 Y83.364 E33.33409
G1 X76.969 Y82.497 E33.36632
G1 X77.41 Y81.709 E33.39636
G1 X77.92 Y80.964 E33.42638
G1 X78.494 Y80.266 E33.45644
G1 X78.84 Y79.9 E33.47319
G1 X79.282 Y79.455 E33.49405
G1 F2700 E28.49405
;MESH:slide_mount_side.stl
G0 F6000 X86 Y86.208
G0 X86.766 Y86.975
G0 X87.669 Y87.072
G0 X88.239 Y86.981
;TYPE:WALL-INNER
G1 F2700 E33.49405
G1 F760.7 X88.691 Y86.95 E33.51782
G1 F746.5 X89.303 Y86.994 E33.55063
G0 F6000 X89.715 Y87.073
G0 X90.131 Y87.268
G0 X90.673 Y87.81
G0 X91.022 Y88.493
G0 X91.141 Y89.25
G0 X91.021 Y90.006
G0 X90.673 Y90.689
G0 X90.131 Y91.231
G0 X89.449 Y91.579
G0 X87.664 Y91.804
G0 X86.875 Y91.347
G0 X86.514 Y98.228
G0 X86.435 Y98.637
G1 F745.3 X86.391 Y99.25 E33.58354
G1 X86.435 Y99.862 E33.6164
G1 F2700 E28.6164
G0 F6000 X86.514 Y100.271
G0 X87.49 Y100.904
G0 X88.06 Y101.194
G0 X88.691 Y101.295
G0 X89.323 Y101.194
G0 X89.893 Y100.904
G0 X90.346 Y100.451
G0 X90.574 Y99.988
G0 X91.399 Y99.932
G0 X117.988 Y101.453
G0 X119.696 Y101.864
G1 F2700 E33.6164
G1 F1200 X118.879 Y101.733 E33.64392
G1 X118.146 Y101.358 E33.6713
G1 X117.57 Y100.77 E33.69868
G1 X117.279 Y100.201 E33.71994
G1 X117.182 Y99.903 E33.73036
G1 X117.077 Y99.245 E33.75252
G1 X117.216 Y98.422 E33.78028
G1 X117.536 Y97.8 E33.80355
G1 X117.69 Y97.6 E33.81194
