;FLAVOR:Marlin
;TIME:22587
;Filament used: 19.9679m
;Layer height: 0.2
;MINX:0
;MINY:7.458
;MINZ:0.2
;MAXX:198.482
;MAXY:206.199
;MAXZ:30
;TARGET_MACHINE.NAME:Creality Ender-3 S1
;Generated with Cura_SteamEngine 5.6.0
M82 ;absolute extrusion mode
; Ender 3 S1 Start G-code
; M413 S0 ; Disable power loss recovery
G92 E0 ; Reset Extruder

; Prep surfaces before auto home for better accuracy
M140 S60
M104 S200

G28 ; Home all axes
G1 Z10.0 F3000 ; Move Z Axis up little to prevent scratching of Heat Bed
G1 X0 Y0

M190 S60
M109 S200

G1 X0.1 Y20 Z0.3 F5000.0 ; Move to start position
G1 X0.1 Y200.0 Z0.3 F1500.0 E15 ; Draw the first line
G1 X0.4 Y200.0 Z0.3 F5000.0 ; Move to side a little
G1 X0.4 Y20 Z0.3 F1500.0 E30 ; Draw the second line
G92 E0 ; Reset Extruder
G1 Z2.0 F3000 ; Move Z Axis up little to prevent scratching of Heat Bed
G1 X5 Y20 Z0.3 F5000.0 ; Move over to prevent blob squish

G92 E0
G92 E0
G1 F2400 E-0.8
;LAYER_COUNT:150
;LAYER:0
M107
M204 S2000
G0 F7500 X0.00 Y30.216 Z0.2
M204 S500
;TYPE:SKIRT
G1 F2400 E0
G1 F1500 X0.182 Y29.477 E0.02531
G1 X0.473 Y28.622 E0.05535
G1 X0.895 Y27.665 E0.09014
G1 X1.368 Y26.817 E0.12244
G1 X1.872 Y26.068 E0.15246
G1 X2.731 Y25.035 E0.19715
G1 X3.155 Y24.593 E0.21752
G1 X16.712 Y11.036 E0.8552
G1 X17.206 Y10.556 E0.87811
G1 X17.949 Y9.9 E0.91107
G1 X18.733 Y9.321 E0.94349
G1 X19.564 Y8.815 E0.97585
G1 X20.437 Y8.383 E1.00825
G1 X21.278 Y8.054 E1.03828
G1 X22.281 Y7.762 E1.07303
G1 X23.237 Y7.574 E1.10543
G1 X24.205 Y7.473 E1.1378
G1 X25.18 Y7.458 E1.17024
G1 X26.151 Y7.529 E1.20262
G1 X27.111 Y7.686 E1.23497
G1 X28.056 Y7.926 E1.2674
G1 X28.941 Y8.236 E1.29859
G1 X29.861 Y8.654 E1.3322
G1 X30.708 Y9.135 E1.3646
G1 X31.515 Y9.693 E1.39723
G1 X32.417 Y10.455 E1.4365
G1 X32.859 Y10.879 E1.45687
G1 X33.777 Y11.797 E1.50005
G1 X35.697 Y13.663 E1.5891
G1 X37.564 Y15.378 E1.67342
G1 X39.444 Y17.01 E1.75622
G1 X41.382 Y18.599 E1.83958
G1 X43.502 Y20.239 E1.92873
G1 X44.044 Y20.689 E1.95216
G1 X44.75 Y21.32 E1.98365
G1 X45.543 Y22.048 E2.01945
G1 X47.452 Y23.701 E2.10344
G1 X49.381 Y25.279 E2.18633
G1 X51.374 Y26.818 E2.27008
G1 X53.403 Y28.294 E2.35354
G1 X55.495 Y29.728 E2.43789
G1 X57.636 Y31.108 E2.52261
G1 X59.749 Y32.386 E2.60475
G1 X61.958 Y33.638 E2.6892
G1 X64.177 Y34.815 E2.77274
G1 X66.432 Y35.93 E2.85641
G1 X68.713 Y36.98 E2.93993
G1 X71.033 Y37.966 E3.02377
G1 X73.386 Y38.892 E3.10788
G1 X75.731 Y39.738 E3.19079
G1 X78.171 Y40.54 E3.27622
G1 X80.564 Y41.254 E3.35928
G1 X82.959 Y41.894 E3.44173
G1 X85.454 Y42.485 E3.52701
G1 X87.9 Y42.993 E3.6101
G1 X90.369 Y43.432 E3.69351
G1 X92.883 Y43.808 E3.77806
G1 X95.383 Y44.109 E3.86181
G1 X97.86 Y44.337 E3.94454
G1 X100.374 Y44.495 E4.02832
G1 X102.913 Y44.584 E4.11282
G1 X105.408 Y44.601 E4.19581
G1 X107.958 Y44.546 E4.28064
G1 X110.428 Y44.423 E4.36289
G1 X113.689 Y44.167 E4.47169
G1 X114.71 Y44.136 E4.50566
G1 X115.114 Y44.144 E4.5191
G1 X116.085 Y44.206 E4.55146
G1 X117.057 Y44.355 E4.58417
G1 X118.176 Y44.641 E4.62258
G1 X118.831 Y44.849 E4.64544
G1 X119.744 Y45.186 E4.67781
G1 X120.625 Y45.602 E4.71022
G1 X121.405 Y46.057 E4.74025
G1 X122.233 Y46.644 E4.77401
G1 X123.147 Y47.439 E4.8143
G1 X123.629 Y47.908 E4.83667
G1 X127.634 Y51.914 E5.02507
G1 X128.133 Y52.43 E5.04895
G1 X128.772 Y53.152 E5.08102
G1 X129.17 Y53.677 E5.10293
G1 X130.651 Y55.767 E5.18812
G1 X132.141 Y57.751 E5.27065
G1 X133.735 Y59.753 E5.35577
G1 X135.338 Y61.652 E5.43842
G1 X137.023 Y63.537 E5.52251
G1 X138.748 Y65.364 E5.60608
G1 X140.539 Y67.152 E5.69026
G1 X142.368 Y68.882 E5.77399
G1 X144.252 Y70.562 E5.85795
G1 X146.177 Y72.184 E5.94167
G1 X148.159 Y73.761 E6.02592
G1 X150.159 Y75.262 E6.10909
G1 X152.194 Y76.705 E6.19206
G1 X152.931 Y77.279 E6.22313
G1 X153.465 Y77.764 E6.24712
G1 X154.154 Y78.434 E6.27909
G1 X158.064 Y82.343 E6.46298
G1 X158.573 Y82.867 E6.48728
G1 X159.229 Y83.61 E6.52024
G1 X159.808 Y84.395 E6.55268
G1 X160.314 Y85.226 E6.58504
G1 X160.746 Y86.099 E6.61744
G1 X161.086 Y86.973 E6.64863
G1 X161.35 Y87.873 E6.67983
G1 X161.5 Y88.564 E6.70335
G1 X161.596 Y89.103 E6.72155
G1 X161.721 Y89.92 E6.74904
G1 X161.817 Y90.889 E6.78143
G1 X161.829 Y91.792 E6.81147
G1 X161.8 Y92.364 E6.83052
G1 X161.636 Y94.266 E6.89401
G1 X161.479 Y96.736 E6.97633
G1 X161.387 Y99.305 E7.06183
G1 X161.367 Y101.817 E7.14538
G1 X161.42 Y104.311 E7.22835
G1 X161.543 Y106.84 E7.31257
G1 X161.735 Y109.325 E7.39546
G1 X162.001 Y111.849 E7.47988
G1 X162.337 Y114.331 E7.56318
G1 X162.743 Y116.812 E7.6468
G1 X163.222 Y119.305 E7.73123
G1 X163.764 Y121.739 E7.81417
G1 X164.372 Y124.157 E7.8971
G1 X165.068 Y126.619 E7.98219
G1 X165.831 Y129.058 E8.06719
G1 X166.629 Y131.374 E8.14867
G1 X167.521 Y133.742 E8.23283
G1 X168.477 Y136.077 E8.31675
G1 X169.501 Y138.388 E8.40082
G1 X170.578 Y140.652 E8.48421
G1 X171.73 Y142.9 E8.56822
G1 X172.945 Y145.116 E8.65228
G1 X174.196 Y147.251 E8.73458
G1 X175.542 Y149.41 E8.8192
G1 X176.93 Y151.498 E8.90259
G1 X178.412 Y153.597 E8.98805
G1 X179.877 Y155.553 E9.06933
G1 X181.487 Y157.58 E9.15543
G1 X183.055 Y159.444 E9.23645
G1 X185.237 Y161.882 E9.34527
G1 X185.723 Y162.468 E9.37059
G1 X186.541 Y163.525 E9.41504
G1 X188.144 Y165.54 E9.50068
G1 X189.759 Y167.456 E9.58403
G1 X191.449 Y169.35 E9.66845
G1 X193.186 Y171.19 E9.75262
G1 X195.338 Y173.372 E9.85455
G1 X195.988 Y174.097 E9.88693
G1 X196.572 Y174.876 E9.91931
G1 X197.085 Y175.705 E9.95174
G1 X197.522 Y176.574 E9.98409
G1 X197.881 Y177.48 E10.0165
G1 X198.159 Y178.413 E10.04888
G1 X198.341 Y179.297 E10.0789
G1 X198.461 Y180.337 E10.11372
G1 X198.482 Y181.31 E10.14609
G1 X198.418 Y182.281 E10.17846
G1 X198.269 Y183.243 E10.21084
G1 X198.035 Y184.19 E10.24328
G1 X197.719 Y185.109 E10.2756
G1 X197.338 Y185.967 E10.30683
G1 X196.847 Y186.851 E10.34046
G1 X196.293 Y187.663 E10.37316
G1 X195.49 Y188.622 E10.41476
G1 X195.066 Y189.064 E10.43513
G1 X181.519 Y202.611 E11.07234
G1 X181.004 Y203.111 E11.09621
G1 X180.329 Y203.712 E11.12627
G1 X179.492 Y204.334 E11.16096
G1 X178.723 Y204.807 E11.19098
G1 X177.786 Y205.272 E11.22577
G1 X176.911 Y205.614 E11.25702
G1 X175.943 Y205.894 E11.29054
G1 X174.987 Y206.082 E11.32294
G1 X174.018 Y206.184 E11.35535
G1 X173.043 Y206.199 E11.38778
G1 X172.073 Y206.128 E11.42013
G1 X171.11 Y205.972 E11.45258
G1 X170.168 Y205.731 E11.48492
G1 X169.283 Y205.421 E11.51611
G1 X168.362 Y205.004 E11.54973
G1 X167.515 Y204.524 E11.58211
G1 X166.737 Y203.989 E11.61352
G1 X165.799 Y203.196 E11.65437
G1 X165.349 Y202.764 E11.67512
G1 X164.44 Y201.855 E11.71787
G1 X162.524 Y199.993 E11.80674
G1 X160.658 Y198.28 E11.89099
G1 X158.798 Y196.666 E11.97289
G1 X156.822 Y195.046 E12.05788
G1 X154.727 Y193.425 E12.14598
G1 X153.94 Y192.749 E12.18049
G1 X153.449 Y192.281 E12.20305
G1 X13.792 Y52.623 E18.77211
G1 X13.306 Y52.124 E18.79528
G1 X12.495 Y51.189 E18.83644
G1 X11.483 Y49.88 E18.89148
G1 X9.893 Y47.893 E18.97612
G1 X8.247 Y45.954 E19.06071
G1 X6.582 Y44.1 E19.14359
G1 X4.024 Y41.438 E19.26638
G1 X2.889 Y40.291 E19.32005
G1 X2.238 Y39.567 E19.35244
G1 X1.674 Y38.818 E19.38362
G1 X1.14 Y37.96 E19.41724
G1 X0.702 Y37.091 E19.4496
G1 X0.343 Y36.186 E19.48198
G1 X0.064 Y35.253 E19.51437
G1 X0.00 Y34.943 E19.5249
M204 S2000
G1 F2400 E18.7249
G0 F7500 X16.991 Y11.323
M204 S500
G1 F2400 E19.5249
G1 F1500 X17.485 Y10.843 E19.54781
G1 X18.187 Y10.221 E19.57901
G1 X18.942 Y9.662 E19.61025
G1 X19.742 Y9.173 E19.64144
G1 X20.583 Y8.756 E19.67266
G1 X21.424 Y8.427 E19.70269
G1 X22.359 Y8.154 E19.73509
G1 X23.279 Y7.972 E19.76628
G1 X24.212 Y7.873 E19.79749
G1 X25.151 Y7.857 E19.82873
G1 X26.087 Y7.924 E19.85994
G1 X27.013 Y8.074 E19.89114
G1 X27.924 Y8.304 E19.92239
G1 X28.809 Y8.614 E19.95358
G1 X29.664 Y9.002 E19.9848
G1 X30.481 Y9.464 E20.01602
G1 X31.257 Y9.999 E20.04737
G1 X32.14 Y10.744 E20.0858
G1 X32.582 Y11.168 E20.10617
G1 X33.498 Y12.084 E20.14925
G1 X35.426 Y13.958 E20.23868
G1 X37.293 Y15.673 E20.323
G1 X39.19 Y17.319 E20.40653
G1 X41.137 Y18.915 E20.49027
G1 X43.246 Y20.547 E20.57896
G1 X43.788 Y20.997 E20.60239
G1 X44.48 Y21.615 E20.63325
G1 X45.281 Y22.35 E20.66941
G1 X47.199 Y24.011 E20.7538
G1 X49.137 Y25.596 E20.83707
G1 X51.13 Y27.135 E20.92082
G1 X53.177 Y28.624 E21.00501
G1 X55.278 Y30.064 E21.08973
G1 X57.419 Y31.444 E21.17445
G1 X59.552 Y32.734 E21.25736
G1 X61.761 Y33.986 E21.34181
G1 X64 Y35.174 E21.42611
G1 X66.255 Y36.289 E21.50978
G1 X68.557 Y37.348 E21.59406
G1 X70.879 Y38.335 E21.67798
G1 X73.25 Y39.268 E21.76272
G1 X75.606 Y40.118 E21.84603
G1 X78.046 Y40.92 E21.93145
G1 X80.452 Y41.638 E22.01496
G1 X82.867 Y42.283 E22.0981
G1 X85.373 Y42.877 E22.18376
G1 X87.82 Y43.385 E22.26689
G1 X90.31 Y43.828 E22.351
G1 X92.824 Y44.204 E22.43555
G1 X95.335 Y44.506 E22.51967
G1 X97.831 Y44.736 E22.60304
G1 X100.36 Y44.895 E22.68732
G1 X102.899 Y44.984 E22.77182
G1 X105.414 Y45.001 E22.85547
G1 X107.978 Y44.946 E22.94077
G1 X110.448 Y44.823 E23.02302
G1 X113.72 Y44.566 E23.13218
G1 X114.703 Y44.536 E23.16489
G1 X115.089 Y44.543 E23.17773
G1 X116.025 Y44.601 E23.20893
G1 X116.958 Y44.743 E23.24031
G1 X118.077 Y45.029 E23.27873
G1 X118.693 Y45.224 E23.30022
G1 X119.574 Y45.548 E23.33144
G1 X120.423 Y45.948 E23.36265
G1 X121.203 Y46.403 E23.39269
G1 X122.001 Y46.97 E23.42525
G1 X122.868 Y47.726 E23.46351
G1 X123.35 Y48.195 E23.48588
G1 X127.347 Y52.192 E23.67388
G1 X127.834 Y52.695 E23.69717
G1 X128.453 Y53.394 E23.72822
G1 X128.851 Y53.919 E23.75014
G1 X130.331 Y56.007 E23.83526
G1 X131.828 Y58 E23.91816
G1 X133.429 Y60.011 E24.00366
G1 X135.04 Y61.919 E24.08671
G1 X136.732 Y63.812 E24.17116
G1 X138.465 Y65.647 E24.25511
G1 X140.264 Y67.443 E24.33966
G1 X142.093 Y69.173 E24.42339
G1 X143.994 Y70.868 E24.5081
G1 X145.919 Y72.49 E24.59183
G1 X147.919 Y74.081 E24.67683
G1 X149.919 Y75.582 E24.76
G1 X151.948 Y77.021 E24.84273
G1 X152.685 Y77.595 E24.8738
G1 X153.186 Y78.051 E24.89633
G1 X153.871 Y78.717 E24.92811
G1 X157.777 Y82.622 E25.11181
G1 X158.286 Y83.146 E25.13611
G1 X158.908 Y83.848 E25.1673
G1 X159.467 Y84.603 E25.19855
G1 X159.956 Y85.404 E25.22976
G1 X160.373 Y86.245 E25.26098
G1 X160.702 Y87.086 E25.29102
G1 X160.966 Y87.986 E25.32222
G1 X161.106 Y88.635 E25.3443
G1 X161.201 Y89.164 E25.36217
G1 X161.323 Y89.96 E25.38896
G1 X161.417 Y90.894 E25.42018
G1 X161.429 Y91.797 E25.45022
G1 X161.401 Y92.33 E25.46797
G1 X161.238 Y94.232 E25.53146
G1 X161.079 Y96.722 E25.61445
G1 X160.987 Y99.291 E25.69995
G1 X160.967 Y101.814 E25.78387
G1 X161.02 Y104.33 E25.86757
G1 X161.144 Y106.871 E25.95218
G1 X161.337 Y109.367 E26.03545
G1 X161.604 Y111.891 E26.11986
G1 X161.942 Y114.396 E26.20394
G1 X162.35 Y116.887 E26.28789
G1 X162.829 Y119.38 E26.37233
G1 X163.376 Y121.837 E26.45605
G1 X163.987 Y124.266 E26.53935
G1 X164.686 Y126.739 E26.62483
G1 X165.45 Y129.178 E26.70983
G1 X166.255 Y131.515 E26.79205
G1 X167.151 Y133.893 E26.87657
G1 X168.111 Y136.239 E26.96087
G1 X169.135 Y138.55 E27.04495
G1 X170.222 Y140.834 E27.12908
G1 X171.379 Y143.092 E27.21346
G1 X172.594 Y145.308 E27.29752
G1 X173.857 Y147.463 E27.3806
G1 X175.209 Y149.631 E27.46558
G1 X176.603 Y151.729 E27.54936
G1 X178.085 Y153.828 E27.63482
G1 X179.564 Y155.802 E27.71686
G1 X181.174 Y157.829 E27.80295
G1 X182.757 Y159.711 E27.88475
G1 X184.929 Y162.137 E27.99305
G1 X185.407 Y162.713 E28.01795
G1 X186.228 Y163.774 E28.06257
G1 X187.838 Y165.798 E28.14859
G1 X189.453 Y167.714 E28.23193
G1 X191.158 Y169.625 E28.31711
G1 X192.901 Y171.471 E28.40155
G1 X195.041 Y173.64 E28.5029
G1 X195.668 Y174.337 E28.53408
G1 X196.232 Y175.087 E28.56529
G1 X196.728 Y175.885 E28.59654
G1 X197.15 Y176.722 E28.62772
G1 X197.498 Y177.595 E28.65898
G1 X197.767 Y178.494 E28.69019
G1 X197.949 Y179.378 E28.72021
G1 X198.061 Y180.346 E28.75262
G1 X198.083 Y181.284 E28.78382
G1 X198.023 Y182.22 E28.81502
G1 X197.881 Y183.148 E28.84624
G1 X197.657 Y184.06 E28.87748
G1 X197.353 Y184.947 E28.90866
G1 X196.988 Y185.773 E28.9387
G1 X196.516 Y186.626 E28.97112
G1 X195.986 Y187.406 E29.00249
G1 X195.201 Y188.345 E29.0432
G1 X194.777 Y188.787 E29.06357
G1 X181.24 Y202.324 E29.70031
G1 X180.738 Y202.812 E29.72359
G1 X180.063 Y203.413 E29.75365
G1 X179.282 Y203.993 E29.78601
G1 X178.513 Y204.466 E29.81604
G1 X177.64 Y204.899 E29.84845
G1 X176.765 Y205.241 E29.87969
G1 X175.865 Y205.502 E29.91086
G1 X174.944 Y205.684 E29.94209
G1 X174.011 Y205.784 E29.9733
G1 X173.072 Y205.8 E30.00453
G1 X172.136 Y205.733 E30.03574
G1 X171.209 Y205.584 E30.06697
G1 X170.3 Y205.353 E30.09817
G1 X169.415 Y205.043 E30.12935
G1 X168.559 Y204.656 E30.1606
G1 X167.742 Y204.194 E30.19182
G1 X166.964 Y203.659 E30.22322
G1 X166.076 Y202.907 E30.26192
G1 X165.626 Y202.475 E30.28267
G1 X164.723 Y201.572 E30.32515
G1 X162.795 Y199.698 E30.41457
G1 X160.929 Y197.985 E30.49882
G1 X159.052 Y196.357 E30.58146
G1 X157.076 Y194.737 E30.66645
G1 X154.987 Y193.121 E30.75429
G1 X154.216 Y192.46 E30.78807
G1 X153.732 Y191.998 E30.81032
G1 X14.079 Y52.344 E37.3792
G1 X13.593 Y51.845 E37.40236
G1 X12.811 Y50.944 E37.44204
G1 X11.799 Y49.635 E37.49707
G1 X10.198 Y47.634 E37.58231
G1 X8.552 Y45.695 E37.6669
G1 X6.88 Y43.833 E37.75014
G1 X4.312 Y41.161 E37.8734
G1 X3.186 Y40.023 E37.92665
G1 X2.558 Y39.326 E37.95785
G1 X1.994 Y38.577 E37.98903
G1 X1.497 Y37.78 E38.02027
G1 X1.074 Y36.943 E38.05147
G1 X0.726 Y36.071 E38.08269
G1 X0.456 Y35.172 E38.11391
G1 X0.273 Y34.287 E38.14397
G1 X0.161 Y33.32 E38.17635
G1 X0.138 Y32.383 E38.20752
G1 X0.196 Y31.445 E38.23878
G1 X0.338 Y30.518 E38.26997
G1 X0.561 Y29.606 E38.3012
G1 X0.852 Y28.751 E38.33124
G1 X1.245 Y27.859 E38.36366
G1 X1.7 Y27.04 E38.39482
G1 X2.204 Y26.291 E38.42485
G1 X3.02 Y25.312 E38.46724
G1 X3.444 Y24.87 E38.48761
G1 X16.991 Y11.323 E39.12482
M204 S2000
G0 F7500 X17.27 Y11.61
M204 S500
G1 F1500 X17.751 Y11.142 E39.14714
G1 X18.426 Y10.542 E39.17718
G1 X19.151 Y10.003 E39.20722
G1 X19.92 Y9.531 E39.23723
G1 X20.729 Y9.129 E39.26728
G1 X21.57 Y8.8 E39.29732
G1 X22.437 Y8.546 E39.32737
G1 X23.322 Y8.37 E39.35738
G1 X24.22 Y8.273 E39.38742
G1 X25.123 Y8.256 E39.41746
G1 X26.024 Y8.319 E39.4475
G1 X26.916 Y8.462 E39.47754
G1 X27.792 Y8.682 E39.50759
G1 X28.644 Y8.979 E39.5376
G1 X29.468 Y9.351 E39.56767
G1 X30.255 Y9.794 E39.5977
G1 X30.999 Y10.305 E39.62772
G1 X31.863 Y11.033 E39.6653
G1 X32.305 Y11.457 E39.68567
G1 X33.219 Y12.371 E39.72866
G1 X35.155 Y14.253 E39.81847
G1 X37.022 Y15.968 E39.90279
G1 X38.936 Y17.628 E39.98705
G1 X40.892 Y19.231 E40.07117
G1 X42.99 Y20.855 E40.15941
G1 X43.532 Y21.305 E40.18284
G1 X44.21 Y21.91 E40.21306
G1 X45.019 Y22.652 E40.24957
G1 X46.946 Y24.321 E40.33436
G1 X48.893 Y25.913 E40.41801
G1 X50.886 Y27.452 E40.50176
G1 X52.951 Y28.954 E40.58669
G1 X55.061 Y30.4 E40.67177
G1 X57.202 Y31.78 E40.75649
G1 X59.355 Y33.082 E40.84017
G1 X61.573 Y34.339 E40.92497
G1 X63.823 Y35.533 E41.00969
G1 X66.078 Y36.648 E41.09336
G1 X68.401 Y37.716 E41.1784
G1 X70.725 Y38.704 E41.26239
G1 X73.114 Y39.644 E41.34777
G1 X75.481 Y40.498 E41.43147
G1 X77.921 Y41.3 E41.5169
G1 X80.34 Y42.022 E41.60086
G1 X82.775 Y42.672 E41.68468
G1 X85.292 Y43.269 E41.77072
G1 X87.74 Y43.777 E41.85388
G1 X90.251 Y44.224 E41.93871
G1 X92.765 Y44.6 E42.02325
G1 X95.286 Y44.903 E42.1077
G1 X97.802 Y45.135 E42.19174
G1 X100.346 Y45.295 E42.27652
G1 X102.885 Y45.384 E42.36102
G1 X105.42 Y45.401 E42.44534
G1 X107.987 Y45.346 E42.53074
G1 X110.479 Y45.221 E42.61373
G1 X113.732 Y44.966 E42.72225
G1 X114.696 Y44.936 E42.75433
G1 X115.065 Y44.942 E42.76661
G1 X115.966 Y44.997 E42.79663
G1 X116.859 Y45.131 E42.82666
G1 X117.978 Y45.417 E42.86508
G1 X118.556 Y45.6 E42.88524
G1 X119.404 Y45.91 E42.91527
G1 X120.221 Y46.294 E42.9453
G1 X121.001 Y46.749 E42.97533
G1 X121.738 Y47.272 E43.00539
G1 X122.589 Y48.013 E43.04292
G1 X123.067 Y48.478 E43.0651
G1 X127.06 Y52.47 E43.25289
G1 X127.535 Y52.96 E43.27559
G1 X128.134 Y53.636 E43.30563
G1 X128.532 Y54.161 E43.32755
G1 X130.011 Y56.247 E43.4126
G1 X131.515 Y58.249 E43.49588
G1 X133.123 Y60.269 E43.58175
G1 X134.742 Y62.186 E43.66521
G1 X136.441 Y64.087 E43.75001
G1 X138.182 Y65.93 E43.83433
G1 X139.989 Y67.734 E43.91926
G1 X141.819 Y69.463 E44.00299
G1 X143.736 Y71.174 E44.08846
G1 X145.661 Y72.796 E44.17218
G1 X147.679 Y74.401 E44.25794
G1 X149.679 Y75.902 E44.34111
