;FLAVOR:Marlin
;TIME:5533
;Filament used: 3.42258m
;Layer height: 0.2
;MINX:75.833
;MINY:66.67
;MINZ:0.2
;MAXX:195.319
;MAXY:172.826
;MAXZ:20
;TARGET_MACHINE.NAME:Creality Ender-3 S1
;Generated with Cura_SteamEngine 5.6.0
M82 ;absolute extrusion mode
; Ender 3 S1 Start G-code
; M413 S0 ; Disable power loss recovery
G92 E0 ; Reset Extruder

; Prep surfaces before auto home for better accuracy
M140 S60
M104 S200

G28 ; Home all axes
G1 Z10.0 F3000 ; Move Z Axis up little to prevent scratching of Heat Bed
G1 X0 Y0

M190 S60
M109 S200

G1 X0.1 Y20 Z0.3 F5000.0 ; Move to start position
G1 X0.1 Y200.0 Z0.3 F1500.0 E15 ; Draw the first line
G1 X0.4 Y200.0 Z0.3 F5000.0 ; Move to side a little
G1 X0.4 Y20 Z0.3 F1500.0 E30 ; Draw the second line
G92 E0 ; Reset Extruder
G1 Z2.0 F3000 ; Move Z Axis up little to prevent scratching of Heat Bed
G1 X5 Y20 Z0.3 F5000.0 ; Move over to prevent blob squish

G92 E0
G92 E0
G1 F2400 E-0.8
;LAYER_COUNT:100
;LAYER:0
M107
M204 S2000
G0 F7500 X81.415 Y113.163 Z0.2
M204 S500
;TYPE:SKIRT
G1 F2400 E0
G1 F1500 X82.35 Y112.584 E0.03658
G1 X84.277 Y111.52 E0.10979
G1 X86.424 Y110.261 E0.19257
G1 X88.561 Y108.926 E0.27638
G1 X90.652 Y107.535 E0.35991
G1 X92.705 Y106.085 E0.44351
G1 X94.747 Y104.555 E0.52837
G1 X96.712 Y102.993 E0.61186
G1 X98.626 Y101.382 E0.69507
G1 X100.509 Y99.703 E0.77898
G1 X102.317 Y97.997 E0.86166
G1 X104.135 Y96.181 E0.94712
G1 X105.834 Y94.387 E1.02931
G1 X107.531 Y92.488 E1.11401
G1 X109.149 Y90.572 E1.19742
G1 X110.729 Y88.591 E1.2817
G1 X112.23 Y86.594 E1.36479
G1 X113.684 Y84.542 E1.44844
G1 X115.088 Y82.435 E1.53265
G1 X116.408 Y80.328 E1.61534
G1 X117.705 Y78.123 E1.70043
G1 X118.911 Y75.936 E1.7835
G1 X120.051 Y73.707 E1.86677
G1 X120.363 Y73.117 E1.88896
G1 X120.86 Y72.278 E1.9214
G1 X121.41 Y71.511 E1.95279
G1 X122.253 Y70.552 E1.99526
G1 X122.598 Y70.204 E2.01156
G1 X123.261 Y69.591 E2.04159
G1 X124.088 Y68.954 E2.07631
G1 X124.849 Y68.467 E2.10636
G1 X125.762 Y67.98 E2.14077
G1 X126.668 Y67.564 E2.17393
G1 X127.586 Y67.238 E2.20633
G1 X128.513 Y66.998 E2.23818
G1 X129.024 Y66.901 E2.25548
G1 X129.529 Y66.82 E2.27249
G1 X130.426 Y66.714 E2.30254
G1 X130.966 Y66.684 E2.32052
G1 X131.626 Y66.67 E2.34248
G1 X157.734 Y66.671 E3.21084
G1 X158.486 Y66.684 E3.23585
G1 X159.444 Y66.742 E3.26777
G1 X159.999 Y66.816 E3.2864
G1 X160.478 Y66.892 E3.30253
G1 X161.431 Y67.09 E3.3349
G1 X162.379 Y67.378 E3.36785
G1 X163.664 Y67.923 E3.41428
G1 X164.103 Y68.144 E3.43062
G1 X164.952 Y68.622 E3.46303
G1 X165.755 Y69.173 E3.49542
G1 X166.476 Y69.766 E3.52647
G1 X167.192 Y70.453 E3.55947
G1 X167.87 Y71.185 E3.59266
G1 X168.464 Y71.954 E3.62498
G1 X168.984 Y72.763 E3.65697
G1 X169.27 Y73.288 E3.67685
G1 X169.5 Y73.74 E3.69372
G1 X169.907 Y74.64 E3.72657
G1 X170.322 Y75.894 E3.7705
G1 X170.654 Y77.15 E3.81371
G1 X171.353 Y79.641 E3.89976
G1 X172.114 Y82.089 E3.98503
G1 X172.907 Y84.405 E4.06645
G1 X173.807 Y86.809 E4.15183
G1 X174.757 Y89.15 E4.23585
G1 X175.758 Y91.421 E4.3184
G1 X176.846 Y93.716 E4.40288
G1 X177.98 Y95.941 E4.48594
G1 X179.184 Y98.148 E4.56955
G1 X180.452 Y100.324 E4.65332
G1 X181.78 Y102.462 E4.73703
G1 X183.196 Y104.604 E4.82243
G1 X184.598 Y106.598 E4.90351
G1 X186.12 Y108.639 E4.98819
G1 X187.68 Y110.611 E5.07182
G1 X189.304 Y112.55 E5.15594
G1 X191.314 Y114.805 E5.25641
G1 X192.026 Y115.579 E5.29139
G1 X192.652 Y116.325 E5.32378
G1 X193.208 Y117.123 E5.35613
G1 X193.686 Y117.952 E5.38796
G1 X193.992 Y118.545 E5.41015
G1 X194.398 Y119.43 E5.44254
G1 X194.724 Y120.348 E5.47494
G1 X194.965 Y121.274 E5.50676
G1 X195.064 Y121.794 E5.52437
G1 X195.163 Y122.399 E5.54476
G1 X195.301 Y123.821 E5.59228
G1 X195.319 Y124.541 E5.61623
G1 X195.318 Y155.642 E6.65066
G1 X195.305 Y156.407 E6.6761
G1 X195.247 Y157.364 E6.70799
G1 X195.174 Y157.912 E6.72638
G1 X195.075 Y158.539 E6.74749
G1 X194.878 Y159.494 E6.77992
G1 X194.593 Y160.442 E6.81285
G1 X194.059 Y161.707 E6.85852
G1 X193.747 Y162.327 E6.8816
G1 X193.269 Y163.175 E6.91398
G1 X192.719 Y163.977 E6.94633
G1 X192.128 Y164.698 E6.97733
G1 X191.728 Y165.121 E6.9967
G1 X191.268 Y165.584 E7.0184
G1 X190.603 Y166.195 E7.04844
G1 X189.775 Y166.83 E7.08315
G1 X188.985 Y167.332 E7.11428
G1 X187.959 Y167.872 E7.15284
G1 X187.073 Y168.279 E7.18527
G1 X186.156 Y168.603 E7.21762
G1 X185.228 Y168.843 E7.2495
G1 X184.706 Y168.941 E7.26716
G1 X184.077 Y169.043 E7.28836
G1 X182.658 Y169.18 E7.33577
G1 X182.019 Y169.195 E7.35703
G1 X165.117 Y169.195 E7.91919
G1 X162.533 Y169.232 E8.00515
G1 X159.965 Y169.341 E8.09064
G1 X157.491 Y169.516 E8.17313
G1 X155.019 Y169.761 E8.25575
G1 X152.456 Y170.089 E8.34169
G1 X149.993 Y170.476 E8.42461
G1 X147.533 Y170.933 E8.50783
G1 X145.072 Y171.461 E8.59155
G1 X142.573 Y172.076 E8.67715
G1 X141.066 Y172.468 E8.72894
G1 X140.114 Y172.669 E8.7613
G1 X139.218 Y172.78 E8.79133
G1 X138.626 Y172.813 E8.81105
G1 X138.002 Y172.826 E8.83181
G1 X89.37 Y172.825 E10.44931
G1 X88.617 Y172.812 E10.47436
G1 X87.659 Y172.754 E10.50629
G1 X87.095 Y172.679 E10.52521
G1 X86.468 Y172.579 E10.54633
G1 X85.514 Y172.38 E10.57874
G1 X84.607 Y172.106 E10.61025
G1 X83.288 Y171.548 E10.65789
G1 X82.694 Y171.249 E10.68001
G1 X81.846 Y170.771 E10.71238
G1 X81.043 Y170.22 E10.74477
G1 X80.303 Y169.611 E10.77665
G1 X79.915 Y169.243 E10.79444
G1 X79.457 Y168.787 E10.81593
G1 X78.8 Y168.069 E10.8483
G1 X78.209 Y167.296 E10.88066
G1 X77.695 Y166.488 E10.91252
G1 X77.465 Y166.066 E10.9285
G1 X77.158 Y165.471 E10.95077
G1 X76.752 Y164.586 E10.98315
G1 X76.426 Y163.669 E11.01552
G1 X76.191 Y162.769 E11.04646
G1 X76.082 Y162.196 E11.06586
G1 X75.982 Y161.575 E11.08678
G1 X75.847 Y160.15 E11.13439
G1 X75.833 Y159.544 E11.15455
G1 X75.833 Y124.339 E12.32547
G1 X75.845 Y123.629 E12.34909
G1 X75.918 Y122.553 E12.38496
G1 X76.027 Y121.761 E12.41155
G1 X76.103 Y121.319 E12.42647
G1 X76.314 Y120.369 E12.45884
G1 X76.598 Y119.469 E12.49023
G1 X77.094 Y118.312 E12.53209
G1 X77.405 Y117.694 E12.5551
G1 X77.883 Y116.846 E12.58748
G1 X78.433 Y116.044 E12.61983
G1 X79.044 Y115.3 E12.65185
G1 X79.435 Y114.889 E12.67071
G1 X79.914 Y114.412 E12.6932
G1 X80.634 Y113.756 E12.72559
G1 X81.415 Y113.163 E12.75821
M204 S2000
G0 F7500 X81.626 Y113.503
M204 S500
G1 F1500 X82.543 Y112.934 E12.7941
G1 X84.47 Y111.87 E12.86732
G1 X86.626 Y110.606 E12.95044
G1 X88.783 Y109.259 E13.03502
G1 X90.883 Y107.862 E13.11891
G1 X92.936 Y106.412 E13.20251
G1 X94.987 Y104.875 E13.28776
G1 X96.97 Y103.299 E13.372
G1 X98.884 Y101.688 E13.45521
G1 X100.783 Y99.994 E13.53985
G1 X102.6 Y98.28 E13.62293
G1 X104.418 Y96.464 E13.7084
G1 X106.132 Y94.654 E13.79131
G1 X107.829 Y92.755 E13.87601
G1 X109.455 Y90.83 E13.95982
G1 X111.042 Y88.84 E14.04448
G1 X112.55 Y86.834 E14.12795
G1 X114.017 Y84.764 E14.21233
G1 X115.421 Y82.657 E14.29655
G1 X116.753 Y80.531 E14.37999
G1 X118.05 Y78.326 E14.46507
G1 X119.261 Y76.129 E14.54851
G1 X120.404 Y73.894 E14.63201
G1 X120.708 Y73.32 E14.65361
G1 X121.185 Y72.511 E14.68485
G1 X121.735 Y71.744 E14.71624
G1 X122.537 Y70.834 E14.75658
G1 X122.87 Y70.498 E14.77231
G1 X123.533 Y69.885 E14.80235
G1 X124.304 Y69.291 E14.83472
G1 X125.065 Y68.804 E14.86477
G1 X125.95 Y68.333 E14.89811
G1 X126.803 Y67.941 E14.92934
G1 X127.687 Y67.625 E14.96056
G1 X128.588 Y67.391 E14.99152
G1 X129.088 Y67.296 E15.00845
G1 X129.576 Y67.217 E15.02489
G1 X130.473 Y67.111 E15.05493
G1 X130.975 Y67.084 E15.07165
G1 X131.626 Y67.07 E15.09331
G1 X157.727 Y67.071 E15.96143
G1 X158.462 Y67.083 E15.98588
G1 X159.392 Y67.139 E16.01687
G1 X159.936 Y67.211 E16.03512
G1 X160.397 Y67.284 E16.05065
G1 X161.316 Y67.473 E16.08185
G1 X162.223 Y67.746 E16.11336
G1 X163.484 Y68.28 E16.1589
G1 X163.907 Y68.493 E16.17466
G1 X164.726 Y68.952 E16.20588
G1 X165.501 Y69.482 E16.23711
G1 X166.199 Y70.055 E16.26715
G1 X166.915 Y70.742 E16.30015
G1 X167.554 Y71.43 E16.33138
G1 X168.128 Y72.171 E16.36255
G1 X168.633 Y72.955 E16.39357
G1 X168.914 Y73.47 E16.41309
G1 X169.136 Y73.905 E16.42933
G1 X169.527 Y74.766 E16.46078
G1 X169.935 Y75.996 E16.50388
G1 X170.269 Y77.258 E16.5473
G1 X170.971 Y79.76 E16.63373
G1 X171.732 Y82.208 E16.719
G1 X172.532 Y84.545 E16.80115
G1 X173.436 Y86.96 E16.88692
G1 X174.387 Y89.301 E16.97096
G1 X175.392 Y91.582 E17.05386
G1 X176.49 Y93.898 E17.13911
G1 X177.629 Y96.133 E17.22255
G1 X178.838 Y98.349 E17.30651
G1 X180.112 Y100.535 E17.39066
G1 X181.446 Y102.683 E17.47476
G1 X182.862 Y104.825 E17.56016
G1 X184.277 Y106.837 E17.64197
G1 X185.806 Y108.887 E17.72703
G1 X187.373 Y110.868 E17.81104
G1 X189.005 Y112.816 E17.89557
G1 X191.015 Y115.071 E17.99604
G1 X191.72 Y115.836 E18.03064
G1 X192.324 Y116.554 E18.06185
G1 X192.862 Y117.323 E18.09306
G1 X193.331 Y118.136 E18.12428
G1 X193.629 Y118.712 E18.14585
G1 X194.021 Y119.565 E18.17707
G1 X194.337 Y120.449 E18.2083
G1 X194.572 Y121.349 E18.23923
G1 X194.669 Y121.859 E18.2565
G1 X194.768 Y122.464 E18.27689
G1 X194.901 Y123.831 E18.32257
G1 X194.919 Y124.541 E18.34619
G1 X194.918 Y155.636 E19.38042
G1 X194.906 Y156.383 E19.40527
G1 X194.85 Y157.312 E19.43622
G1 X194.779 Y157.85 E19.45427
G1 X194.683 Y158.459 E19.47478
G1 X194.495 Y159.379 E19.50601
G1 X194.224 Y160.286 E19.53749
G1 X193.69 Y161.551 E19.58316
G1 X193.398 Y162.131 E19.60476
G1 X192.939 Y162.949 E19.63596
G1 X192.41 Y163.723 E19.66714
G1 X191.819 Y164.444 E19.69814
G1 X191.444 Y164.839 E19.71626
G1 X190.997 Y165.289 E19.73736
G1 X190.332 Y165.9 E19.76739
G1 X189.56 Y166.492 E19.79975
G1 X188.77 Y166.994 E19.83088
G1 X187.792 Y167.509 E19.86764
G1 X186.939 Y167.902 E19.89888
G1 X186.055 Y168.216 E19.93008
G1 X185.154 Y168.45 E19.96104
G1 X184.642 Y168.546 E19.97837
G1 X184.013 Y168.648 E19.99956
G1 X182.649 Y168.78 E20.04514
G1 X182.01 Y168.795 E20.0664
G1 X165.111 Y168.795 E20.62847
G1 X162.516 Y168.832 E20.71478
G1 X159.948 Y168.941 E20.80027
G1 X157.46 Y169.117 E20.88323
G1 X154.968 Y169.364 E20.96652
G1 X152.405 Y169.692 E21.05246
G1 X149.931 Y170.081 E21.13576
G1 X147.449 Y170.542 E21.21972
G1 X144.988 Y171.07 E21.30344
G1 X142.472 Y171.689 E21.38962
G1 X140.983 Y172.077 E21.44079
G1 X140.065 Y172.272 E21.47201
G1 X139.169 Y172.383 E21.50204
G1 X138.618 Y172.413 E21.52039
G1 X138.002 Y172.426 E21.54088
G1 X89.377 Y172.425 E23.15816
G1 X88.641 Y172.413 E23.18264
G1 X87.711 Y172.357 E23.21363
G1 X87.158 Y172.284 E23.23218
G1 X86.549 Y172.187 E23.25269
G1 X85.63 Y171.997 E23.2839
G1 X84.723 Y171.723 E23.31542
G1 X83.468 Y171.191 E23.36075
G1 X82.89 Y170.9 E23.38228
G1 X82.072 Y170.441 E23.41348
G1 X81.297 Y169.911 E23.4447
G1 X80.578 Y169.32 E23.47566
G1 X80.197 Y168.96 E23.49309
G1 X79.752 Y168.517 E23.51398
G1 X79.117 Y167.825 E23.54522
G1 X78.546 Y167.081 E23.57641
G1 X78.046 Y166.296 E23.60736
G1 X77.82 Y165.882 E23.62305
G1 X77.521 Y165.304 E23.6447
G1 X77.129 Y164.451 E23.67592
G1 X76.813 Y163.568 E23.70711
G1 X76.584 Y162.694 E23.73716
G1 X76.477 Y162.132 E23.75619
G1 X76.377 Y161.511 E23.77711
G1 X76.247 Y160.141 E23.82288
G1 X76.233 Y159.535 E23.84304
G1 X76.233 Y124.345 E25.01347
G1 X76.244 Y123.656 E25.03639
G1 X76.317 Y122.58 E25.07226
G1 X76.421 Y121.829 E25.09747
G1 X76.494 Y121.405 E25.11178
G1 X76.696 Y120.489 E25.14298
G1 X76.966 Y119.627 E25.17303
G1 X77.462 Y118.47 E25.21489
G1 X77.754 Y117.89 E25.23649
G1 X78.213 Y117.072 E25.26769
G1 X78.742 Y116.298 E25.29887
G1 X79.334 Y115.576 E25.32993
G1 X79.718 Y115.172 E25.34846
G1 X80.184 Y114.707 E25.37036
G1 X80.877 Y114.074 E25.40158
G1 X81.626 Y113.503 E25.4329
M204 S2000
G0 F7500 X81.837 Y113.843
M204 S500
G1 F1500 X82.736 Y113.284 E25.46811
G1 X84.663 Y112.22 E25.54133
G1 X86.828 Y110.951 E25.62479
G1 X88.995 Y109.598 E25.70976
G1 X91.114 Y108.189 E25.7944
G1 X93.167 Y106.739 E25.878
G1 X95.227 Y105.195 E25.96362
G1 X97.228 Y103.605 E26.04863
G1 X99.142 Y101.994 E26.13183
G1 X101.049 Y100.293 E26.21683
G1 X102.883 Y98.563 E26.30068
G1 X104.701 Y96.747 E26.38615
G1 X106.43 Y94.921 E26.46979
G1 X108.127 Y93.022 E26.55449
G1 X109.761 Y91.088 E26.6387
G1 X111.355 Y89.089 E26.72374
G1 X112.87 Y87.074 E26.80759
G1 X114.35 Y84.986 E26.89271
G1 X115.754 Y82.879 E26.97693
G1 X117.098 Y80.734 E27.06112
G1 X118.395 Y78.529 E27.1462
G1 X119.611 Y76.322 E27.23001
G1 X120.757 Y74.081 E27.31373
G1 X121.053 Y73.522 E27.33477
G1 X121.51 Y72.743 E27.3648
G1 X122.035 Y72.008 E27.39485
G1 X122.821 Y71.116 E27.43439
G1 X123.142 Y70.792 E27.44956
G1 X123.805 Y70.179 E27.47959
G1 X124.52 Y69.628 E27.50961
G1 X125.281 Y69.141 E27.53966
G1 X126.118 Y68.696 E27.57119
G1 X126.938 Y68.317 E27.60124
G1 X127.788 Y68.012 E27.63127
G1 X128.662 Y67.784 E27.66132
G1 X129.153 Y67.691 E27.67794
G1 X129.623 Y67.614 E27.69378
G1 X130.52 Y67.508 E27.72382
G1 X130.984 Y67.484 E27.73927
G1 X131.626 Y67.47 E27.76063
G1 X157.721 Y67.471 E28.62856
G1 X158.438 Y67.482 E28.65241
G1 X159.34 Y67.536 E28.68246
G1 X159.874 Y67.606 E28.70037
G1 X160.317 Y67.676 E28.71529
G1 X161.202 Y67.856 E28.74533
G1 X162.067 Y68.114 E28.77535
G1 X163.304 Y68.637 E28.82002
G1 X163.712 Y68.842 E28.83521
G1 X164.501 Y69.283 E28.86527
G1 X165.247 Y69.791 E28.89529
G1 X165.945 Y70.364 E28.92532
G1 X166.622 Y71.015 E28.95656
G1 X167.238 Y71.676 E28.98661
G1 X167.792 Y72.388 E29.01662
G1 X168.282 Y73.147 E29.04667
G1 X168.558 Y73.652 E29.06581
G1 X168.772 Y74.071 E29.08146
G1 X169.147 Y74.892 E29.11148
G1 X169.548 Y76.098 E29.15375
G1 X169.884 Y77.366 E29.19738
G1 X170.589 Y79.879 E29.28419
G1 X171.35 Y82.327 E29.36945
G1 X172.157 Y84.685 E29.45235
G1 X173.065 Y87.111 E29.5385
G1 X174.017 Y89.452 E29.62255
G1 X175.026 Y91.743 E29.70582
G1 X176.134 Y94.08 E29.79184
G1 X177.278 Y96.325 E29.87564
G1 X178.492 Y98.55 E29.95995
G1 X179.772 Y100.746 E30.04449
G1 X181.112 Y102.904 E30.12897
G1 X182.528 Y105.046 E30.21438
G1 X183.956 Y107.076 E30.29693
G1 X185.492 Y109.135 E30.38237
G1 X187.066 Y111.125 E30.46676
G1 X188.706 Y113.082 E30.55168
G1 X190.716 Y115.337 E30.65215
G1 X191.414 Y116.094 E30.6864
G1 X191.997 Y116.784 E30.71644
G1 X192.516 Y117.523 E30.74648
G1 X192.976 Y118.32 E30.77708
G1 X193.266 Y118.88 E30.79806
G1 X193.645 Y119.7 E30.82811
G1 X193.95 Y120.55 E30.85814
G1 X194.179 Y121.424 E30.88819
G1 X194.274 Y121.924 E30.90512
G1 X194.373 Y122.529 E30.92551
G1 X194.501 Y123.841 E30.96935
G1 X194.519 Y124.541 E30.99264
G1 X194.518 Y155.63 E32.02667
G1 X194.507 Y156.359 E32.05092
G1 X194.453 Y157.26 E32.08094
G1 X194.384 Y157.788 E32.09865
G1 X194.291 Y158.38 E32.11858
G1 X194.112 Y159.265 E32.14861
G1 X193.855 Y160.131 E32.17866
G1 X193.332 Y161.372 E32.22345
G1 X193.049 Y161.936 E32.24444
G1 X192.608 Y162.724 E32.27447
G1 X192.1 Y163.47 E32.30449
G1 X191.528 Y164.169 E32.33453
G1 X191.161 Y164.557 E32.35229
G1 X190.726 Y164.994 E32.3728
G1 X190.061 Y165.605 E32.40284
G1 X189.345 Y166.155 E32.43287
G1 X188.583 Y166.64 E32.46291
G1 X187.624 Y167.146 E32.49897
G1 X186.804 Y167.525 E32.52902
G1 X185.954 Y167.829 E32.55904
G1 X185.08 Y168.057 E32.58909
G1 X184.578 Y168.151 E32.60607
G1 X183.949 Y168.253 E32.62727
G1 X182.64 Y168.38 E32.67101
G1 X182.001 Y168.395 E32.69227
G1 X165.105 Y168.395 E33.25423
G1 X162.499 Y168.432 E33.34092
G1 X159.931 Y168.541 E33.4264
G1 X157.429 Y168.718 E33.50983
G1 X154.917 Y168.967 E33.59379
G1 X152.354 Y169.295 E33.67973
G1 X149.869 Y169.686 E33.7634
G1 X147.365 Y170.151 E33.8481
G1 X144.904 Y170.679 E33.93182
G1 X142.371 Y171.302 E34.01858
G1 X140.899 Y171.686 E34.06918
G1 X140.016 Y171.875 E34.09921
G1 X139.12 Y171.986 E34.12924
G1 X138.609 Y172.013 E34.14626
G1 X138.002 Y172.026 E34.16645
G1 X89.383 Y172.025 E35.78353
G1 X88.665 Y172.014 E35.80741
G1 X87.763 Y171.96 E35.83747
G1 X87.221 Y171.889 E35.85565
G1 X86.629 Y171.795 E35.87558
G1 X85.745 Y171.614 E35.90559
G1 X84.879 Y171.355 E35.93566
G1 X83.648 Y170.834 E35.98012
G1 X83.085 Y170.551 E36.00108
G1 X82.297 Y170.111 E36.03109
G1 X81.551 Y169.602 E36.06113
G1 X80.853 Y169.029 E36.09117
G1 X80.479 Y168.676 E36.10827
G1 X80.046 Y168.246 E36.12857
G1 X79.434 Y167.581 E36.15863
G1 X78.883 Y166.866 E36.18865
G1 X78.397 Y166.104 E36.21871
G1 X78.175 Y165.698 E36.2341
G1 X77.884 Y165.136 E36.25515
G1 X77.505 Y164.316 E36.2852
G1 X77.2 Y163.467 E36.3152
G1 X76.971 Y162.593 E36.34525
G1 X76.872 Y162.068 E36.36302
G1 X76.772 Y161.447 E36.38394
