;FLAVOR:Marlin
;TIME:7580
;Filament used: 5.39811m
;Layer height: 0.2
;MINX:51.7
;MINY:53.152
;MINZ:0.2
;MAXX:168.321
;MAXY:166.83
;MAXZ:5.8
;TARGET_MACHINE.NAME:Creality Ender-3 S1
;Generated with Cura_SteamEngine 5.6.0
M82 ;absolute extrusion mode
; Ender 3 S1 Start G-code
; M413 S0 ; Disable power loss recovery
G92 E0 ; Reset Extruder

; Prep surfaces before auto home for better accuracy
M140 S60
M104 S200

G28 ; Home all axes
G1 Z10.0 F3000 ; Move Z Axis up little to prevent scratching of Heat Bed
G1 X0 Y0

M190 S60
M109 S200

G1 X0.1 Y20 Z0.3 F5000.0 ; Move to start position
G1 X0.1 Y200.0 Z0.3 F1500.0 E15 ; Draw the first line
G1 X0.4 Y200.0 Z0.3 F5000.0 ; Move to side a little
G1 X0.4 Y20 Z0.3 F1500.0 E30 ; Draw the second line
G92 E0 ; Reset Extruder
G1 Z2.0 F3000 ; Move Z Axis up little to prevent scratching of Heat Bed
G1 X5 Y20 Z0.3 F5000.0 ; Move over to prevent blob squish

G92 E0
G92 E0
G1 F2400 E-0.8
;LAYER_COUNT:29
;LAYER:0
M107
M204 S2000
G0 F7500 X63.595 Y59.483 Z0.2
M204 S500
;TYPE:SKIRT
G1 F2400 E0
G1 F1500 X63.944 Y59.114 E0.01689
G1 X64.403 Y58.653 E0.03853
G1 X65.121 Y57.994 E0.07094
G1 X65.894 Y57.402 E0.10333
G1 X66.678 Y56.902 E0.13426
G1 X67.147 Y56.645 E0.15204
G1 X67.723 Y56.348 E0.1736
G1 X68.624 Y55.935 E0.20656
G1 X69.543 Y55.61 E0.23898
G1 X70.47 Y55.371 E0.27083
G1 X71.001 Y55.271 E0.2888
G1 X71.622 Y55.171 E0.30972
G1 X73.047 Y55.036 E0.35733
G1 X73.67 Y55.022 E0.37805
G1 X93.884 Y55.021 E1.05037
G1 X96.469 Y54.984 E1.13636
G1 X99.034 Y54.875 E1.22175
G1 X101.513 Y54.699 E1.30441
G1 X104.014 Y54.452 E1.388
G1 X106.522 Y54.131 E1.47209
G1 X109.011 Y53.74 E1.55589
G1 X111.174 Y53.363 E1.62892
G1 X111.806 Y53.267 E1.65018
G1 X112.947 Y53.169 E1.68827
G1 X113.621 Y53.153 E1.71069
G1 X147.125 Y53.152 E2.82504
G1 X148.035 Y53.166 E2.85531
G1 X148.966 Y53.222 E2.88633
G1 X149.566 Y53.301 E2.90646
G1 X150.202 Y53.403 E2.92788
G1 X151.157 Y53.602 E2.96033
G1 X152.088 Y53.886 E2.9927
G1 X152.973 Y54.241 E3.02442
G1 X153.402 Y54.445 E3.04022
G1 X153.971 Y54.734 E3.06144
G1 X154.832 Y55.223 E3.09438
G1 X155.634 Y55.777 E3.1268
G1 X156.37 Y56.386 E3.15857
G1 X156.728 Y56.725 E3.17497
G1 X157.189 Y57.184 E3.19661
G1 X157.848 Y57.902 E3.22902
G1 X158.44 Y58.675 E3.2614
G1 X158.954 Y59.482 E3.29323
G1 X159.202 Y59.935 E3.3104
G1 X159.499 Y60.512 E3.33199
G1 X159.91 Y61.412 E3.3649
G1 X160.214 Y62.264 E3.39498
G1 X161.018 Y64.851 E3.48509
G1 X161.827 Y67.212 E3.5681
G1 X162.708 Y69.571 E3.65185
G1 X163.668 Y71.936 E3.73674
G1 X164.678 Y74.232 E3.82017
G1 X165.753 Y76.497 E3.90356
G1 X167.128 Y79.199 E4.0044
G1 X167.528 Y80.087 E4.03679
G1 X167.85 Y81.007 E4.06921
G1 X168.087 Y81.952 E4.10161
G1 X168.24 Y82.913 E4.13398
G1 X168.306 Y83.825 E4.16439
G1 X168.321 Y84.482 E4.18625
G1 X168.32 Y113.568 E5.15365
G1 X168.308 Y114.333 E5.1791
G1 X168.25 Y115.305 E5.21149
G1 X168.108 Y116.255 E5.24343
G1 X167.987 Y116.796 E5.26187
G1 X167.638 Y118.205 E5.31015
G1 X167.055 Y120.738 E5.3966
G1 X166.549 Y123.258 E5.48209
G1 X166.131 Y125.695 E5.56433
G1 X165.777 Y128.181 E5.64785
G1 X165.497 Y130.647 E5.7304
G1 X165.277 Y133.2 E5.81562
G1 X165.138 Y135.66 E5.89757
G1 X165.064 Y138.25 E5.98375
G1 X165.055 Y139.568 E6.02759
G1 X165.054 Y151.534 E6.42558
G1 X165.042 Y152.297 E6.45096
G1 X164.984 Y153.273 E6.48348
G1 X164.909 Y153.834 E6.50231
G1 X164.808 Y154.471 E6.52376
G1 X164.61 Y155.423 E6.5561
G1 X164.33 Y156.356 E6.5885
G1 X163.996 Y157.195 E6.61853
G1 X163.77 Y157.671 E6.63606
G1 X163.472 Y158.26 E6.65801
G1 X162.993 Y159.108 E6.69041
G1 X162.441 Y159.909 E6.72276
G1 X161.831 Y160.648 E6.75463
G1 X161.482 Y161.017 E6.77152
G1 X161.023 Y161.478 E6.79316
G1 X160.305 Y162.137 E6.82558
G1 X159.532 Y162.729 E6.85796
G1 X158.748 Y163.229 E6.88889
G1 X158.279 Y163.486 E6.90668
G1 X157.703 Y163.783 E6.92823
G1 X156.802 Y164.196 E6.9612
G1 X155.883 Y164.521 E6.99362
G1 X154.956 Y164.76 E7.02546
G1 X154.432 Y164.859 E7.04319
G1 X153.814 Y164.959 E7.06402
G1 X152.38 Y165.095 E7.11192
G1 X151.757 Y165.109 E7.13265
G1 X132.793 Y165.11 E7.7634
G1 X132.158 Y165.102 E7.78452
G1 X129.581 Y165.102 E7.87023
G1 X127.047 Y165.173 E7.95454
G1 X124.563 Y165.313 E8.03729
G1 X122.01 Y165.528 E8.12251
G1 X119.554 Y165.808 E8.20472
G1 X116.987 Y166.172 E8.29096
G1 X114.328 Y166.623 E8.38066
G1 X113.724 Y166.715 E8.40098
G1 X112.575 Y166.814 E8.43934
G1 X111.92 Y166.83 E8.46113
G1 X76.74 Y166.83 E9.63122
G1 X75.971 Y166.817 E9.6568
G1 X74.669 Y166.715 E9.70024
G1 X73.797 Y166.587 E9.72955
G1 X73.067 Y166.461 E9.75419
G1 X72.117 Y166.25 E9.78656
G1 X71.255 Y165.979 E9.81661
G1 X70.133 Y165.504 E9.85714
G1 X69.483 Y165.185 E9.88122
G1 X68.694 Y164.773 E9.91082
G1 X67.854 Y164.277 E9.94327
G1 X67.058 Y163.706 E9.97585
G1 X66.191 Y162.949 E10.01413
G1 X65.476 Y162.248 E10.04744
G1 X65.088 Y161.849 E10.06595
G1 X64.194 Y160.803 E10.11171
G1 X62.266 Y158.224 E10.21881
G1 X60.695 Y156.247 E10.3028
G1 X59.068 Y154.315 E10.38681
G1 X57.423 Y152.473 E10.46895
G1 X55.599 Y150.541 E10.55732
G1 X54.805 Y149.724 E10.59521
G1 X54.182 Y149.023 E10.6264
G1 X53.581 Y148.213 E10.65995
G1 X53.108 Y147.444 E10.68998
G1 X52.644 Y146.507 E10.72475
G1 X52.29 Y145.6 E10.75714
G1 X52.036 Y144.734 E10.78715
G1 X51.832 Y143.695 E10.82237
G1 X51.715 Y142.408 E10.86535
G1 X51.7 Y141.751 E10.88721
G1 X51.701 Y112.58 E11.85744
G1 X51.714 Y111.865 E11.88123
G1 X51.776 Y110.893 E11.91362
G1 X51.923 Y109.931 E11.94599
G1 X52.136 Y109.054 E11.97601
G1 X52.627 Y107.682 E12.02447
G1 X52.958 Y106.922 E12.05204
G1 X53.961 Y104.525 E12.13847
G1 X54.874 Y102.154 E12.22297
G1 X55.704 Y99.804 E12.30586
G1 X56.47 Y97.42 E12.38915
G1 X57.175 Y94.994 E12.47318
G1 X57.814 Y92.54 E12.55752
G1 X58.368 Y90.131 E12.63973
G1 X58.879 Y87.586 E12.72607
G1 X59.293 Y85.171 E12.80757
G1 X59.652 Y82.646 E12.89239
G1 X59.93 Y80.197 E12.97437
G1 X60.147 Y77.673 E13.05863
G1 X60.288 Y75.157 E13.14244
G1 X60.362 Y72.591 E13.22782
G1 X60.371 Y68.686 E13.3577
G1 X60.387 Y67.781 E13.38781
G1 X60.444 Y66.851 E13.4188
G1 X60.52 Y66.277 E13.43806
G1 X60.62 Y65.651 E13.45914
G1 X60.819 Y64.696 E13.49159
G1 X61.093 Y63.79 E13.52307
G1 X61.656 Y62.46 E13.5711
G1 X61.954 Y61.871 E13.59306
G1 X62.433 Y61.023 E13.62545
G1 X62.985 Y60.222 E13.65781
G1 X63.595 Y59.483 E13.68968
M204 S2000
G0 F7500 X63.886 Y59.758
M204 S500
G1 F1500 X64.228 Y59.396 E13.70624
G1 X64.674 Y58.947 E13.72729
G1 X65.365 Y58.311 E13.75853
G1 X66.109 Y57.739 E13.78974
G1 X66.893 Y57.239 E13.82067
G1 X67.33 Y57.001 E13.83722
G1 X67.906 Y56.704 E13.85877
G1 X68.758 Y56.312 E13.88997
G1 X69.643 Y55.997 E13.92121
G1 X70.544 Y55.764 E13.95216
G1 X71.065 Y55.666 E13.9698
G1 X71.686 Y55.566 E13.99072
G1 X73.056 Y55.436 E14.03649
G1 X73.67 Y55.422 E14.05691
G1 X93.89 Y55.421 E14.72943
G1 X96.486 Y55.384 E14.81579
G1 X99.051 Y55.275 E14.90118
G1 X101.544 Y55.098 E14.9843
G1 X104.065 Y54.849 E15.06856
G1 X106.573 Y54.528 E15.15266
G1 X109.08 Y54.134 E15.23706
G1 X111.234 Y53.758 E15.30979
G1 X111.84 Y53.666 E15.33017
G1 X112.981 Y53.568 E15.36826
G1 X113.621 Y53.553 E15.38956
G1 X147.119 Y53.552 E16.5037
G1 X148.011 Y53.565 E16.53338
G1 X148.942 Y53.621 E16.5644
G1 X149.503 Y53.696 E16.58322
G1 X150.121 Y53.795 E16.60404
G1 X151.041 Y53.985 E16.63528
G1 X151.939 Y54.257 E16.66649
G1 X152.801 Y54.602 E16.69737
G1 X153.221 Y54.802 E16.71284
G1 X153.774 Y55.082 E16.73346
G1 X154.605 Y55.552 E16.76521
G1 X155.379 Y56.085 E16.79647
G1 X156.095 Y56.677 E16.82737
G1 X156.446 Y57.009 E16.84344
G1 X156.895 Y57.455 E16.86449
G1 X157.531 Y58.146 E16.89573
G1 X158.103 Y58.89 E16.92694
G1 X158.603 Y59.674 E16.95787
G1 X158.846 Y60.118 E16.9747
G1 X159.135 Y60.679 E16.99569
G1 X159.533 Y61.547 E17.02745
G1 X159.832 Y62.383 E17.05698
G1 X160.636 Y64.97 E17.14708
G1 X161.452 Y67.352 E17.23083
G1 X162.337 Y69.721 E17.31494
G1 X163.297 Y72.086 E17.39984
G1 X164.317 Y74.404 E17.48407
G1 X165.392 Y76.669 E17.56746
G1 X166.764 Y79.364 E17.66804
G1 X167.151 Y80.219 E17.69925
G1 X167.462 Y81.105 E17.73048
G1 X167.692 Y82.015 E17.7617
G1 X167.841 Y82.942 E17.79293
G1 X167.906 Y83.834 E17.82268
G1 X167.921 Y84.482 E17.84424
G1 X167.92 Y113.562 E18.81144
G1 X167.909 Y114.31 E18.83632
G1 X167.854 Y115.246 E18.86751
G1 X167.717 Y116.168 E18.89851
G1 X167.599 Y116.7 E18.91663
G1 X167.248 Y118.115 E18.96512
G1 X166.665 Y120.648 E19.05157
G1 X166.157 Y123.179 E19.13743
G1 X165.737 Y125.627 E19.22004
G1 X165.381 Y128.125 E19.30397
G1 X165.098 Y130.613 E19.38725
G1 X164.879 Y133.166 E19.47248
G1 X164.738 Y135.649 E19.5552
G1 X164.664 Y138.239 E19.64137
G1 X164.655 Y139.565 E19.68548
G1 X164.654 Y151.528 E20.08337
G1 X164.643 Y152.273 E20.10815
G1 X164.587 Y153.22 E20.1397
G1 X164.514 Y153.771 E20.15819
G1 X164.416 Y154.39 E20.17903
G1 X164.227 Y155.308 E20.21021
G1 X163.958 Y156.208 E20.24145
G1 X163.624 Y157.047 E20.27149
G1 X163.413 Y157.491 E20.28784
G1 X163.124 Y158.064 E20.30918
G1 X162.663 Y158.882 E20.34041
G1 X162.132 Y159.655 E20.3716
G1 X161.54 Y160.373 E20.40255
G1 X161.198 Y160.735 E20.41912
G1 X160.752 Y161.184 E20.44017
G1 X160.061 Y161.82 E20.4714
G1 X159.317 Y162.392 E20.50262
G1 X158.533 Y162.892 E20.53354
G1 X158.096 Y163.13 E20.55009
G1 X157.52 Y163.427 E20.57165
G1 X156.668 Y163.819 E20.60284
G1 X155.783 Y164.134 E20.63409
G1 X154.882 Y164.367 E20.66504
G1 X154.368 Y164.464 E20.68244
G1 X153.75 Y164.564 E20.70326
G1 X152.371 Y164.695 E20.74933
G1 X151.757 Y164.709 E20.76976
G1 X132.798 Y164.71 E21.40034
G1 X132.163 Y164.702 E21.42146
G1 X129.57 Y164.702 E21.5077
G1 X127.036 Y164.773 E21.59202
G1 X124.529 Y164.914 E21.67553
G1 X121.976 Y165.13 E21.76075
G1 X119.498 Y165.412 E21.8437
G1 X116.931 Y165.776 E21.92993
G1 X114.268 Y166.228 E22.01977
G1 X113.69 Y166.316 E22.03922
G1 X112.541 Y166.415 E22.07757
G1 X111.91 Y166.43 E22.09857
G1 X76.746 Y166.43 E23.26813
G1 X76.002 Y166.418 E23.29287
G1 X74.727 Y166.319 E23.33541
G1 X73.865 Y166.193 E23.36438
G1 X73.153 Y166.07 E23.38842
G1 X72.237 Y165.868 E23.41961
G1 X71.375 Y165.597 E23.44967
G1 X70.309 Y165.145 E23.48818
G1 X69.668 Y164.831 E23.51192
G1 X68.897 Y164.428 E23.54085
G1 X68.087 Y163.952 E23.5721
G1 X67.321 Y163.404 E23.60343
G1 X66.471 Y162.663 E23.64093
G1 X65.763 Y161.969 E23.67391
G1 X65.375 Y161.57 E23.69242
G1 X64.498 Y160.543 E23.73734
G1 X62.579 Y157.975 E23.84396
G1 X61.001 Y155.989 E23.92833
G1 X59.374 Y154.057 E24.01234
G1 X57.714 Y152.198 E24.09523
G1 X55.89 Y150.266 E24.1836
G1 X55.104 Y149.458 E24.2211
G1 X54.481 Y148.757 E24.25229
G1 X53.922 Y148.003 E24.28351
G1 X53.449 Y147.234 E24.31354
G1 X53.016 Y146.361 E24.34595
G1 X52.674 Y145.487 E24.37716
G1 X52.42 Y144.621 E24.40718
G1 X52.23 Y143.659 E24.43979
G1 X52.115 Y142.399 E24.48188
G1 X52.1 Y141.751 E24.50343
G1 X52.101 Y112.587 E25.47343
G1 X52.113 Y111.89 E25.49662
G1 X52.171 Y110.953 E25.52784
G1 X52.312 Y110.025 E25.55906
G1 X52.525 Y109.148 E25.58908
G1 X52.994 Y107.842 E25.63523
G1 X53.325 Y107.082 E25.6628
G1 X54.33 Y104.679 E25.74944
G1 X55.247 Y102.298 E25.8343
G1 X56.081 Y99.937 E25.91758
G1 X56.851 Y97.542 E26.00125
G1 X57.559 Y95.106 E26.08563
G1 X58.201 Y92.641 E26.17035
G1 X58.758 Y90.221 E26.25294
G1 X59.271 Y87.665 E26.33965
G1 X59.687 Y85.239 E26.42152
G1 X60.048 Y82.702 E26.50675
G1 X60.329 Y80.231 E26.58947
G1 X60.545 Y77.707 E26.67372
G1 X60.688 Y75.169 E26.75827
G1 X60.762 Y72.603 E26.84365
G1 X60.771 Y68.693 E26.9737
G1 X60.786 Y67.805 E27.00324
G1 X60.841 Y66.903 E27.03329
G1 X60.915 Y66.34 E27.05218
G1 X61.012 Y65.732 E27.07266
G1 X61.202 Y64.812 E27.1039
G1 X61.476 Y63.906 E27.13538
G1 X62.013 Y62.64 E27.18112
G1 X62.302 Y62.067 E27.20247
G1 X62.763 Y61.249 E27.2337
G1 X63.294 Y60.476 E27.26489
G1 X63.886 Y59.758 E27.29584
M204 S2000
G0 F7500 X64.177 Y60.033
M204 S500
G1 F1500 X64.512 Y59.678 E27.31208
G1 X64.945 Y59.241 E27.33254
G1 X65.609 Y58.628 E27.36259
G1 X66.324 Y58.076 E27.39264
G1 X67.085 Y57.59 E27.42267
G1 X67.513 Y57.356 E27.43889
G1 X68.073 Y57.067 E27.45985
G1 X68.893 Y56.689 E27.48989
G1 X69.744 Y56.384 E27.51995
G1 X70.618 Y56.157 E27.54999
G1 X71.129 Y56.061 E27.56728
G1 X71.75 Y55.961 E27.5882
G1 X73.065 Y55.836 E27.63213
G1 X73.67 Y55.822 E27.65226
G1 X93.896 Y55.821 E28.32498
G1 X96.503 Y55.784 E28.4117
G1 X99.068 Y55.675 E28.49709
G1 X101.575 Y55.497 E28.58068
G1 X104.116 Y55.246 E28.66561
G1 X106.624 Y54.925 E28.7497
G1 X109.149 Y54.528 E28.83472
G1 X111.294 Y54.153 E28.90714
G1 X111.874 Y54.065 E28.92665
G1 X113.015 Y53.967 E28.96474
G1 X113.621 Y53.953 E28.9849
G1 X147.114 Y53.952 E30.09889
G1 X147.987 Y53.964 E30.12793
G1 X148.889 Y54.018 E30.15798
G1 X149.44 Y54.091 E30.17647
G1 X150.041 Y54.187 E30.19671
G1 X150.926 Y54.368 E30.22675
G1 X151.791 Y54.628 E30.2568
G1 X152.629 Y54.963 E30.28681
G1 X153.04 Y55.159 E30.30196
G1 X153.593 Y55.439 E30.32257
G1 X154.379 Y55.882 E30.35258
G1 X155.124 Y56.393 E30.38263
G1 X155.82 Y56.968 E30.41266
G1 X156.164 Y57.293 E30.4284
G1 X156.601 Y57.726 E30.44886
G1 X157.214 Y58.39 E30.47891
G1 X157.766 Y59.105 E30.50896
G1 X158.252 Y59.866 E30.53899
G1 X158.49 Y60.301 E30.55548
G1 X158.779 Y60.862 E30.57647
G1 X159.156 Y61.682 E30.60649
G1 X159.45 Y62.502 E30.63546
G1 X160.255 Y65.089 E30.72558
G1 X161.077 Y67.492 E30.81005
G1 X161.966 Y69.872 E30.89455
G1 X162.927 Y72.237 E30.97945
G1 X163.956 Y74.576 E31.06445
G1 X165.031 Y76.841 E31.14783
G1 X166.4 Y79.53 E31.24819
G1 X166.774 Y80.352 E31.27823
G1 X167.074 Y81.204 E31.30827
G1 X167.297 Y82.079 E31.33831
G1 X167.442 Y82.971 E31.36836
G1 X167.506 Y83.843 E31.39744
G1 X167.521 Y84.482 E31.4187
G1 X167.52 Y113.557 E32.38574
G1 X167.51 Y114.287 E32.41002
G1 X167.458 Y115.188 E32.44004
G1 X167.326 Y116.082 E32.4701
G1 X167.211 Y116.604 E32.48788
G1 X166.858 Y118.025 E32.53658
G1 X166.275 Y120.558 E32.62303
G1 X165.765 Y123.1 E32.70926
G1 X165.343 Y125.559 E32.79224
G1 X164.985 Y128.068 E32.87654
G1 X164.699 Y130.579 E32.96059
G1 X164.481 Y133.132 E33.04581
G1 X164.338 Y135.638 E33.1293
G1 X164.264 Y138.228 E33.21548
G1 X164.255 Y139.562 E33.25985
G1 X164.254 Y151.522 E33.65764
G1 X164.243 Y152.267 E33.68242
G1 X164.19 Y153.168 E33.71244
G1 X164.119 Y153.709 E33.73059
G1 X164.024 Y154.31 E33.75083
G1 X163.844 Y155.194 E33.78083
G1 X163.586 Y156.06 E33.81089
G1 X163.252 Y156.899 E33.84092
G1 X163.056 Y157.311 E33.8561
G1 X162.775 Y157.868 E33.87685
G1 X162.333 Y158.656 E33.9069
G1 X161.823 Y159.401 E33.93692
G1 X161.249 Y160.098 E33.96696
G1 X160.914 Y160.453 E33.98319
G1 X160.481 Y160.89 E34.00365
G1 X159.817 Y161.503 E34.03371
G1 X159.102 Y162.055 E34.06375
G1 X158.341 Y162.541 E34.09378
G1 X157.913 Y162.775 E34.11001
G1 X157.353 Y163.064 E34.13097
G1 X156.533 Y163.442 E34.161
G1 X155.682 Y163.747 E34.19107
G1 X154.808 Y163.974 E34.2211
G1 X154.304 Y164.069 E34.23816
G1 X153.686 Y164.169 E34.25898
G1 X152.362 Y164.295 E34.30322
G1 X151.757 Y164.309 E34.32334
G1 X132.803 Y164.31 E34.95376
G1 X132.168 Y164.302 E34.97488
G1 X129.559 Y164.302 E35.06165
G1 X127.025 Y164.373 E35.14597
G1 X124.495 Y164.515 E35.23025
G1 X121.942 Y164.732 E35.31547
G1 X119.442 Y165.016 E35.39915
G1 X116.875 Y165.38 E35.48539
G1 X114.208 Y165.833 E35.57536
G1 X113.656 Y165.917 E35.59393
G1 X112.507 Y166.016 E35.63229
G1 X111.901 Y166.03 E35.65245
G1 X76.752 Y166.03 E36.82151
G1 X76.033 Y166.019 E36.84543
G1 X74.785 Y165.923 E36.88706
G1 X73.933 Y165.799 E36.9157
G1 X73.239 Y165.679 E36.93912
G1 X72.357 Y165.486 E36.96915
G1 X71.495 Y165.215 E36.9992
G1 X70.485 Y164.786 E37.0357
G1 X69.853 Y164.476 E37.05912
G1 X69.099 Y164.083 E37.0874
G1 X68.319 Y163.626 E37.11746
G1 X67.584 Y163.102 E37.14749
G1 X66.751 Y162.377 E37.18422
G1 X66.05 Y161.69 E37.21686
G1 X65.662 Y161.291 E37.23537
G1 X64.802 Y160.283 E37.27944
G1 X62.892 Y157.726 E37.3856
G1 X61.307 Y155.731 E37.47034
G1 X59.68 Y153.799 E37.55435
G1 X58.005 Y151.923 E37.638
G1 X56.181 Y149.991 E37.72637
G1 X55.403 Y149.192 E37.76346
G1 X54.802 Y148.518 E37.7935
G1 X54.263 Y147.793 E37.82354
G1 X53.79 Y147.024 E37.85357
G1 X53.388 Y146.215 E37.88362
G1 X53.058 Y145.374 E37.91367
G1 X52.804 Y144.508 E37.94368
G1 X52.628 Y143.622 E37.97373
G1 X52.515 Y142.39 E38.01488
G1 X52.5 Y141.751 E38.03614
G1 X52.501 Y112.593 E39.00593
G1 X52.512 Y111.914 E39.02852
