;FLAVOR:Marlin
;TIME:3458
;Filament used: 2.07986m
;Layer height: 0.2
;MINX:33.644
;MINY:68.517
;MINZ:0.2
;MAXX:173.203
;MAXY:130.517
;MAXZ:4
;TARGET_MACHINE.NAME:Creality Ender-3 S1
;Generated with Cura_SteamEngine 5.6.0
M82 ;absolute extrusion mode
; Ender 3 S1 Start G-code
; M413 S0 ; Disable power loss recovery
G92 E0 ; Reset Extruder

; Prep surfaces before auto home for better accuracy
M140 S60
M104 S200

G28 ; Home all axes
G1 Z10.0 F3000 ; Move Z Axis up little to prevent scratching of Heat Bed
G1 X0 Y0

M190 S60
M109 S200

G1 X0.1 Y20 Z0.3 F5000.0 ; Move to start position
G1 X0.1 Y200.0 Z0.3 F1500.0 E15 ; Draw the first line
G1 X0.4 Y200.0 Z0.3 F5000.0 ; Move to side a little
G1 X0.4 Y20 Z0.3 F1500.0 E30 ; Draw the second line
G92 E0 ; Reset Extruder
G1 Z2.0 F3000 ; Move Z Axis up little to prevent scratching of Heat Bed
G1 X5 Y20 Z0.3 F5000.0 ; Move over to prevent blob squish

G92 E0
G92 E0
G1 F2400 E-0.8
;LAYER_COUNT:20
;LAYER:0
M107
M204 S2000
G0 F7500 X40.414 Y72.793 Z0.2
M204 S500
;TYPE:SKIRT
G1 F2400 E0
G1 F1500 X41.22 Y72.384 E0.03006
G1 X42.133 Y72.011 E0.06286
G1 X43.055 Y71.702 E0.09521
G1 X43.95 Y71.483 E0.12585
G1 X44.967 Y71.305 E0.16019
G1 X46.133 Y71.216 E0.19909
G1 X47.452 Y71.188 E0.24297
G1 X82.103 Y71.187 E1.39546
G1 X83.145 Y71.206 E1.43013
G1 X85.57 Y71.316 E1.51087
G1 X88.116 Y71.371 E1.59557
G1 X90.609 Y71.354 E1.67848
G1 X93.14 Y71.265 E1.76272
G1 X95.673 Y71.105 E1.84713
G1 X98.135 Y70.879 E1.92936
G1 X100.643 Y70.576 E2.01339
G1 X103.159 Y70.2 E2.098
G1 X105.595 Y69.767 E2.18029
G1 X108.965 Y69.051 E2.29488
G1 X110.007 Y68.815 E2.33041
G1 X110.972 Y68.645 E2.363
G1 X112.127 Y68.554 E2.40154
G1 X113.729 Y68.517 E2.45484
G1 X161.507 Y68.517 E4.04394
G1 X162.387 Y68.53 E4.07321
G1 X163.359 Y68.589 E4.1056
G1 X164.322 Y68.735 E4.138
G1 X165.269 Y68.966 E4.17042
G1 X166.157 Y69.266 E4.20159
G1 X167.049 Y69.656 E4.23397
G1 X167.932 Y70.143 E4.26751
G1 X168.683 Y70.645 E4.29755
G1 X169.498 Y71.303 E4.33239
G1 X170.196 Y71.981 E4.36476
G1 X170.832 Y72.718 E4.39714
G1 X171.402 Y73.508 E4.42954
G1 X171.864 Y74.284 E4.45958
G1 X172.318 Y75.226 E4.49436
G1 X172.647 Y76.104 E4.52554
G1 X172.916 Y77.076 E4.55908
G1 X173.093 Y78.042 E4.59175
G1 X173.188 Y79.172 E4.62947
G1 X173.203 Y79.847 E4.65192
G1 X173.202 Y118.915 E5.95133
G1 X173.191 Y119.68 E5.97678
G1 X173.134 Y120.653 E6.00919
G1 X172.989 Y121.615 E6.04155
G1 X172.76 Y122.562 E6.07396
G1 X172.45 Y123.484 E6.10631
G1 X172.089 Y124.312 E6.13635
G1 X171.588 Y125.23 E6.17114
G1 X171.046 Y126.037 E6.20347
G1 X170.457 Y126.769 E6.23472
G1 X169.757 Y127.496 E6.26828
G1 X169.048 Y128.111 E6.2995
G1 X168.261 Y128.683 E6.33186
G1 X167.393 Y129.201 E6.36548
G1 X166.515 Y129.623 E6.39788
G1 X165.605 Y129.965 E6.43021
G1 X164.666 Y130.226 E6.46263
G1 X163.699 Y130.404 E6.49533
G1 X162.548 Y130.502 E6.53375
G1 X161.873 Y130.517 E6.55621
G1 X113.217 Y130.516 E8.17451
G1 X112.408 Y130.501 E8.20143
G1 X111.477 Y130.449 E8.23244
G1 X110.441 Y130.308 E8.26722
G1 X108.566 Y129.967 E8.3306
G1 X106.049 Y129.564 E8.41538
G1 X103.516 Y129.232 E8.50035
G1 X101.031 Y128.978 E8.58343
G1 X98.555 Y128.794 E8.66601
G1 X95.964 Y128.677 E8.75228
G1 X93.491 Y128.634 E8.83454
G1 X90.994 Y128.662 E8.9176
G1 X88.437 Y128.763 E9.00271
G1 X85.915 Y128.934 E9.08679
G1 X83.791 Y129.119 E9.1577
G1 X83.084 Y129.158 E9.18125
G1 X81.811 Y129.184 E9.2236
G1 X47.187 Y129.185 E10.3752
G1 X46.46 Y129.175 E10.39938
G1 X45.813 Y129.148 E10.42092
G1 X44.871 Y129.055 E10.4524
G1 X44.189 Y128.939 E10.47541
G1 X43.838 Y128.866 E10.48733
G1 X42.929 Y128.636 E10.51852
G1 X41.951 Y128.298 E10.55294
G1 X40.787 Y127.771 E10.59543
G1 X40.455 Y127.597 E10.6079
G1 X39.617 Y127.108 E10.64017
G1 X38.841 Y126.566 E10.67165
G1 X38.135 Y126.002 E10.70171
G1 X37.398 Y125.305 E10.73545
G1 X36.785 Y124.642 E10.76548
G1 X36.239 Y123.955 E10.79467
G1 X35.721 Y123.216 E10.82468
G1 X35.356 Y122.602 E10.84844
G1 X35.195 Y122.309 E10.85956
G1 X34.767 Y121.444 E10.89166
G1 X34.511 Y120.811 E10.91437
G1 X34.402 Y120.514 E10.92489
G1 X34.123 Y119.637 E10.9555
G1 X33.917 Y118.76 E10.98546
G1 X33.754 Y117.794 E11.01805
G1 X33.673 Y116.683 E11.0551
G1 X33.646 Y115.372 E11.09871
G1 X33.644 Y84.859 E12.11358
G1 X33.664 Y83.75 E12.15047
G1 X33.728 Y82.779 E12.18283
G1 X33.873 Y81.834 E12.21463
G1 X33.943 Y81.489 E12.22634
G1 X34.174 Y80.555 E12.25834
G1 X34.37 Y79.956 E12.2793
G1 X34.498 Y79.599 E12.29192
G1 X34.867 Y78.706 E12.32406
G1 X35.315 Y77.836 E12.3566
G1 X35.781 Y77.063 E12.38662
G1 X36.264 Y76.384 E12.41434
G1 X36.903 Y75.595 E12.44811
G1 X37.506 Y74.958 E12.47728
G1 X38.167 Y74.342 E12.50733
G1 X38.916 Y73.749 E12.53911
G1 X39.659 Y73.235 E12.56916
G1 X40.414 Y72.793 E12.59825
M204 S2000
G0 F7500 X40.595 Y73.15
M204 S500
G1 F1500 X41.401 Y72.741 E12.62832
G1 X42.261 Y72.39 E12.65921
G1 X43.15 Y72.091 E12.69041
G1 X44.045 Y71.872 E12.72105
G1 X44.998 Y71.704 E12.75324
G1 X46.142 Y71.616 E12.7914
G1 X47.452 Y71.588 E12.83498
G1 X82.096 Y71.587 E13.98724
G1 X83.127 Y71.606 E14.02154
G1 X85.552 Y71.716 E14.10228
G1 X88.11 Y71.771 E14.18738
G1 X90.623 Y71.754 E14.27096
G1 X93.154 Y71.665 E14.3552
G1 X95.702 Y71.504 E14.44011
G1 X98.183 Y71.276 E14.52298
G1 X100.702 Y70.972 E14.60737
G1 X103.218 Y70.596 E14.69198
G1 X105.665 Y70.161 E14.77465
G1 X109.053 Y69.441 E14.88985
G1 X110.077 Y69.209 E14.92477
G1 X111.004 Y69.044 E14.95609
G1 X112.136 Y68.954 E14.99385
G1 X113.738 Y68.917 E15.04715
G1 X161.501 Y68.917 E16.63576
G1 X162.363 Y68.929 E16.66443
G1 X163.3 Y68.985 E16.69565
G1 X164.228 Y69.124 E16.72686
G1 X165.141 Y69.345 E16.7581
G1 X165.997 Y69.633 E16.78814
G1 X166.889 Y70.023 E16.82052
G1 X167.71 Y70.476 E16.85171
G1 X168.461 Y70.978 E16.88175
G1 X169.22 Y71.59 E16.91418
G1 X169.894 Y72.243 E16.94539
G1 X170.508 Y72.952 E16.97659
G1 X171.058 Y73.713 E17.00782
G1 X171.52 Y74.489 E17.03786
G1 X171.943 Y75.366 E17.07024
G1 X172.272 Y76.244 E17.10143
G1 X172.523 Y77.149 E17.13266
G1 X172.694 Y78.076 E17.16402
G1 X172.789 Y79.206 E17.20173
G1 X172.803 Y79.847 E17.22306
G1 X172.802 Y118.91 E18.5223
G1 X172.792 Y119.657 E18.54715
G1 X172.738 Y120.594 E18.57836
G1 X172.6 Y121.522 E18.60957
G1 X172.381 Y122.435 E18.64079
G1 X172.083 Y123.324 E18.67198
G1 X171.722 Y124.152 E18.70202
G1 X171.256 Y125.007 E18.73441
G1 X170.734 Y125.786 E18.7656
G1 X170.145 Y126.518 E18.79685
G1 X169.494 Y127.194 E18.82806
G1 X168.813 Y127.787 E18.8581
G1 X168.026 Y128.359 E18.89046
G1 X167.219 Y128.841 E18.92172
G1 X166.374 Y129.249 E18.95293
G1 X165.497 Y129.58 E18.98411
G1 X164.593 Y129.833 E19.01533
G1 X163.665 Y130.005 E19.04672
G1 X162.514 Y130.103 E19.08514
G1 X161.873 Y130.117 E19.10647
G1 X113.224 Y130.116 E20.72454
G1 X112.43 Y130.102 E20.75095
G1 X111.531 Y130.053 E20.7809
G1 X110.513 Y129.914 E20.81507
G1 X108.638 Y129.573 E20.87846
G1 X106.101 Y129.167 E20.96391
G1 X103.568 Y128.835 E21.04888
G1 X101.065 Y128.579 E21.13256
G1 X98.573 Y128.394 E21.21567
G1 X95.982 Y128.277 E21.30194
G1 X93.494 Y128.234 E21.3847
G1 X90.978 Y128.262 E21.46839
G1 X88.421 Y128.363 E21.5535
G1 X85.888 Y128.535 E21.63795
G1 X83.769 Y128.72 E21.70869
G1 X83.076 Y128.758 E21.73178
G1 X81.811 Y128.784 E21.77386
G1 X47.193 Y128.785 E22.92526
G1 X46.477 Y128.775 E22.94907
G1 X45.83 Y128.748 E22.97061
G1 X44.91 Y128.657 E23.00136
G1 X44.27 Y128.547 E23.02296
G1 X43.936 Y128.478 E23.0343
G1 X43.027 Y128.248 E23.06549
G1 X42.116 Y127.934 E23.09754
G1 X40.973 Y127.417 E23.13926
G1 X40.656 Y127.251 E23.15116
G1 X39.846 Y126.78 E23.18233
G1 X39.091 Y126.253 E23.21295
G1 X38.385 Y125.689 E23.24301
G1 X37.692 Y125.033 E23.27475
G1 X37.079 Y124.37 E23.30478
G1 X36.567 Y123.725 E23.33217
G1 X36.049 Y122.986 E23.36218
G1 X35.706 Y122.409 E23.38451
G1 X35.553 Y122.131 E23.39506
G1 X35.138 Y121.294 E23.42614
G1 X34.887 Y120.673 E23.44842
G1 X34.778 Y120.376 E23.45894
G1 X34.504 Y119.516 E23.48896
G1 X34.311 Y118.693 E23.51707
G1 X34.153 Y117.765 E23.54838
G1 X34.073 Y116.675 E23.58473
G1 X34.046 Y115.372 E23.62808
G1 X34.044 Y84.866 E24.64272
G1 X34.063 Y83.776 E24.67897
G1 X34.123 Y82.84 E24.71017
G1 X34.265 Y81.913 E24.74136
G1 X34.331 Y81.585 E24.75249
G1 X34.554 Y80.679 E24.78352
G1 X34.746 Y80.091 E24.8041
G1 X34.868 Y79.751 E24.81611
G1 X35.223 Y78.889 E24.84712
G1 X35.658 Y78.043 E24.87876
G1 X36.124 Y77.27 E24.90878
G1 X36.59 Y76.616 E24.93549
G1 X37.193 Y75.87 E24.96739
G1 X37.779 Y75.251 E24.99574
G1 X38.44 Y74.635 E25.02579
G1 X39.144 Y74.078 E25.05565
G1 X39.887 Y73.564 E25.0857
G1 X40.595 Y73.15 E25.11298
M204 S2000
G0 F7500 X40.776 Y73.507
M204 S500
G1 F1500 X41.582 Y73.098 E25.14304
G1 X42.389 Y72.769 E25.17203
G1 X43.245 Y72.48 E25.20208
G1 X44.14 Y72.261 E25.23272
G1 X45.029 Y72.103 E25.26275
G1 X46.151 Y72.016 E25.30018
G1 X47.452 Y71.988 E25.34346
G1 X82.089 Y71.987 E26.4955
G1 X83.109 Y72.006 E26.52943
G1 X85.534 Y72.116 E26.61017
G1 X88.104 Y72.171 E26.69566
G1 X90.637 Y72.154 E26.77991
G1 X93.168 Y72.065 E26.86415
G1 X95.731 Y71.903 E26.94956
G1 X98.231 Y71.673 E27.03306
G1 X100.761 Y71.368 E27.11782
G1 X103.277 Y70.992 E27.20243
G1 X105.735 Y70.555 E27.28547
G1 X109.141 Y69.831 E27.40128
G1 X110.148 Y69.603 E27.43562
G1 X111.036 Y69.443 E27.46564
G1 X112.145 Y69.354 E27.50264
G1 X113.747 Y69.317 E27.55594
G1 X161.496 Y69.317 E29.14407
G1 X162.34 Y69.328 E29.17215
G1 X163.242 Y69.381 E29.2022
G1 X164.135 Y69.513 E29.23222
G1 X165.013 Y69.724 E29.26226
G1 X165.869 Y70.012 E29.2923
G1 X166.696 Y70.374 E29.32232
G1 X167.488 Y70.809 E29.35238
G1 X168.239 Y71.311 E29.38242
G1 X168.942 Y71.878 E29.41246
G1 X169.592 Y72.505 E29.4425
G1 X170.184 Y73.187 E29.47254
G1 X170.714 Y73.918 E29.50257
G1 X171.176 Y74.694 E29.53261
G1 X171.569 Y75.507 E29.56264
G1 X171.887 Y76.352 E29.59267
G1 X172.13 Y77.222 E29.62271
G1 X172.295 Y78.11 E29.65275
G1 X172.39 Y79.24 E29.69047
G1 X172.403 Y79.847 E29.71066
G1 X172.402 Y118.905 E31.00974
G1 X172.393 Y119.634 E31.03399
G1 X172.342 Y120.536 E31.06403
G1 X172.211 Y121.429 E31.09405
G1 X172.002 Y122.308 E31.1241
G1 X171.716 Y123.164 E31.15412
G1 X171.355 Y123.992 E31.18416
G1 X170.923 Y124.785 E31.2142
G1 X170.422 Y125.536 E31.24423
G1 X169.856 Y126.241 E31.2743
G1 X169.231 Y126.892 E31.30431
G1 X168.55 Y127.485 E31.33435
G1 X167.82 Y128.016 E31.36437
G1 X167.045 Y128.481 E31.39443
G1 X166.232 Y128.875 E31.42448
G1 X165.388 Y129.195 E31.4545
G1 X164.519 Y129.44 E31.48453
G1 X163.631 Y129.606 E31.51458
G1 X162.48 Y129.704 E31.553
G1 X161.873 Y129.717 E31.57319
G1 X113.231 Y129.716 E33.19103
G1 X112.451 Y129.703 E33.21698
G1 X111.585 Y129.657 E33.24582
G1 X110.585 Y129.52 E33.27939
G1 X108.71 Y129.179 E33.34278
G1 X106.153 Y128.77 E33.42891
G1 X103.62 Y128.438 E33.51387
G1 X101.099 Y128.18 E33.59816
G1 X98.591 Y127.994 E33.68181
G1 X96 Y127.877 E33.76807
G1 X93.497 Y127.834 E33.85133
G1 X90.962 Y127.862 E33.93565
G1 X88.405 Y127.963 E34.02077
G1 X85.861 Y128.136 E34.10557
G1 X83.747 Y128.321 E34.17616
G1 X83.068 Y128.358 E34.19877
G1 X81.811 Y128.384 E34.24059
G1 X47.199 Y128.385 E35.39179
G1 X46.494 Y128.375 E35.41524
G1 X45.847 Y128.348 E35.43678
G1 X44.949 Y128.259 E35.46679
G1 X44.35 Y128.155 E35.48701
G1 X44.033 Y128.09 E35.49778
G1 X43.157 Y127.87 E35.52782
G1 X42.281 Y127.569 E35.55862
G1 X41.158 Y127.062 E35.59961
G1 X40.857 Y126.905 E35.6109
G1 X40.075 Y126.452 E35.64095
G1 X39.341 Y125.94 E35.67072
G1 X38.635 Y125.376 E35.70077
G1 X37.986 Y124.761 E35.73051
G1 X37.373 Y124.098 E35.76055
G1 X36.895 Y123.495 E35.78614
G1 X36.377 Y122.756 E35.81615
G1 X36.056 Y122.215 E35.83708
G1 X35.911 Y121.953 E35.84704
G1 X35.509 Y121.144 E35.87708
G1 X35.262 Y120.535 E35.89894
G1 X35.159 Y120.255 E35.90886
G1 X34.885 Y119.395 E35.93888
G1 X34.705 Y118.625 E35.96519
G1 X34.552 Y117.735 E35.99522
G1 X34.473 Y116.667 E36.03084
G1 X34.446 Y115.372 E36.07392
G1 X34.444 Y84.873 E37.08832
G1 X34.462 Y83.801 E37.12398
G1 X34.518 Y82.9 E37.15401
G1 X34.657 Y81.991 E37.18459
G1 X34.719 Y81.68 E37.19514
G1 X34.934 Y80.803 E37.22517
G1 X35.122 Y80.226 E37.24536
G1 X35.238 Y79.903 E37.25677
G1 X35.581 Y79.068 E37.2868
G1 X35.876 Y78.48 E37.30868
G1 X36.001 Y78.25 E37.31738
G1 X36.467 Y77.477 E37.3474
G1 X36.916 Y76.848 E37.37311
G1 X37.483 Y76.145 E37.40315
G1 X38.052 Y75.544 E37.43067
G1 X38.713 Y74.928 E37.46072
G1 X39.372 Y74.407 E37.48867
G1 X40.115 Y73.893 E37.51871
G1 X40.776 Y73.507 E37.54417
M204 S2000
G1 F2400 E36.74417
;MESH:bottom_bracket.stl
G0 F7500 X46.582 Y81.524
G0 X47.458 Y82.876
M204 S500
;TYPE:WALL-INNER
G1 F2400 E37.54417
G1 F1054.5 X47.287 Y82.866 E37.55228
G1 F1063.8 X46.883 Y82.87 E37.57123
G1 F970.9 X46.448 Y82.936 E37.59383
G1 F874.6 X46.034 Y83.108 E37.61941
G1 F825.3 X45.666 Y83.437 E37.64925
G1 F864.6 X45.417 Y83.884 E37.67877
G1 F985.2 X45.333 Y84.318 E37.70116
G1 F1061.9 X45.32 Y84.756 E37.72174
G1 F1077.2 X45.325 Y84.873 E37.72717
M204 S2000
G0 F7500 X45.348 Y85.729
G0 X46.749 Y86.229
G0 X47.144 Y86.279
G0 X47.539 Y86.229
G0 X48.782 Y85.682
G0 X48.618 Y83.459
G0 X48.045 Y82.976
G0 X54.994 Y82.976
G0 X54.081 Y84.626
G0 X54.915 Y86.253
G0 X55.523 Y86.49
M204 S500
G1 F1052.6 X55.894 Y86.511 E37.74478
G1 X56.265 Y86.49 E37.76239
M204 S2000
G0 F7500 X56.951 Y86.485
G0 X57.408 Y85.178
G0 X57.484 Y84.785
G0 X57.458 Y84.387
G0 X56.87 Y83.129
G0 X56.208 Y82.876
M204 S500
G1 F1054.5 X56.037 Y82.866 E37.7705
G1 F1063.8 X55.633 Y82.87 E37.78944
M204 S2000
G0 F7500 X54.917 Y83.13
G0 X56.795 Y82.976
G0 X63.744 Y82.976
G0 X64.383 Y82.87
M204 S500
G1 F1063.8 X64.787 Y82.866 E37.80839
G1 F1054.5 X64.958 Y82.876 E37.81649
M204 S2000
G0 F7500 X65.62 Y83.129
G0 X66.085 Y84.007
G0 X66.208 Y84.387
G0 X66.234 Y84.785
G0 X66.158 Y85.178
G0 X65.572 Y86.397
G0 X65.015 Y86.49
M204 S500
G1 F1052.6 X64.644 Y86.511 E37.83411
G1 X64.273 Y86.49 E37.85172
M204 S2000
G0 F7500 X64.275 Y86.5
M204 S500
G1 F1418.4 X63.735 Y86.18 E37.8738
G1 F1500 X63.44 Y85.963 E37.88598
G1 X63.164 Y85.628 E37.90041
G1 X62.975 Y85.231 E37.91504
G1 X62.891 Y84.79 E37.92997
G1 X62.92 Y84.354 E37.9445
G1 X63.057 Y83.937 E37.9591
G1 X63.291 Y83.568 E37.97363
G1 X63.612 Y83.266 E37.98829
G1 X63.93 Y83.091 E38.00037
G1 F1237.1 X64.383 Y82.87 E38.02069
G1 F1169.6 X63.983 Y82.786 E38.03813
G1 F1293.1 X60.296 Y82.786 E38.18038
G1 F1247.4 X56.609 Y82.786 E38.32784
G1 F1121.5 X56.208 Y82.876 E38.34612
G1 F1167.3 X56.473 Y83.011 E38.35883
G1 F1376.1 X56.934 Y83.27 E38.378
G1 F1456.3 X57.246 Y83.568 E38.39278
G1 F1500 X57.483 Y83.935 E38.40731
G1 X57.617 Y84.359 E38.4221
G1 X57.646 Y84.798 E38.43674
G1 X57.561 Y85.231 E38.45141
G1 X57.38 Y85.623 E38.46577
G1 X57.095 Y85.966 E38.48061
G1 X56.802 Y86.18 E38.49267
G1 F1342.3 X56.252 Y86.498 E38.51629
G1 X56.73 Y86.585 E38.53435
G1 F1500 X63.808 Y86.584 E38.76976
G1 F1418.4 X64.275 Y86.5 E38.78645
M204 S2000
G0 F7500 X63.587 Y86.485
G0 X72.337 Y86.485
G0 X73.023 Y86.49
M204 S500
G1 F1052.6 X73.394 Y86.511 E38.80406
G1 X73.765 Y86.49 E38.82167
M204 S2000
G0 F7500 X73.025 Y86.5
M204 S500
G1 F1418.4 X72.485 Y86.18 E38.84375
G1 F1500 X72.19 Y85.963 E38.85593
G1 X71.914 Y85.628 E38.87037
G1 X71.725 Y85.231 E38.88499
G1 X71.641 Y84.79 E38.89993
G1 X71.67 Y84.354 E38.91446
G1 X71.807 Y83.937 E38.92906
G1 X72.041 Y83.568 E38.94359
G1 X72.362 Y83.266 E38.95825
G1 X72.68 Y83.091 E38.97032
G1 F1237.1 X73.133 Y82.87 E38.99065
G1 F1169.6 X72.733 Y82.786 E39.00808
G1 F1293.1 X69.046 Y82.786 E39.15033
G1 F1247.4 X65.359 Y82.786 E39.2978
G1 F1121.5 X64.958 Y82.876 E39.31608
G1 F1167.3 X65.223 Y83.011 E39.32879
G1 F1376.1 X65.684 Y83.27 E39.34796
G1 F1456.3 X65.996 Y83.568 E39.36274
G1 F1500 X66.233 Y83.935 E39.37727
G1 X66.367 Y84.359 E39.39206
G1 X66.396 Y84.798 E39.40669
G1 X66.311 Y85.231 E39.42137
G1 X66.13 Y85.623 E39.43573
G1 X65.845 Y85.966 E39.45056
G1 X65.552 Y86.18 E39.46263
G1 F1342.3 X65.002 Y86.498 E39.48624
G1 X65.48 Y86.585 E39.5043
G1 F1500 X72.558 Y86.584 E39.73972
G1 F1418.4 X73.025 Y86.5 E39.75641
M204 S2000
G0 F7500 X72.337 Y86.485
G0 X71.879 Y85.178
G0 X71.805 Y84.785
G0 X71.829 Y84.388
G0 X72.417 Y83.13
G0 X73.133 Y82.87
M204 S500
G1 F1063.8 X73.537 Y82.866 E39.77535
G1 F1054.5 X73.708 Y82.876 E39.78346
M204 S2000
G0 F7500 X74.37 Y83.129
G0 X81.244 Y82.976
G0 X81.883 Y82.87
M204 S500
