;FLAVOR:Marlin
;TIME:13840
;Filament used: 9.60291m
;Layer height: 0.2
;MINX:42.599
;MINY:55.757
;MINZ:0.2
;MAXX:195.752
;MAXY:157.284
;MAXZ:20
;TARGET_MACHINE.NAME:Creality Ender-3 S1
;Generated with Cura_SteamEngine 5.6.0
M82 ;absolute extrusion mode
; Ender 3 S1 Start G-code
; M413 S0 ; Disable power loss recovery
G92 E0 ; Reset Extruder

; Prep surfaces before auto home for better accuracy
M140 S60
M104 S200

G28 ; Home all axes
G1 Z10.0 F3000 ; Move Z Axis up little to prevent scratching of Heat Bed
G1 X0 Y0

M190 S60
M109 S200

G1 X0.1 Y20 Z0.3 F5000.0 ; Move to start position
G1 X0.1 Y200.0 Z0.3 F1500.0 E15 ; Draw the first line
G1 X0.4 Y200.0 Z0.3 F5000.0 ; Move to side a little
G1 X0.4 Y20 Z0.3 F1500.0 E30 ; Draw the second line
G92 E0 ; Reset Extruder
G1 Z2.0 F3000 ; Move Z Axis up little to prevent scratching of Heat Bed
G1 X5 Y20 Z0.3 F5000.0 ; Move over to prevent blob squish

G92 E0
G92 E0
G1 F2400 E-0.8
;LAYER_COUNT:100
;LAYER:0
M107
M204 S2000
G0 F7500 X46.789 Y58.136 Z0.2
M204 S500
;TYPE:SKIRT
G1 F2400 E0
G1 F1500 X47.578 Y57.568 E0.03234
G1 X48.415 Y57.07 E0.06473
G1 X49.293 Y56.649 E0.09711
G1 X50.206 Y56.307 E0.12954
G1 X51.144 Y56.047 E0.16192
G1 X52.11 Y55.869 E0.19459
G1 X53.254 Y55.772 E0.23277
G1 X53.929 Y55.757 E0.25523
G1 X58.064 Y55.758 E0.39276
G1 X58.805 Y55.771 E0.41741
G1 X59.777 Y55.832 E0.4498
G1 X60.741 Y55.979 E0.48223
G1 X61.655 Y56.202 E0.51353
G1 X62.75 Y56.582 E0.55208
G1 X64.196 Y57.171 E0.60401
G1 X66.568 Y58.087 E0.68858
G1 X68.942 Y58.928 E0.77235
G1 X71.364 Y59.708 E0.85698
G1 X73.755 Y60.407 E0.93983
G1 X76.215 Y61.048 E1.02438
G1 X78.665 Y61.614 E1.10802
G1 X81.138 Y62.112 E1.19192
G1 X83.579 Y62.532 E1.2743
G1 X86.101 Y62.894 E1.35904
G1 X88.578 Y63.177 E1.44196
G1 X91.136 Y63.399 E1.52736
G1 X93.591 Y63.538 E1.60915
G1 X96.691 Y63.624 E1.71229
G1 X97.677 Y63.698 E1.74518
G1 X98.972 Y63.933 E1.78896
G1 X100.963 Y64.422 E1.85714
G1 X103.402 Y64.967 E1.94027
G1 X105.886 Y65.45 E2.02443
G1 X108.373 Y65.862 E2.10828
G1 X110.852 Y66.201 E2.1915
G1 X113.345 Y66.47 E2.2749
G1 X115.872 Y66.672 E2.35921
G1 X118.391 Y66.799 E2.4431
G1 X120.879 Y66.854 E2.52587
G1 X123.41 Y66.84 E2.61005
G1 X125.915 Y66.755 E2.69342
G1 X129.287 Y66.533 E2.80582
G1 X130.33 Y66.5 E2.84052
G1 X134.479 Y66.501 E2.97852
G1 X135.227 Y66.515 E3.0034
G1 X136.196 Y66.577 E3.0357
G1 X137.089 Y66.711 E3.06573
G1 X137.914 Y66.903 E3.0939
G1 X138.641 Y67.102 E3.11897
G1 X141.204 Y67.768 E3.20705
G1 X143.658 Y68.333 E3.29081
G1 X146.106 Y68.824 E3.37385
G1 X148.597 Y69.251 E3.45791
G1 X151.093 Y69.605 E3.54176
G1 X153.577 Y69.885 E3.6249
G1 X156.082 Y70.1 E3.70852
G1 X158.599 Y70.24 E3.79237
G1 X161.133 Y70.311 E3.87668
G1 X163.687 Y70.311 E3.96163
G1 X164.96 Y70.285 E4.00398
G1 X169.054 Y70.284 E4.14014
G1 X169.937 Y70.297 E4.16951
G1 X170.908 Y70.356 E4.20187
G1 X171.872 Y70.502 E4.2343
G1 X172.819 Y70.733 E4.26672
G1 X173.675 Y71.021 E4.29676
G1 X174.631 Y71.44 E4.33147
G1 X175.484 Y71.911 E4.36388
G1 X176.291 Y72.456 E4.39627
G1 X177.048 Y73.07 E4.42869
G1 X177.746 Y73.748 E4.46105
G1 X178.382 Y74.485 E4.49343
G1 X178.951 Y75.275 E4.52581
G1 X179.414 Y76.051 E4.55587
G1 X179.868 Y76.995 E4.59071
G1 X180.228 Y77.967 E4.62518
G1 X180.678 Y79.385 E4.67466
G1 X181.507 Y81.843 E4.76094
G1 X182.378 Y84.202 E4.84458
G1 X183.303 Y86.505 E4.92713
G1 X184.335 Y88.876 E5.01313
G1 X185.389 Y91.126 E5.09577
G1 X186.523 Y93.377 E5.1796
G1 X187.722 Y95.596 E5.26349
G1 X188.978 Y97.77 E5.347
G1 X190.291 Y99.906 E5.43039
G1 X191.651 Y101.986 E5.51305
G1 X193.219 Y104.234 E5.60421
G1 X193.693 Y104.895 E5.63126
G1 X194.223 Y105.71 E5.6636
G1 X194.649 Y106.507 E5.69366
G1 X195.058 Y107.471 E5.72848
G1 X195.354 Y108.397 E5.76082
G1 X195.568 Y109.347 E5.79321
G1 X195.697 Y110.302 E5.82526
G1 X195.737 Y110.957 E5.84709
G1 X195.752 Y111.614 E5.86894
G1 X195.751 Y145.684 E7.00212
G1 X195.74 Y146.447 E7.0275
G1 X195.683 Y147.42 E7.05991
G1 X195.538 Y148.383 E7.0923
G1 X195.309 Y149.329 E7.12468
G1 X194.998 Y150.253 E7.1571
G1 X194.606 Y151.144 E7.18948
G1 X194.138 Y151.996 E7.22181
G1 X193.616 Y152.777 E7.25305
G1 X192.983 Y153.562 E7.2866
G1 X192.358 Y154.213 E7.31661
G1 X191.569 Y154.901 E7.35143
G1 X190.809 Y155.451 E7.38263
G1 X189.942 Y155.968 E7.41621
G1 X189.064 Y156.39 E7.44861
G1 X188.153 Y156.732 E7.48097
G1 X187.214 Y156.993 E7.51339
G1 X186.248 Y157.171 E7.54606
G1 X185.097 Y157.269 E7.58448
G1 X184.422 Y157.284 E7.60693
G1 X180.273 Y157.283 E7.74493
G1 X179.525 Y157.269 E7.76981
G1 X178.556 Y157.207 E7.80211
G1 X177.663 Y157.073 E7.83214
G1 X176.838 Y156.881 E7.86031
G1 X176.111 Y156.682 E7.88538
G1 X173.548 Y156.016 E7.97346
G1 X171.094 Y155.451 E8.05722
G1 X168.644 Y154.959 E8.14033
G1 X166.155 Y154.533 E8.22432
G1 X163.659 Y154.179 E8.30817
G1 X161.175 Y153.899 E8.39131
G1 X158.67 Y153.684 E8.47493
G1 X156.153 Y153.544 E8.55878
G1 X153.619 Y153.473 E8.64309
G1 X151.065 Y153.473 E8.72804
G1 X149.792 Y153.499 E8.77039
G1 X145.698 Y153.5 E8.90655
G1 X144.813 Y153.487 E8.93599
G1 X143.841 Y153.428 E8.96838
G1 X142.893 Y153.286 E9.00026
G1 X142.388 Y153.175 E9.01746
G1 X140.397 Y152.686 E9.08565
G1 X137.958 Y152.141 E9.16877
G1 X135.474 Y151.658 E9.25294
G1 X132.987 Y151.246 E9.33678
G1 X130.508 Y150.907 E9.42
G1 X128.015 Y150.638 E9.5034
G1 X125.488 Y150.436 E9.58772
G1 X122.969 Y150.309 E9.6716
G1 X120.481 Y150.254 E9.75438
G1 X117.95 Y150.268 E9.83856
G1 X115.445 Y150.353 E9.92192
G1 X112.046 Y150.577 E10.03522
G1 X111.03 Y150.608 E10.06903
G1 X106.91 Y150.607 E10.20606
G1 X106.188 Y150.596 E10.23008
G1 X105.2 Y150.536 E10.263
G1 X104.236 Y150.39 E10.29543
G1 X103.283 Y150.157 E10.32806
G1 X102.21 Y149.783 E10.36585
G1 X100.79 Y149.204 E10.41685
G1 X98.391 Y148.278 E10.50238
G1 X96.017 Y147.437 E10.58615
G1 X93.595 Y146.657 E10.67078
G1 X91.204 Y145.958 E10.75364
G1 X88.744 Y145.317 E10.83819
G1 X86.294 Y144.751 E10.92182
G1 X83.821 Y144.253 E11.00572
G1 X81.38 Y143.833 E11.08811
G1 X78.858 Y143.471 E11.17285
G1 X76.381 Y143.188 E11.25577
G1 X73.823 Y142.966 E11.34117
G1 X71.368 Y142.827 E11.42295
G1 X68.27 Y142.741 E11.52603
G1 X67.299 Y142.668 E11.55842
G1 X66.339 Y142.51 E11.59078
G1 X65.429 Y142.277 E11.62202
G1 X64.477 Y141.941 E11.6556
G1 X63.591 Y141.536 E11.688
G1 X62.745 Y141.055 E11.72037
G1 X61.972 Y140.521 E11.75162
G1 X61.197 Y139.875 E11.78517
G1 X60.53 Y139.214 E11.81641
G1 X59.881 Y138.442 E11.84995
G1 X59.323 Y137.645 E11.88231
G1 X58.836 Y136.799 E11.91478
G1 X58.429 Y135.918 E11.94706
G1 X58.123 Y135.074 E11.97692
G1 X57.667 Y133.637 E12.02706
G1 X56.843 Y131.195 E12.11278
G1 X55.962 Y128.811 E12.19731
G1 X55.043 Y126.524 E12.27929
G1 X54.016 Y124.165 E12.36486
G1 X52.952 Y121.895 E12.44825
G1 X51.818 Y119.644 E12.53208
G1 X50.615 Y117.418 E12.61624
G1 X49.393 Y115.304 E12.69745
G1 X48.033 Y113.093 E12.78379
G1 X46.667 Y111.007 E12.86672
G1 X45.12 Y108.788 E12.95669
G1 X44.668 Y108.161 E12.9824
G1 X44.135 Y107.344 E13.01484
G1 X43.679 Y106.485 E13.04719
G1 X43.312 Y105.622 E13.07838
G1 X43 Y104.66 E13.11202
G1 X42.786 Y103.711 E13.14437
G1 X42.656 Y102.757 E13.1764
G1 X42.614 Y102.084 E13.19882
G1 X42.599 Y101.427 E13.22068
G1 X42.6 Y67.311 E14.35538
G1 X42.611 Y66.587 E14.37947
G1 X42.669 Y65.614 E14.41189
G1 X42.814 Y64.651 E14.44428
G1 X43.034 Y63.738 E14.47551
G1 X43.355 Y62.782 E14.50905
G1 X43.748 Y61.891 E14.54144
G1 X44.199 Y61.069 E14.57263
G1 X44.76 Y60.23 E14.6062
G1 X45.326 Y59.526 E14.63624
G1 X46.052 Y58.773 E14.67103
G1 X46.789 Y58.136 E14.70343
M204 S2000
G0 F7500 X47.023 Y58.46
M204 S500
G1 F1500 X47.783 Y57.911 E14.73461
G1 X48.589 Y57.43 E14.76583
G1 X49.434 Y57.023 E14.79703
G1 X50.313 Y56.692 E14.82827
G1 X51.217 Y56.44 E14.85948
G1 X52.144 Y56.268 E14.89084
G1 X53.288 Y56.171 E14.92903
G1 X53.929 Y56.157 E14.95035
G1 X58.057 Y56.158 E15.08765
G1 X58.781 Y56.17 E15.11173
G1 X59.717 Y56.227 E15.14292
G1 X60.646 Y56.368 E15.17417
G1 X61.56 Y56.591 E15.20546
G1 X62.599 Y56.952 E15.24205
G1 X64.052 Y57.544 E15.29423
G1 X66.434 Y58.464 E15.37916
G1 X68.819 Y59.309 E15.46332
G1 X71.241 Y60.089 E15.54795
G1 X73.647 Y60.792 E15.63132
G1 X76.125 Y61.438 E15.71649
G1 X78.575 Y62.004 E15.80013
G1 X81.063 Y62.505 E15.88454
G1 X83.522 Y62.928 E15.96753
G1 X86.044 Y63.29 E16.05227
G1 X88.544 Y63.576 E16.13596
G1 X91.102 Y63.797 E16.22136
G1 X93.58 Y63.938 E16.30391
G1 X96.662 Y64.023 E16.40646
G1 X97.606 Y64.092 E16.43794
G1 X98.877 Y64.322 E16.4809
G1 X100.868 Y64.81 E16.54908
G1 X103.326 Y65.36 E16.63285
G1 X105.816 Y65.844 E16.71722
G1 X108.308 Y66.257 E16.80124
G1 X110.809 Y66.599 E16.88519
G1 X113.306 Y66.868 E16.96873
G1 X115.84 Y67.07 E17.05327
G1 X118.382 Y67.199 E17.13793
G1 X120.872 Y67.254 E17.22077
G1 X123.424 Y67.24 E17.30565
G1 X125.929 Y67.155 E17.38901
G1 X129.313 Y66.932 E17.50181
G1 X130.33 Y66.9 E17.53565
G1 X134.472 Y66.901 E17.67342
G1 X135.202 Y66.914 E17.6977
G1 X136.137 Y66.973 E17.72886
G1 X137.03 Y67.107 E17.75889
G1 X137.808 Y67.289 E17.78547
G1 X138.535 Y67.488 E17.81054
G1 X141.114 Y68.158 E17.89916
G1 X143.568 Y68.723 E17.98292
G1 X146.031 Y69.217 E18.06647
G1 X148.541 Y69.647 E18.15117
G1 X151.037 Y70.001 E18.23502
G1 X153.543 Y70.284 E18.3189
G1 X156.048 Y70.498 E18.40252
G1 X158.588 Y70.64 E18.48713
G1 X161.122 Y70.711 E18.57144
G1 X163.695 Y70.711 E18.65702
G1 X164.96 Y70.685 E18.69911
G1 X169.048 Y70.684 E18.83507
G1 X169.913 Y70.696 E18.86385
G1 X170.849 Y70.752 E18.89503
G1 X171.778 Y70.891 E18.92628
G1 X172.691 Y71.112 E18.95752
G1 X173.547 Y71.4 E18.98756
G1 X174.438 Y71.79 E19.01991
G1 X175.261 Y72.243 E19.05115
G1 X176.04 Y72.767 E19.08238
G1 X176.77 Y73.357 E19.1136
G1 X177.444 Y74.01 E19.14481
G1 X178.058 Y74.719 E19.176
G1 X178.607 Y75.48 E19.20721
G1 X179.07 Y76.256 E19.23727
G1 X179.493 Y77.134 E19.26968
G1 X179.847 Y78.088 E19.30353
G1 X180.299 Y79.513 E19.35325
G1 X181.132 Y81.982 E19.43992
G1 X182.007 Y84.351 E19.52391
G1 X182.936 Y86.665 E19.60685
G1 X183.968 Y89.036 E19.69286
G1 X185.032 Y91.306 E19.77624
G1 X186.171 Y93.567 E19.86044
G1 X187.37 Y95.786 E19.94433
G1 X188.637 Y97.98 E20.0286
G1 X189.956 Y100.125 E20.11235
G1 X191.323 Y102.215 E20.19541
G1 X192.894 Y104.467 E20.28674
G1 X193.358 Y105.113 E20.31319
G1 X193.87 Y105.899 E20.34439
G1 X194.296 Y106.696 E20.37445
G1 X194.677 Y107.593 E20.40686
G1 X194.964 Y108.486 E20.43806
G1 X195.172 Y109.401 E20.46927
G1 X195.298 Y110.326 E20.50032
G1 X195.337 Y110.966 E20.52165
G1 X195.352 Y111.614 E20.54321
G1 X195.351 Y145.679 E21.67621
G1 X195.341 Y146.424 E21.70099
G1 X195.287 Y147.361 E21.73221
G1 X195.149 Y148.29 E21.76345
G1 X194.93 Y149.202 E21.79464
G1 X194.632 Y150.092 E21.82586
G1 X194.255 Y150.952 E21.85709
G1 X193.805 Y151.774 E21.88826
G1 X193.283 Y152.555 E21.9195
G1 X192.694 Y153.285 E21.9507
G1 X192.069 Y153.936 E21.98072
G1 X191.334 Y154.577 E22.01315
G1 X190.574 Y155.127 E22.04436
G1 X189.768 Y155.608 E22.07557
G1 X188.923 Y156.016 E22.10678
G1 X188.045 Y156.347 E22.13799
G1 X187.141 Y156.6 E22.16922
G1 X186.214 Y156.772 E22.20057
G1 X185.063 Y156.87 E22.23899
G1 X184.422 Y156.884 E22.26032
G1 X180.28 Y156.883 E22.39808
G1 X179.55 Y156.87 E22.42237
G1 X178.615 Y156.811 E22.45353
G1 X177.722 Y156.677 E22.48356
G1 X176.944 Y156.495 E22.51014
G1 X176.217 Y156.296 E22.53521
G1 X173.638 Y155.626 E22.62383
G1 X171.184 Y155.061 E22.70759
G1 X168.723 Y154.567 E22.79107
G1 X166.211 Y154.137 E22.87584
G1 X163.715 Y153.783 E22.95969
G1 X161.209 Y153.5 E23.04356
G1 X158.704 Y153.286 E23.12718
G1 X156.164 Y153.144 E23.2118
G1 X153.63 Y153.073 E23.29611
G1 X151.057 Y153.073 E23.38169
G1 X149.792 Y153.099 E23.42377
G1 X145.704 Y153.1 E23.55974
G1 X144.837 Y153.088 E23.58858
G1 X143.9 Y153.032 E23.6198
G1 X142.979 Y152.895 E23.65077
G1 X142.483 Y152.786 E23.66766
G1 X140.492 Y152.298 E23.73584
G1 X138.034 Y151.748 E23.81962
G1 X135.544 Y151.264 E23.90398
G1 X133.052 Y150.851 E23.988
G1 X130.551 Y150.509 E24.07196
G1 X128.054 Y150.24 E24.15549
G1 X125.52 Y150.038 E24.24004
G1 X122.978 Y149.909 E24.32469
G1 X120.488 Y149.854 E24.40753
G1 X117.936 Y149.868 E24.49241
G1 X115.431 Y149.953 E24.57578
G1 X112.034 Y150.177 E24.68901
G1 X111.03 Y150.208 E24.72242
G1 X106.916 Y150.207 E24.85925
G1 X106.212 Y150.197 E24.88267
G1 X105.259 Y150.14 E24.91442
G1 X104.33 Y150.001 E24.94566
G1 X103.414 Y149.779 E24.97701
G1 X102.361 Y149.413 E25.01409
G1 X100.934 Y148.831 E25.06535
G1 X98.525 Y147.901 E25.15123
G1 X96.14 Y147.056 E25.23539
G1 X93.718 Y146.276 E25.32002
G1 X91.312 Y145.573 E25.40339
G1 X88.834 Y144.927 E25.48856
G1 X86.384 Y144.361 E25.5722
G1 X83.896 Y143.86 E25.65661
G1 X81.437 Y143.437 E25.7396
G1 X78.915 Y143.075 E25.82434
G1 X76.415 Y142.789 E25.90803
G1 X73.857 Y142.568 E25.99343
G1 X71.379 Y142.427 E26.07598
G1 X68.299 Y142.342 E26.17846
G1 X67.363 Y142.273 E26.20968
G1 X66.437 Y142.122 E26.24088
G1 X65.562 Y141.9 E26.27091
G1 X64.643 Y141.577 E26.30331
G1 X63.788 Y141.188 E26.33455
G1 X62.972 Y140.725 E26.36575
G1 X62.228 Y140.213 E26.39579
G1 X61.479 Y139.591 E26.42817
G1 X60.812 Y138.93 E26.45941
G1 X60.208 Y138.212 E26.49061
G1 X59.669 Y137.445 E26.52179
G1 X59.199 Y136.631 E26.55306
G1 X58.805 Y135.781 E26.58422
G1 X58.504 Y134.953 E26.61352
G1 X58.048 Y133.516 E26.66366
G1 X57.222 Y131.067 E26.74962
G1 X56.337 Y128.672 E26.83455
G1 X55.41 Y126.364 E26.91727
G1 X54.383 Y124.005 E27.00285
G1 X53.314 Y121.725 E27.0866
G1 X52.175 Y119.464 E27.1708
G1 X50.967 Y117.228 E27.25533
G1 X49.734 Y115.094 E27.33731
G1 X48.374 Y112.883 E27.42364
G1 X47.002 Y110.788 E27.50693
G1 X45.448 Y108.559 E27.59731
G1 X45.003 Y107.942 E27.62261
G1 X44.488 Y107.156 E27.65387
G1 X44.047 Y106.328 E27.68507
G1 X43.68 Y105.465 E27.71626
G1 X43.39 Y104.571 E27.74752
G1 X43.182 Y103.657 E27.7787
G1 X43.055 Y102.732 E27.80975
G1 X43.014 Y102.075 E27.83165
G1 X42.999 Y101.427 E27.8532
G1 X43 Y67.317 E28.98771
G1 X43.01 Y66.61 E29.01122
G1 X43.065 Y65.673 E29.04244
G1 X43.203 Y64.745 E29.07365
G1 X43.423 Y63.832 E29.10488
G1 X43.721 Y62.943 E29.13607
G1 X44.099 Y62.083 E29.16731
G1 X44.55 Y61.261 E29.1985
G1 X45.072 Y60.481 E29.22971
G1 X45.638 Y59.777 E29.25976
G1 X46.314 Y59.075 E29.29217
G1 X47.023 Y58.46 E29.32339
M204 S2000
G0 F7500 X47.258 Y58.784
M204 S500
G1 F1500 X47.989 Y58.254 E29.35342
G1 X48.763 Y57.79 E29.38344
G1 X49.576 Y57.397 E29.41347
G1 X50.421 Y57.077 E29.44352
G1 X51.291 Y56.833 E29.47357
G1 X52.178 Y56.667 E29.50359
G1 X53.322 Y56.57 E29.54177
G1 X53.929 Y56.557 E29.56197
G1 X58.051 Y56.558 E29.69907
G1 X58.757 Y56.569 E29.72255
G1 X59.658 Y56.623 E29.75257
G1 X60.552 Y56.757 E29.78264
G1 X61.429 Y56.969 E29.81265
G1 X62.448 Y57.322 E29.84852
G1 X63.908 Y57.917 E29.90095
G1 X66.3 Y58.841 E29.98624
G1 X68.696 Y59.69 E30.07079
G1 X71.118 Y60.47 E30.15542
G1 X73.539 Y61.177 E30.2393
G1 X76.035 Y61.828 E30.3251
G1 X78.485 Y62.394 E30.40873
G1 X80.988 Y62.898 E30.49365
G1 X83.465 Y63.324 E30.57725
G1 X85.987 Y63.686 E30.66199
G1 X88.51 Y63.975 E30.74645
G1 X91.068 Y64.195 E30.83185
G1 X93.569 Y64.338 E30.91517
G1 X96.634 Y64.422 E31.01715
G1 X97.535 Y64.486 E31.04719
G1 X98.783 Y64.711 E31.08937
G1 X100.247 Y65.063 E31.13945
G1 X100.781 Y65.2 E31.15779
G1 X103.25 Y65.753 E31.24194
G1 X105.746 Y66.238 E31.32651
G1 X108.243 Y66.652 E31.41069
G1 X110.766 Y66.997 E31.49539
G1 X113.267 Y67.266 E31.57905
G1 X115.808 Y67.468 E31.66383
G1 X118.373 Y67.599 E31.74926
G1 X120.865 Y67.654 E31.83216
G1 X123.438 Y67.64 E31.91774
G1 X125.943 Y67.555 E32.00111
G1 X129.339 Y67.331 E32.1143
G1 X130.33 Y67.3 E32.14728
G1 X134.465 Y67.301 E32.28481
G1 X135.177 Y67.313 E32.30849
G1 X136.078 Y67.369 E32.33852
G1 X136.971 Y67.503 E32.36855
G1 X137.702 Y67.675 E32.39353
G1 X138.429 Y67.874 E32.4186
G1 X141.024 Y68.548 E32.50777
G1 X143.478 Y69.113 E32.59153
G1 X145.95 Y69.609 E32.67539
G1 X148.485 Y70.043 E32.76093
G1 X150.981 Y70.397 E32.84478
G1 X153.509 Y70.683 E32.92939
G1 X156.014 Y70.896 E33.01301
G1 X158.577 Y71.04 E33.09839
G1 X161.111 Y71.111 E33.18271
G1 X163.703 Y71.111 E33.26892
G1 X164.96 Y71.085 E33.31073
G1 X169.043 Y71.084 E33.44653
G1 X169.89 Y71.095 E33.47471
G1 X170.791 Y71.148 E33.50473
G1 X171.685 Y71.28 E33.53478
G1 X172.563 Y71.491 E33.56482
G1 X173.419 Y71.779 E33.59486
