;FLAVOR:Marlin
;TIME:9900
;Filament used: 7.78923m
;Layer height: 0.2
;MINX:33
;MINY:28
;MINZ:0.2
;MAXX:149.499
;MAXY:191.999
;MAXZ:24
;TARGET_MACHINE.NAME:Creality Ender-3 S1
;Generated with Cura_SteamEngine 5.6.0
M82 ;absolute extrusion mode
; Ender 3 S1 Start G-code
; M413 S0 ; Disable power loss recovery
G92 E0 ; Reset Extruder

; Prep surfaces before auto home for better accuracy
M140 S60
M104 S200

G28 ; Home all axes
G1 Z10.0 F3000 ; Move Z Axis up little to prevent scratching of Heat Bed
G1 X0 Y0

M190 S60
M109 S200

G1 X0.1 Y20 Z0.3 F5000.0 ; Move to start position
G1 X0.1 Y200.0 Z0.3 F1500.0 E15 ; Draw the first line
G1 X0.4 Y200.0 Z0.3 F5000.0 ; Move to side a little
G1 X0.4 Y20 Z0.3 F1500.0 E30 ; Draw the second line
G92 E0 ; Reset Extruder
G1 Z2.0 F3000 ; Move Z Axis up little to prevent scratching of Heat Bed
G1 X5 Y20 Z0.3 F5000.0 ; Move over to prevent blob squish

G92 E0
G92 E0
G1 F2400 E-0.8
;LAYER_COUNT:120
;LAYER:0
M107
M204 S2000
G0 F7500 X39.776 Y75.624 Z0.2
M204 S500
;TYPE:SKIRT
G1 F2400 E0
G1 F1500 X39.307 Y75.881 E0.01779
G1 X38.523 Y76.381 E0.04872
G1 X37.75 Y76.973 E0.0811
G1 X37.032 Y77.632 E0.11351
G1 X36.573 Y78.093 E0.13515
G1 X36.224 Y78.462 E0.15204
G1 X35.614 Y79.201 E0.18391
G1 X35.062 Y80.002 E0.21627
G1 X34.583 Y80.85 E0.24866
G1 X34.285 Y81.439 E0.27062
G1 X33.722 Y82.769 E0.31865
G1 X33.448 Y83.675 E0.35013
G1 X33.249 Y84.63 E0.38258
G1 X33.149 Y85.256 E0.40367
G1 X33.073 Y85.83 E0.42292
G1 X33.016 Y86.76 E0.45391
G1 X33 Y87.665 E0.48402
G1 X33 Y90.688 E0.58456
G1 X33.013 Y91.295 E0.60476
G1 X33.056 Y91.993 E0.62802
G1 X33.186 Y92.946 E0.66001
G1 X33.312 Y93.632 E0.68321
G1 X33.75 Y96.186 E0.76939
G1 X34.11 Y98.713 E0.85429
G1 X34.391 Y101.17 E0.93654
G1 X34.603 Y103.689 E1.02062
G1 X34.746 Y106.205 E1.10444
G1 X34.819 Y108.723 E1.18822
G1 X34.819 Y111.235 E1.27177
G1 X34.748 Y113.761 E1.35582
G1 X34.608 Y116.257 E1.43897
G1 X34.39 Y118.805 E1.52402
G1 X34.112 Y121.263 E1.6063
G1 X33.755 Y123.78 E1.69085
G1 X33.314 Y126.361 E1.77794
G1 X33.196 Y126.997 E1.79946
G1 X33.074 Y127.825 E1.82729
G1 X33.014 Y128.794 E1.85958
G1 X33.001 Y129.535 E1.88423
G1 X33.001 Y132.721 E1.9902
G1 X33.015 Y133.324 E2.01026
G1 X33.143 Y134.686 E2.05576
G1 X33.249 Y135.36 E2.07845
G1 X33.356 Y135.928 E2.09768
G1 X33.589 Y136.829 E2.12863
G1 X33.914 Y137.747 E2.16102
G1 X34.327 Y138.648 E2.19399
G1 X34.624 Y139.224 E2.21554
G1 X34.881 Y139.693 E2.23333
G1 X35.381 Y140.477 E2.26426
G1 X35.973 Y141.25 E2.29664
G1 X36.632 Y141.968 E2.32905
G1 X37.093 Y142.427 E2.35069
G1 X37.462 Y142.776 E2.36758
G1 X38.201 Y143.386 E2.39945
G1 X39.002 Y143.938 E2.43181
G1 X39.85 Y144.417 E2.4642
G1 X40.439 Y144.715 E2.48616
G1 X41.677 Y145.247 E2.53097
G1 X42.538 Y145.517 E2.56099
G1 X43.49 Y145.728 E2.59342
G1 X44.41 Y145.876 E2.62441
G1 X45.506 Y146.014 E2.66115
G1 X48.083 Y146.365 E2.74766
G1 X50.555 Y146.772 E2.83098
G1 X53.011 Y147.248 E2.91419
G1 X55.498 Y147.803 E2.99894
G1 X57.939 Y148.422 E3.0827
G1 X60.339 Y149.103 E3.16567
G1 X62.774 Y149.868 E3.25057
G1 X65.128 Y150.683 E3.33342
G1 X67.457 Y151.563 E3.41623
G1 X69.818 Y152.532 E3.50111
G1 X72.097 Y153.543 E3.58403
G1 X74.396 Y154.643 E3.6688
G1 X76.634 Y155.791 E3.75246
G1 X78.826 Y156.996 E3.83566
G1 X80.995 Y158.269 E3.9193
G1 X83.128 Y159.605 E4.00302
G1 X85.217 Y160.996 E4.08649
G1 X87.307 Y162.475 E4.17165
G1 X89.285 Y163.959 E4.25389
G1 X91.254 Y165.527 E4.33761
G1 X93.196 Y167.166 E4.42213
G1 X95.084 Y168.85 E4.50628
G1 X96.884 Y170.554 E4.58872
G1 X98.673 Y172.342 E4.67284
G1 X100.418 Y174.191 E4.7574
G1 X102.09 Y176.062 E4.84086
G1 X103.712 Y177.986 E4.92456
G1 X105.246 Y179.913 E5.00648
G1 X106.806 Y181.993 E5.09296
G1 X108.223 Y183.995 E5.17453
G1 X109.736 Y186.269 E5.26538
G1 X110.478 Y187.257 E5.30647
G1 X111.116 Y187.952 E5.33785
G1 X111.584 Y188.417 E5.3598
G1 X111.962 Y188.776 E5.37714
G1 X112.701 Y189.386 E5.40901
G1 X113.502 Y189.938 E5.44136
G1 X114.35 Y190.417 E5.47375
G1 X114.939 Y190.715 E5.49571
G1 X116.266 Y191.277 E5.54364
G1 X117.172 Y191.551 E5.57512
G1 X118.125 Y191.751 E5.60751
G1 X118.757 Y191.852 E5.6288
G1 X119.327 Y191.928 E5.64792
G1 X120.285 Y191.986 E5.67984
G1 X121.039 Y191.999 E5.70493
G1 X136.22 Y191.999 E6.20985
G1 X136.825 Y191.985 E6.22998
G1 X138.259 Y191.849 E6.27788
G1 X138.877 Y191.749 E6.29871
G1 X139.401 Y191.65 E6.31644
G1 X140.328 Y191.411 E6.34828
G1 X141.247 Y191.086 E6.38071
G1 X142.148 Y190.673 E6.41367
G1 X142.724 Y190.376 E6.43523
G1 X143.193 Y190.119 E6.45301
G1 X143.977 Y189.619 E6.48394
G1 X144.75 Y189.027 E6.51632
G1 X145.468 Y188.368 E6.54874
G1 X145.927 Y187.907 E6.57038
G1 X146.276 Y187.538 E6.58727
G1 X146.886 Y186.799 E6.61914
G1 X147.438 Y185.998 E6.65149
G1 X147.917 Y185.15 E6.68389
G1 X148.215 Y184.561 E6.70584
G1 X148.441 Y184.085 E6.72337
G1 X148.775 Y183.246 E6.7534
G1 X149.055 Y182.313 E6.7858
G1 X149.253 Y181.361 E6.81814
G1 X149.354 Y180.724 E6.8396
G1 X149.429 Y180.163 E6.85842
G1 X149.487 Y179.187 E6.89094
G1 X149.499 Y178.424 E6.91632
G1 X149.499 Y41.282 E11.47768
G1 X149.486 Y40.676 E11.49784
G1 X149.347 Y39.223 E11.54639
G1 X149.247 Y38.61 E11.56705
G1 X149.15 Y38.098 E11.58438
G1 X148.911 Y37.172 E11.61619
G1 X148.586 Y36.253 E11.64861
G1 X148.173 Y35.352 E11.68157
G1 X147.876 Y34.776 E11.70313
G1 X147.619 Y34.307 E11.72092
G1 X147.119 Y33.523 E11.75184
G1 X146.527 Y32.75 E11.78423
G1 X145.868 Y32.032 E11.81664
G1 X145.407 Y31.573 E11.83828
G1 X145.049 Y31.234 E11.85468
G1 X144.313 Y30.625 E11.88645
G1 X143.511 Y30.071 E11.91887
G1 X142.65 Y29.582 E11.9518
G1 X142.081 Y29.293 E11.97303
G1 X141.652 Y29.089 E11.98883
G1 X140.767 Y28.734 E12.02055
G1 X139.836 Y28.45 E12.05292
G1 X138.881 Y28.251 E12.08536
G1 X138.245 Y28.149 E12.10679
G1 X137.645 Y28.07 E12.12692
G1 X136.714 Y28.014 E12.15794
G1 X135.803 Y28 E12.18824
G1 X120.799 Y28.001 E12.68728
G1 X120.176 Y28.015 E12.708
G1 X118.751 Y28.15 E12.75561
G1 X118.13 Y28.25 E12.77653
G1 X117.599 Y28.35 E12.7945
G1 X116.672 Y28.589 E12.82634
G1 X115.753 Y28.914 E12.85876
G1 X114.852 Y29.327 E12.89173
G1 X114.276 Y29.624 E12.91328
G1 X113.817 Y29.875 E12.93068
G1 X113.033 Y30.374 E12.96159
G1 X112.232 Y30.987 E12.99514
G1 X111.541 Y31.622 E13.02636
G1 X111.065 Y32.101 E13.04882
G1 X110.35 Y32.899 E13.08445
G1 X109.766 Y33.685 E13.11702
G1 X107.907 Y36.459 E13.22809
G1 X106.463 Y38.474 E13.31054
G1 X104.898 Y40.534 E13.39658
G1 X103.37 Y42.43 E13.47757
G1 X101.715 Y44.369 E13.56236
G1 X100.021 Y46.243 E13.64638
G1 X98.299 Y48.043 E13.72924
G1 X96.476 Y49.843 E13.81445
G1 X94.67 Y51.529 E13.89662
G1 X92.755 Y53.219 E13.98157
G1 X90.828 Y54.824 E14.06498
G1 X88.851 Y56.379 E14.14864
G1 X86.857 Y57.856 E14.23117
G1 X84.767 Y59.317 E14.31599
G1 X82.672 Y60.693 E14.39935
G1 X80.521 Y62.021 E14.48343
G1 X78.349 Y63.279 E14.56691
G1 X76.13 Y64.48 E14.65084
G1 X73.862 Y65.627 E14.73537
G1 X71.638 Y66.673 E14.81711
G1 X69.279 Y67.702 E14.90271
G1 X66.978 Y68.631 E14.98524
G1 X64.581 Y69.519 E15.07026
G1 X62.225 Y70.318 E15.15301
G1 X59.787 Y71.068 E15.23785
G1 X57.429 Y71.722 E15.31924
G1 X54.919 Y72.342 E15.40523
G1 X52.497 Y72.865 E15.48764
G1 X50.004 Y73.332 E15.572
G1 X47.527 Y73.724 E15.65541
G1 X44.572 Y74.103 E15.7545
G1 X43.621 Y74.252 E15.78652
G1 X43.099 Y74.35 E15.80418
G1 X42.172 Y74.589 E15.83602
G1 X41.253 Y74.914 E15.86844
G1 X40.352 Y75.327 E15.90141
G1 X39.776 Y75.624 E15.92296
M204 S2000
G0 F7500 X39.959 Y75.98
M204 S500
G1 F1500 X40.535 Y75.683 E15.94452
G1 X41.387 Y75.291 E15.97571
G1 X42.272 Y74.976 E16.00695
G1 X43.173 Y74.743 E16.03791
G1 X43.683 Y74.647 E16.05517
G1 X44.623 Y74.5 E16.08681
G1 X47.578 Y74.121 E16.1859
G1 X50.075 Y73.726 E16.26998
G1 X52.577 Y73.257 E16.35465
G1 X55.003 Y72.733 E16.4372
G1 X57.525 Y72.11 E16.5236
G1 X59.905 Y71.45 E16.60575
G1 X62.353 Y70.697 E16.69094
G1 X64.709 Y69.898 E16.77368
G1 X67.128 Y69.002 E16.85948
G1 X69.44 Y68.069 E16.9424
G1 X71.798 Y67.04 E17.02797
G1 X74.043 Y65.984 E17.11049
G1 X76.321 Y64.832 E17.19539
G1 X78.54 Y63.63 E17.27933
G1 X80.721 Y62.367 E17.36315
G1 X82.892 Y61.027 E17.44801
G1 X84.987 Y59.651 E17.53138
G1 X87.086 Y58.184 E17.61655
G1 X89.089 Y56.7 E17.69946
G1 X91.084 Y55.131 E17.78388
G1 X93.02 Y53.519 E17.86767
G1 X94.935 Y51.829 E17.95262
G1 X96.757 Y50.128 E18.03552
G1 X98.58 Y48.328 E18.12073
G1 X100.318 Y46.511 E18.20436
G1 X102.012 Y44.637 E18.28838
G1 X103.674 Y42.69 E18.37352
G1 X105.217 Y40.776 E18.45529
G1 X106.782 Y38.716 E18.54134
G1 X108.232 Y36.692 E18.62415
G1 X110.088 Y33.923 E18.73502
G1 X110.648 Y33.166 E18.76634
G1 X111.363 Y32.368 E18.80198
G1 X111.812 Y31.917 E18.82314
G1 X112.503 Y31.282 E18.85436
G1 X113.248 Y30.711 E18.88558
G1 X114.032 Y30.212 E18.91649
G1 X114.459 Y29.98 E18.93265
G1 X115.035 Y29.683 E18.9542
G1 X115.887 Y29.291 E18.9854
G1 X116.772 Y28.976 E19.01664
G1 X117.673 Y28.743 E19.04759
G1 X118.194 Y28.645 E19.06523
G1 X118.815 Y28.545 E19.08615
G1 X120.185 Y28.415 E19.13192
G1 X120.799 Y28.401 E19.15235
G1 X135.797 Y28.4 E19.65118
G1 X136.69 Y28.413 E19.68089
G1 X137.621 Y28.469 E19.71191
G1 X138.182 Y28.544 E19.73073
G1 X138.8 Y28.643 E19.75155
G1 X139.72 Y28.833 E19.78279
G1 X140.618 Y29.105 E19.814
G1 X141.48 Y29.45 E19.84488
G1 X141.9 Y29.65 E19.86035
G1 X142.453 Y29.93 E19.88097
G1 X143.284 Y30.4 E19.91272
G1 X144.058 Y30.933 E19.94398
G1 X144.774 Y31.525 E19.97488
G1 X145.125 Y31.857 E19.99095
G1 X145.574 Y32.303 E20.012
G1 X146.21 Y32.994 E20.04324
G1 X146.782 Y33.738 E20.07445
G1 X147.282 Y34.522 E20.10538
G1 X147.52 Y34.959 E20.12193
G1 X147.817 Y35.535 E20.14348
G1 X148.209 Y36.387 E20.17467
G1 X148.524 Y37.272 E20.20592
G1 X148.757 Y38.173 E20.23687
G1 X148.852 Y38.674 E20.25383
G1 X148.952 Y39.287 E20.27449
G1 X149.086 Y40.685 E20.3212
G1 X149.099 Y41.291 E20.34136
G1 X149.099 Y178.418 E24.90222
G1 X149.088 Y179.163 E24.92701
G1 X149.032 Y180.11 E24.95856
G1 X148.959 Y180.661 E24.97704
G1 X148.861 Y181.28 E24.99789
G1 X148.672 Y182.198 E25.02906
G1 X148.403 Y183.098 E25.0603
G1 X148.069 Y183.937 E25.09034
G1 X147.858 Y184.381 E25.10669
G1 X147.569 Y184.954 E25.12803
G1 X147.108 Y185.772 E25.15926
G1 X146.577 Y186.545 E25.19046
G1 X145.985 Y187.263 E25.22141
G1 X145.643 Y187.625 E25.23797
G1 X145.197 Y188.074 E25.25902
G1 X144.506 Y188.71 E25.29026
G1 X143.762 Y189.282 E25.32147
G1 X142.978 Y189.782 E25.3524
G1 X142.541 Y190.02 E25.36895
G1 X141.965 Y190.317 E25.3905
G1 X141.113 Y190.709 E25.4217
G1 X140.228 Y191.024 E25.45294
G1 X139.327 Y191.257 E25.48389
G1 X138.813 Y191.354 E25.50129
G1 X138.195 Y191.454 E25.52211
G1 X136.816 Y191.585 E25.56819
G1 X136.211 Y191.599 E25.58831
G1 X121.046 Y191.599 E26.0927
G1 X120.309 Y191.587 E26.11722
G1 X119.379 Y191.531 E26.14821
G1 X118.82 Y191.457 E26.16696
G1 X118.206 Y191.359 E26.18764
G1 X117.288 Y191.168 E26.21883
G1 X116.382 Y190.894 E26.25031
G1 X115.119 Y190.358 E26.29594
G1 X114.546 Y190.069 E26.31729
G1 X113.728 Y189.608 E26.34852
G1 X112.955 Y189.077 E26.37971
G1 X112.237 Y188.485 E26.41066
G1 X111.866 Y188.134 E26.42765
G1 X111.411 Y187.681 E26.449
G1 X110.773 Y186.986 E26.48038
G1 X110.069 Y186.047 E26.51942
G1 X108.556 Y183.773 E26.61026
G1 X107.126 Y181.753 E26.69258
G1 X105.566 Y179.673 E26.77905
G1 X104.018 Y177.728 E26.86173
G1 X102.396 Y175.804 E26.94543
G1 X100.709 Y173.916 E27.02964
G1 X98.964 Y172.067 E27.1142
G1 X97.167 Y170.271 E27.19871
G1 X95.35 Y168.551 E27.28192
G1 X93.462 Y166.867 E27.36607
G1 X91.512 Y165.221 E27.45094
G1 X89.534 Y163.646 E27.53504
G1 X87.538 Y162.148 E27.61804
G1 X85.448 Y160.669 E27.7032
G1 X83.35 Y159.272 E27.78703
G1 X81.207 Y157.93 E27.87113
G1 X79.028 Y156.651 E27.95517
G1 X76.817 Y155.435 E28.0391
G1 X74.579 Y154.287 E28.12275
G1 X72.27 Y153.182 E28.20789
G1 X69.98 Y152.166 E28.29122
G1 X67.609 Y151.193 E28.37646
G1 X65.259 Y150.305 E28.46001
G1 X62.894 Y149.486 E28.54326
G1 X60.459 Y148.721 E28.62815
G1 X58.037 Y148.034 E28.71188
G1 X55.596 Y147.415 E28.79564
G1 X53.087 Y146.855 E28.88114
G1 X50.625 Y146.378 E28.96455
G1 X48.148 Y145.97 E29.04805
G1 X45.556 Y145.617 E29.13505
G1 X44.473 Y145.481 E29.17136
G1 X43.576 Y145.337 E29.20157
G1 X42.658 Y145.135 E29.23284
G1 X41.797 Y144.865 E29.26285
G1 X40.619 Y144.358 E29.30551
G1 X40.046 Y144.069 E29.32685
G1 X39.228 Y143.608 E29.35808
G1 X38.455 Y143.077 E29.38927
G1 X37.737 Y142.485 E29.42022
G1 X37.375 Y142.143 E29.43679
G1 X36.926 Y141.697 E29.45784
G1 X36.29 Y141.006 E29.48907
G1 X35.718 Y140.262 E29.52029
G1 X35.218 Y139.478 E29.55121
G1 X34.98 Y139.041 E29.56776
G1 X34.683 Y138.465 E29.58932
G1 X34.291 Y137.613 E29.62051
G1 X33.976 Y136.728 E29.65176
G1 X33.749 Y135.854 E29.68179
G1 X33.644 Y135.297 E29.70064
G1 X33.541 Y134.648 E29.7225
G1 X33.415 Y133.315 E29.76703
G1 X33.401 Y132.712 E29.78709
G1 X33.401 Y129.542 E29.89253
G1 X33.413 Y128.818 E29.91661
G1 X33.47 Y127.883 E29.94777
G1 X33.589 Y127.07 E29.97509
G1 X33.707 Y126.434 E29.99661
G1 X34.149 Y123.847 E30.0839
G1 X34.508 Y121.319 E30.16883
G1 X34.789 Y118.839 E30.25184
G1 X35.006 Y116.291 E30.33689
G1 X35.148 Y113.772 E30.42081
G1 X35.219 Y111.246 E30.50486
G1 X35.219 Y108.723 E30.58877
G1 X35.146 Y106.193 E30.67295
G1 X35.002 Y103.655 E30.7575
G1 X34.789 Y101.136 E30.84158
G1 X34.506 Y98.657 E30.92457
G1 X34.146 Y96.13 E31.00947
G1 X33.706 Y93.564 E31.09606
G1 X33.582 Y92.892 E31.11879
G1 X33.455 Y91.968 E31.14981
G1 X33.413 Y91.286 E31.17254
G1 X33.4 Y90.679 E31.19273
G1 X33.4 Y87.672 E31.29274
G1 X33.415 Y86.784 E31.32228
G1 X33.47 Y85.882 E31.35234
G1 X33.544 Y85.319 E31.37123
G1 X33.641 Y84.711 E31.3917
G1 X33.831 Y83.791 E31.42295
G1 X34.105 Y82.885 E31.45443
G1 X34.642 Y81.619 E31.50017
G1 X34.931 Y81.046 E31.52151
G1 X35.392 Y80.228 E31.55274
G1 X35.923 Y79.455 E31.58393
G1 X36.515 Y78.737 E31.61489
G1 X36.857 Y78.375 E31.63145
G1 X37.303 Y77.926 E31.6525
G1 X37.994 Y77.29 E31.68373
G1 X38.738 Y76.718 E31.71495
G1 X39.522 Y76.218 E31.74588
G1 X39.959 Y75.98 E31.76243
M204 S2000
G0 F7500 X40.142 Y76.335
M204 S500
G1 F1500 X40.702 Y76.046 E31.78339
G1 X41.522 Y75.668 E31.81342
G1 X42.373 Y75.363 E31.84349
G1 X43.247 Y75.136 E31.87352
G1 X43.745 Y75.042 E31.89038
G1 X44.674 Y74.897 E31.92165
G1 X47.629 Y74.518 E32.02074
G1 X50.146 Y74.12 E32.10549
G1 X52.664 Y73.648 E32.1907
G1 X55.088 Y73.124 E32.27318
G1 X57.621 Y72.498 E32.35997
G1 X60.025 Y71.832 E32.44294
G1 X62.481 Y71.076 E32.52841
G1 X64.837 Y70.277 E32.61115
G1 X67.278 Y69.373 E32.69773
G1 X69.601 Y68.436 E32.78104
G1 X71.958 Y67.407 E32.86658
G1 X74.213 Y66.346 E32.94947
G1 X76.512 Y65.184 E33.03514
G1 X78.731 Y63.981 E33.1191
G1 X80.921 Y62.713 E33.20326
G1 X83.112 Y61.361 E33.2889
G1 X85.207 Y59.985 E33.37226
G1 X87.315 Y58.512 E33.45779
G1 X89.327 Y57.021 E33.54109
G1 X91.34 Y55.438 E33.62626
G1 X93.285 Y53.819 E33.71043
G1 X95.2 Y52.129 E33.79538
G1 X97.038 Y50.413 E33.87901
G1 X98.861 Y48.613 E33.96422
G1 X100.615 Y46.779 E34.04863
G1 X102.309 Y44.905 E34.13265
G1 X103.978 Y42.95 E34.21814
G1 X105.536 Y41.018 E34.30069
G1 X107.101 Y38.958 E34.38674
G1 X108.557 Y36.925 E34.46991
G1 X110.41 Y34.16 E34.58062
G1 X110.946 Y33.433 E34.61066
G1 X111.647 Y32.65 E34.64561
G1 X112.083 Y32.211 E34.66619
G1 X112.747 Y31.599 E34.69622
G1 X113.463 Y31.048 E34.72627
G1 X114.224 Y30.563 E34.75629
G1 X114.642 Y30.335 E34.77213
G1 X115.202 Y30.046 E34.79308
G1 X116.022 Y29.668 E34.82312
G1 X116.873 Y29.363 E34.85318
G1 X117.747 Y29.136 E34.88322
G1 X118.258 Y29.04 E34.90051
G1 X118.879 Y28.94 E34.92143
G1 X120.194 Y28.815 E34.96537
G1 X120.799 Y28.801 E34.98549
G1 X135.792 Y28.8 E35.48416
G1 X136.666 Y28.812 E35.51323
G1 X137.568 Y28.866 E35.54329
G1 X138.119 Y28.939 E35.56178
G1 X138.72 Y29.035 E35.58202
G1 X139.605 Y29.216 E35.61206
G1 X140.47 Y29.476 E35.6421
G1 X141.308 Y29.811 E35.67212
G1 X141.719 Y30.007 E35.68727
G1 X142.272 Y30.287 E35.70788
G1 X143.058 Y30.73 E35.73789
G1 X143.803 Y31.241 E35.76794
G1 X144.499 Y31.816 E35.79797
G1 X144.843 Y32.141 E35.81371
G1 X145.28 Y32.574 E35.83417
G1 X145.893 Y33.238 E35.86422
G1 X146.445 Y33.953 E35.89427
G1 X146.931 Y34.714 E35.9243
G1 X147.165 Y35.142 E35.94052
G1 X147.454 Y35.702 E35.96148
G1 X147.832 Y36.522 E35.99151
G1 X148.137 Y37.373 E36.02158
G1 X148.364 Y38.247 E36.05162
