;FLAVOR:Marlin
;TIME:17273
;Filament used: 15.5905m
;Layer height: 0.2
;MINX:2.765
;MINY:2.327
;MINZ:0.2
;MAXX:218.791
;MAXY:218.353
;MAXZ:0.8
;TARGET_MACHINE.NAME:Creality Ender-3 S1
;Generated with Cura_SteamEngine 5.6.0
M82 ;absolute extrusion mode
; Ender 3 S1 Start G-code
; M413 S0 ; Disable power loss recovery
G92 E0 ; Reset Extruder

; Prep surfaces before auto home for better accuracy
M140 S60
M104 S200

G28 ; Home all axes
G1 Z10.0 F3000 ; Move Z Axis up little to prevent scratching of Heat Bed
G1 X0 Y0

M190 S60
M109 S200

G1 X0.1 Y20 Z0.3 F5000.0 ; Move to start position
G1 X0.1 Y200.0 Z0.3 F1500.0 E15 ; Draw the first line
G1 X0.4 Y200.0 Z0.3 F5000.0 ; Move to side a little
G1 X0.4 Y20 Z0.3 F1500.0 E30 ; Draw the second line
G92 E0 ; Reset Extruder
G1 Z2.0 F3000 ; Move Z Axis up little to prevent scratching of Heat Bed
G1 X5 Y20 Z0.3 F5000.0 ; Move over to prevent blob squish

G92 E0
G92 E0
G1 F2400 E-0.8
;LAYER_COUNT:4
;LAYER:0
M107
M204 S2000
;MESH:printbed_test.stl
G0 F7500 X3.165 Y217.953 Z0.2
M204 S500
;TYPE:WALL-INNER
G1 F2400 E0
G1 F1500 X218.391 Y217.953 E7.15845
G1 X218.391 Y2.727 E14.31689
G1 X3.165 Y2.727 E21.47534
G1 X3.165 Y217.953 E28.63378
M204 S2000
G0 F7500 X2.765 Y218.353
M204 S500
;TYPE:WALL-OUTER
G1 F1500 X218.791 Y218.353 E35.81884
G1 X218.791 Y2.327 E43.00389
G1 X2.765 Y2.327 E50.18895
G1 X2.765 Y218.353 E57.374
M204 S2000
G0 F7500 X3.034 Y218.084
G0 X3.265 Y217.593
G0 X3.525 Y217.593
M204 S500
;TYPE:SKIN
G1 F1500 X3.525 Y3.087 E64.5085
G1 X218.031 Y3.087 E71.643
G1 X218.031 Y217.593 E78.77749
G1 X3.525 Y217.593 E85.91199
M204 S2000
G0 F7500 X4.129 Y217.392
M204 S500
G1 F1500 X3.724 Y216.987 E85.93104
M204 S2000
G0 F7500 X3.724 Y216.422
M204 S500
G1 F1500 X4.695 Y217.392 E85.97669
M204 S2000
G0 F7500 X5.26 Y217.392
M204 S500
G1 F1500 X3.724 Y215.856 E86.04894
M204 S2000
G0 F7500 X3.724 Y215.29
M204 S500
G1 F1500 X5.826 Y217.392 E86.14781
M204 S2000
G0 F7500 X6.392 Y217.392
M204 S500
G1 F1500 X3.724 Y214.724 E86.27331
M204 S2000
G0 F7500 X3.724 Y214.159
M204 S500
G1 F1500 X6.957 Y217.392 E86.42538
M204 S2000
G0 F7500 X7.523 Y217.392
M204 S500
G1 F1500 X3.724 Y213.593 E86.60407
M204 S2000
G0 F7500 X3.724 Y213.027
M204 S500
G1 F1500 X8.089 Y217.392 E86.80939
M204 S2000
G0 F7500 X8.654 Y217.392
M204 S500
G1 F1500 X3.724 Y212.462 E87.04128
M204 S2000
G0 F7500 X3.724 Y211.896
M204 S500
G1 F1500 X9.22 Y217.392 E87.29979
M204 S2000
G0 F7500 X9.786 Y217.392
M204 S500
G1 F1500 X3.724 Y211.33 E87.58493
M204 S2000
G0 F7500 X3.724 Y210.765
M204 S500
G1 F1500 X10.352 Y217.392 E87.89667
M204 S2000
G0 F7500 X10.917 Y217.392
M204 S500
G1 F1500 X3.724 Y210.199 E88.23501
M204 S2000
G0 F7500 X3.724 Y209.633
M204 S500
G1 F1500 X11.483 Y217.392 E88.59997
M204 S2000
G0 F7500 X12.049 Y217.392
M204 S500
G1 F1500 X3.724 Y209.068 E88.99152
M204 S2000
G0 F7500 X3.724 Y208.502
M204 S500
G1 F1500 X12.614 Y217.392 E89.40968
M204 S2000
G0 F7500 X13.18 Y217.392
M204 S500
G1 F1500 X3.724 Y207.936 E89.85446
M204 S2000
G0 F7500 X3.724 Y207.371
M204 S500
G1 F1500 X13.746 Y217.392 E90.32584
M204 S2000
G0 F7500 X14.311 Y217.392
M204 S500
G1 F1500 X3.724 Y206.805 E90.82382
M204 S2000
G0 F7500 X3.724 Y206.239
M204 S500
G1 F1500 X14.877 Y217.392 E91.34843
M204 S2000
G0 F7500 X15.443 Y217.392
M204 S500
G1 F1500 X3.724 Y205.674 E91.89963
M204 S2000
G0 F7500 X3.724 Y205.108
M204 S500
G1 F1500 X16.008 Y217.392 E92.47743
M204 S2000
G0 F7500 X16.574 Y217.392
M204 S500
G1 F1500 X3.724 Y204.542 E93.08186
M204 S2000
G0 F7500 X3.724 Y203.976
M204 S500
G1 F1500 X17.14 Y217.392 E93.7129
M204 S2000
G0 F7500 X17.705 Y217.392
M204 S500
G1 F1500 X3.724 Y203.411 E94.37053
M204 S2000
G0 F7500 X3.724 Y202.845
M204 S500
G1 F1500 X18.271 Y217.392 E95.05477
M204 S2000
G0 F7500 X18.837 Y217.392
M204 S500
G1 F1500 X3.724 Y202.279 E95.76564
M204 S2000
G0 F7500 X3.724 Y201.714
M204 S500
G1 F1500 X19.403 Y217.392 E96.50311
M204 S2000
G0 F7500 X19.968 Y217.392
M204 S500
G1 F1500 X3.724 Y201.148 E97.26718
M204 S2000
G0 F7500 X3.724 Y200.582
M204 S500
G1 F1500 X20.534 Y217.392 E98.05787
M204 S2000
G0 F7500 X21.1 Y217.392
M204 S500
G1 F1500 X3.724 Y200.017 E98.87516
M204 S2000
G0 F7500 X3.724 Y199.451
M204 S500
G1 F1500 X21.665 Y217.392 E99.71905
M204 S2000
G0 F7500 X22.231 Y217.392
M204 S500
G1 F1500 X3.724 Y198.885 E100.58956
M204 S2000
G0 F7500 X3.724 Y198.32
M204 S500
G1 F1500 X22.797 Y217.392 E101.48667
M204 S2000
G0 F7500 X23.362 Y217.392
M204 S500
G1 F1500 X3.724 Y197.754 E102.41039
M204 S2000
G0 F7500 X3.724 Y197.188
M204 S500
G1 F1500 X23.928 Y217.392 E103.36072
M204 S2000
G0 F7500 X24.494 Y217.392
M204 S500
G1 F1500 X3.724 Y196.623 E104.33765
M204 S2000
G0 F7500 X3.724 Y196.057
M204 S500
G1 F1500 X25.059 Y217.392 E105.34119
M204 S2000
G0 F7500 X25.625 Y217.392
M204 S500
G1 F1500 X3.724 Y195.491 E106.37134
M204 S2000
G0 F7500 X3.724 Y194.926
M204 S500
G1 F1500 X26.191 Y217.392 E107.4281
M204 S2000
G0 F7500 X26.756 Y217.392
M204 S500
G1 F1500 X3.724 Y194.36 E108.51145
M204 S2000
G0 F7500 X3.724 Y193.794
M204 S500
G1 F1500 X27.322 Y217.392 E109.62143
M204 S2000
G0 F7500 X27.888 Y217.392
M204 S500
G1 F1500 X3.724 Y193.228 E110.75803
M204 S2000
G0 F7500 X3.724 Y192.663
M204 S500
G1 F1500 X28.453 Y217.392 E111.92121
M204 S2000
G0 F7500 X29.019 Y217.392
M204 S500
G1 F1500 X3.724 Y192.097 E113.11101
M204 S2000
G0 F7500 X3.724 Y191.531
M204 S500
G1 F1500 X29.585 Y217.392 E114.32743
M204 S2000
G0 F7500 X30.151 Y217.392
M204 S500
G1 F1500 X3.724 Y190.966 E115.57045
M204 S2000
G0 F7500 X3.724 Y190.4
M204 S500
G1 F1500 X30.716 Y217.392 E116.84007
M204 S2000
G0 F7500 X31.282 Y217.392
M204 S500
G1 F1500 X3.724 Y189.834 E118.13631
M204 S2000
G0 F7500 X3.724 Y189.269
M204 S500
G1 F1500 X31.848 Y217.392 E119.45916
M204 S2000
G0 F7500 X32.413 Y217.392
M204 S500
G1 F1500 X3.724 Y188.703 E120.8086
M204 S2000
G0 F7500 X3.724 Y188.137
M204 S500
G1 F1500 X32.979 Y217.392 E122.18467
M204 S2000
G0 F7500 X33.545 Y217.392
M204 S500
G1 F1500 X3.724 Y187.572 E123.58733
M204 S2000
G0 F7500 X3.724 Y187.006
M204 S500
G1 F1500 X34.11 Y217.392 E125.0166
M204 S2000
G0 F7500 X34.676 Y217.392
M204 S500
G1 F1500 X3.724 Y186.44 E126.47248
M204 S2000
G0 F7500 X3.724 Y185.875
M204 S500
G1 F1500 X35.242 Y217.392 E127.95497
M204 S2000
G0 F7500 X35.807 Y217.392
M204 S500
G1 F1500 X3.724 Y185.309 E129.46405
M204 S2000
G0 F7500 X3.724 Y184.743
M204 S500
G1 F1500 X36.373 Y217.392 E130.99976
M204 S2000
G0 F7500 X36.939 Y217.392
M204 S500
G1 F1500 X3.724 Y184.177 E132.5621
M204 S2000
G0 F7500 X3.724 Y183.612
M204 S500
G1 F1500 X37.504 Y217.392 E134.151
M204 S2000
G0 F7500 X38.07 Y217.392
M204 S500
G1 F1500 X3.724 Y183.046 E135.76653
M204 S2000
G0 F7500 X3.724 Y182.48
M204 S500
G1 F1500 X38.636 Y217.392 E137.40869
M204 S2000
G0 F7500 X39.201 Y217.392
M204 S500
G1 F1500 X3.724 Y181.915 E139.07742
M204 S2000
G0 F7500 X3.724 Y181.349
M204 S500
G1 F1500 X39.767 Y217.392 E140.77277
M204 S2000
G0 F7500 X40.333 Y217.392
M204 S500
G1 F1500 X3.724 Y180.783 E142.49474
M204 S2000
G0 F7500 X3.724 Y180.218
M204 S500
G1 F1500 X40.899 Y217.392 E144.24332
M204 S2000
G0 F7500 X41.464 Y217.392
M204 S500
G1 F1500 X3.724 Y179.652 E146.01849
M204 S2000
G0 F7500 X3.724 Y179.086
M204 S500
G1 F1500 X42.03 Y217.392 E147.82029
M204 S2000
G0 F7500 X42.596 Y217.392
M204 S500
G1 F1500 X3.724 Y178.521 E149.64869
M204 S2000
G0 F7500 X3.724 Y177.955
M204 S500
G1 F1500 X43.161 Y217.392 E151.50368
M204 S2000
G0 F7500 X43.727 Y217.392
M204 S500
G1 F1500 X3.724 Y177.389 E153.3853
M204 S2000
G0 F7500 X3.724 Y176.824
M204 S500
G1 F1500 X44.293 Y217.392 E155.29352
M204 S2000
G0 F7500 X44.858 Y217.392
M204 S500
G1 F1500 X3.724 Y176.258 E157.22833
M204 S2000
G0 F7500 X3.724 Y175.692
M204 S500
G1 F1500 X45.424 Y217.392 E159.18977
M204 S2000
G0 F7500 X45.99 Y217.392
M204 S500
G1 F1500 X3.724 Y175.127 E161.17781
M204 S2000
G0 F7500 X3.724 Y174.561
M204 S500
G1 F1500 X46.555 Y217.392 E163.19245
M204 S2000
G0 F7500 X47.121 Y217.392
M204 S500
G1 F1500 X3.724 Y173.995 E165.23371
M204 S2000
G0 F7500 X3.724 Y173.429
M204 S500
G1 F1500 X47.687 Y217.392 E167.3016
M204 S2000
G0 F7500 X48.252 Y217.392
M204 S500
G1 F1500 X3.724 Y172.864 E169.39606
M204 S2000
G0 F7500 X3.724 Y172.298
M204 S500
G1 F1500 X48.818 Y217.392 E171.51714
M204 S2000
G0 F7500 X49.384 Y217.392
M204 S500
G1 F1500 X3.724 Y171.732 E173.66485
M204 S2000
G0 F7500 X3.724 Y171.167
M204 S500
G1 F1500 X49.95 Y217.392 E175.83916
M204 S2000
G0 F7500 X50.515 Y217.392
M204 S500
G1 F1500 X3.724 Y170.601 E178.04006
M204 S2000
G0 F7500 X3.724 Y170.035
M204 S500
G1 F1500 X51.081 Y217.392 E180.26759
M204 S2000
G0 F7500 X51.647 Y217.392
M204 S500
G1 F1500 X3.724 Y169.47 E182.52172
M204 S2000
G0 F7500 X3.724 Y168.904
M204 S500
G1 F1500 X52.212 Y217.392 E184.80244
M204 S2000
G0 F7500 X52.778 Y217.392
M204 S500
G1 F1500 X3.724 Y168.338 E187.10979
M204 S2000
G0 F7500 X3.724 Y167.773
M204 S500
G1 F1500 X53.344 Y217.392 E189.44374
M204 S2000
G0 F7500 X53.909 Y217.392
M204 S500
G1 F1500 X3.724 Y167.207 E191.80429
M204 S2000
G0 F7500 X3.724 Y166.641
M204 S500
G1 F1500 X54.475 Y217.392 E194.19146
M204 S2000
G0 F7500 X55.041 Y217.392
M204 S500
G1 F1500 X3.724 Y166.076 E196.60523
M204 S2000
G0 F7500 X3.724 Y165.51
M204 S500
G1 F1500 X55.606 Y217.392 E199.0456
M204 S2000
G0 F7500 X56.172 Y217.392
M204 S500
G1 F1500 X3.724 Y164.944 E201.5126
M204 S2000
G0 F7500 X3.724 Y164.378
M204 S500
G1 F1500 X56.738 Y217.392 E204.00621
M204 S2000
G0 F7500 X57.303 Y217.392
M204 S500
G1 F1500 X3.724 Y163.813 E206.5264
M204 S2000
G0 F7500 X3.724 Y163.247
M204 S500
G1 F1500 X57.869 Y217.392 E209.07322
M204 S2000
G0 F7500 X58.435 Y217.392
M204 S500
G1 F1500 X3.724 Y162.681 E211.64666
M204 S2000
G0 F7500 X3.724 Y162.116
M204 S500
G1 F1500 X59 Y217.392 E214.24667
M204 S2000
G0 F7500 X59.566 Y217.392
M204 S500
G1 F1500 X3.724 Y161.55 E216.87331
M204 S2000
G0 F7500 X3.724 Y160.984
M204 S500
G1 F1500 X60.132 Y217.392 E219.52657
M204 S2000
G0 F7500 X60.698 Y217.392
M204 S500
G1 F1500 X3.724 Y160.419 E222.20642
M204 S2000
G0 F7500 X3.724 Y159.853
M204 S500
G1 F1500 X61.263 Y217.392 E224.91288
M204 S2000
G0 F7500 X61.829 Y217.392
M204 S500
G1 F1500 X3.724 Y159.287 E227.64596
M204 S2000
G0 F7500 X3.724 Y158.722
M204 S500
G1 F1500 X62.395 Y217.392 E230.40564
M204 S2000
G0 F7500 X62.96 Y217.392
M204 S500
G1 F1500 X3.724 Y158.156 E233.19192
M204 S2000
G0 F7500 X3.724 Y157.59
M204 S500
G1 F1500 X63.526 Y217.392 E236.00483
M204 S2000
G0 F7500 X64.092 Y217.392
M204 S500
G1 F1500 X3.724 Y157.025 E238.84433
M204 S2000
G0 F7500 X3.724 Y156.459
M204 S500
G1 F1500 X64.657 Y217.392 E241.71043
M204 S2000
G0 F7500 X65.223 Y217.392
M204 S500
G1 F1500 X3.724 Y155.893 E244.60316
M204 S2000
G0 F7500 X3.724 Y155.328
M204 S500
G1 F1500 X65.789 Y217.392 E247.52248
M204 S2000
G0 F7500 X66.354 Y217.392
M204 S500
G1 F1500 X3.724 Y154.762 E250.4684
M204 S2000
G0 F7500 X3.724 Y154.196
M204 S500
G1 F1500 X66.92 Y217.392 E253.44095
M204 S2000
G0 F7500 X67.486 Y217.392
M204 S500
G1 F1500 X3.724 Y153.63 E256.44012
M204 S2000
G0 F7500 X3.724 Y153.065
M204 S500
G1 F1500 X68.051 Y217.392 E259.46586
M204 S2000
G0 F7500 X68.617 Y217.392
M204 S500
G1 F1500 X3.724 Y152.499 E262.51823
M204 S2000
G0 F7500 X3.724 Y151.933
M204 S500
G1 F1500 X69.183 Y217.392 E265.59722
M204 S2000
G0 F7500 X69.749 Y217.392
M204 S500
G1 F1500 X3.724 Y151.368 E268.70281
M204 S2000
G0 F7500 X3.724 Y150.802
M204 S500
G1 F1500 X70.314 Y217.392 E271.835
M204 S2000
G0 F7500 X70.88 Y217.392
M204 S500
G1 F1500 X3.724 Y150.236 E274.99381
M204 S2000
G0 F7500 X3.724 Y149.671
M204 S500
G1 F1500 X71.446 Y217.392 E278.17922
M204 S2000
G0 F7500 X72.011 Y217.392
M204 S500
G1 F1500 X3.724 Y149.105 E281.39124
M204 S2000
G0 F7500 X3.724 Y148.539
M204 S500
G1 F1500 X72.577 Y217.392 E284.62987
M204 S2000
G0 F7500 X73.143 Y217.392
M204 S500
G1 F1500 X3.724 Y147.974 E287.8951
M204 S2000
G0 F7500 X3.724 Y147.408
M204 S500
G1 F1500 X73.708 Y217.392 E291.18694
M204 S2000
G0 F7500 X74.274 Y217.392
M204 S500
G1 F1500 X3.724 Y146.842 E294.50539
M204 S2000
G0 F7500 X3.724 Y146.277
M204 S500
G1 F1500 X74.84 Y217.392 E297.85045
M204 S2000
G0 F7500 X75.405 Y217.392
M204 S500
G1 F1500 X3.724 Y145.711 E301.2221
M204 S2000
G0 F7500 X3.724 Y145.145
M204 S500
G1 F1500 X75.971 Y217.392 E304.62038
M204 S2000
G0 F7500 X76.537 Y217.392
M204 S500
G1 F1500 X3.724 Y144.58 E308.04525
M204 S2000
G0 F7500 X3.724 Y144.014
M204 S500
G1 F1500 X77.102 Y217.392 E311.49673
M204 S2000
G0 F7500 X77.668 Y217.392
M204 S500
G1 F1500 X3.724 Y143.448 E314.97483
M204 S2000
G0 F7500 X3.724 Y142.882
M204 S500
G1 F1500 X78.234 Y217.392 E318.47955
M204 S2000
G0 F7500 X78.799 Y217.392
M204 S500
G1 F1500 X3.724 Y142.317 E322.01085
M204 S2000
G0 F7500 X3.724 Y141.751
M204 S500
G1 F1500 X79.365 Y217.392 E325.56877
M204 S2000
G0 F7500 X79.931 Y217.392
M204 S500
G1 F1500 X3.724 Y141.185 E329.15331
M204 S2000
G0 F7500 X3.724 Y140.62
M204 S500
G1 F1500 X80.497 Y217.392 E332.76446
M204 S2000
G0 F7500 X81.062 Y217.392
M204 S500
G1 F1500 X3.724 Y140.054 E336.4022
M204 S2000
G0 F7500 X3.724 Y139.488
M204 S500
G1 F1500 X81.628 Y217.392 E340.06656
M204 S2000
G0 F7500 X82.194 Y217.392
M204 S500
G1 F1500 X3.724 Y138.923 E343.75753
M204 S2000
G0 F7500 X3.724 Y138.357
M204 S500
G1 F1500 X82.759 Y217.392 E347.47509
M204 S2000
G0 F7500 X83.325 Y217.392
M204 S500
G1 F1500 X3.724 Y137.791 E351.21928
M204 S2000
G0 F7500 X3.724 Y137.226
M204 S500
G1 F1500 X83.891 Y217.392 E354.99007
M204 S2000
G0 F7500 X84.456 Y217.392
M204 S500
G1 F1500 X3.724 Y136.66 E358.78745
M204 S2000
G0 F7500 X3.724 Y136.094
M204 S500
G1 F1500 X85.022 Y217.392 E362.61146
M204 S2000
G0 F7500 X85.588 Y217.392
M204 S500
G1 F1500 X3.724 Y135.529 E366.46207
M204 S2000
G0 F7500 X3.724 Y134.963
M204 S500
G1 F1500 X86.153 Y217.392 E370.33928
M204 S2000
G0 F7500 X86.719 Y217.392
M204 S500
G1 F1500 X3.724 Y134.397 E374.24311
M204 S2000
G0 F7500 X3.724 Y133.831
M204 S500
G1 F1500 X87.285 Y217.392 E378.17356
M204 S2000
G0 F7500 X87.85 Y217.392
M204 S500
G1 F1500 X3.724 Y133.266 E382.13059
M204 S2000
G0 F7500 X3.724 Y132.7
M204 S500
G1 F1500 X88.416 Y217.392 E386.11424
M204 S2000
G0 F7500 X88.982 Y217.392
M204 S500
G1 F1500 X3.724 Y132.134 E390.12452
M204 S2000
G0 F7500 X3.724 Y131.569
M204 S500
G1 F1500 X89.548 Y217.392 E394.16139
M204 S2000
G0 F7500 X90.113 Y217.392
M204 S500
G1 F1500 X3.724 Y131.003 E398.22486
M204 S2000
G0 F7500 X3.724 Y130.437
M204 S500
G1 F1500 X90.679 Y217.392 E402.31496
M204 S2000
G0 F7500 X91.245 Y217.392
M204 S500
G1 F1500 X3.724 Y129.872 E406.43166
M204 S2000
G0 F7500 X3.724 Y129.306
M204 S500
G1 F1500 X91.81 Y217.392 E410.57495
M204 S2000
G0 F7500 X92.376 Y217.392
M204 S500
G1 F1500 X3.724 Y128.74 E414.74487
M204 S2000
G0 F7500 X3.724 Y128.175
M204 S500
G1 F1500 X92.942 Y217.392 E418.94139
M204 S2000
G0 F7500 X93.507 Y217.392
M204 S500
G1 F1500 X3.724 Y127.609 E423.16451
M204 S2000
G0 F7500 X3.724 Y127.043
M204 S500
G1 F1500 X94.073 Y217.392 E427.41425
M204 S2000
G0 F7500 X94.639 Y217.392
M204 S500
G1 F1500 X3.724 Y126.478 E431.69058
M204 S2000
G0 F7500 X3.724 Y125.912
M204 S500
G1 F1500 X95.204 Y217.392 E435.99352
M204 S2000
G0 F7500 X95.77 Y217.392
M204 S500
G1 F1500 X3.724 Y125.346 E440.32309
M204 S2000
G0 F7500 X3.724 Y124.781
M204 S500
G1 F1500 X96.336 Y217.392 E444.67925
M204 S2000
G0 F7500 X96.901 Y217.392
M204 S500
G1 F1500 X3.724 Y124.215 E449.06201
M204 S2000
G0 F7500 X3.724 Y123.649
M204 S500
G1 F1500 X97.467 Y217.392 E453.47139
M204 S2000
G0 F7500 X98.033 Y217.392
M204 S500
G1 F1500 X3.724 Y123.083 E457.9074
M204 S2000
G0 F7500 X3.724 Y122.518
M204 S500
G1 F1500 X98.598 Y217.392 E462.36998
M204 S2000
G0 F7500 X99.164 Y217.392
M204 S500
G1 F1500 X3.724 Y121.952 E466.85918
M204 S2000
G0 F7500 X3.724 Y121.386
M204 S500
G1 F1500 X99.73 Y217.392 E471.37501
M204 S2000
G0 F7500 X100.296 Y217.392
M204 S500
G1 F1500 X3.724 Y120.821 E475.91744
M204 S2000
G0 F7500 X3.724 Y120.255
M204 S500
G1 F1500 X100.861 Y217.392 E480.48647
M204 S2000
G0 F7500 X101.427 Y217.392
M204 S500
G1 F1500 X3.724 Y119.689 E485.08211
M204 S2000
G0 F7500 X3.724 Y119.124
M204 S500
G1 F1500 X101.993 Y217.392 E489.70436
M204 S2000
G0 F7500 X102.558 Y217.392
M204 S500
