;FLAVOR:Marlin
;TIME:21779
;Filament used: 19.3994m
;Layer height: 0.2
;MINX:12.243
;MINY:8.572
;MINZ:0.2
;MAXX:210.978
;MAXY:207.311
;MAXZ:29
;TARGET_MACHINE.NAME:Creality Ender-3 S1
;Generated with Cura_SteamEngine 5.6.0
M82 ;absolute extrusion mode
; Ender 3 S1 Start G-code
; M413 S0 ; Disable power loss recovery
G92 E0 ; Reset Extruder

; Prep surfaces before auto home for better accuracy
M140 S60
M104 S200

G28 ; Home all axes
G1 Z10.0 F3000 ; Move Z Axis up little to prevent scratching of Heat Bed
G1 X0 Y0

M190 S60
M109 S200

G1 X0.1 Y20 Z0.3 F5000.0 ; Move to start position
G1 X0.1 Y200.0 Z0.3 F1500.0 E15 ; Draw the first line
G1 X0.4 Y200.0 Z0.3 F5000.0 ; Move to side a little
G1 X0.4 Y20 Z0.3 F1500.0 E30 ; Draw the second line
G92 E0 ; Reset Extruder
G1 Z2.0 F3000 ; Move Z Axis up little to prevent scratching of Heat Bed
G1 X5 Y20 Z0.3 F5000.0 ; Move over to prevent blob squish

G92 E0
G92 E0
G1 F2400 E-0.8
;LAYER_COUNT:145
;LAYER:0
M107
M204 S2000
G0 F7500 X15.67 Y25.694 Z0.2
M204 S500
;TYPE:SKIRT
G1 F2400 E0
G1 F1500 X29.224 Y12.142 E0.63749
G1 X29.731 Y11.65 E0.66099
G1 X30.406 Y11.05 E0.69103
G1 X31.246 Y10.427 E0.72581
G1 X32.079 Y9.922 E0.75821
G1 X32.951 Y9.492 E0.79055
G1 X33.792 Y9.163 E0.82058
G1 X34.796 Y8.873 E0.85534
G1 X35.752 Y8.686 E0.88774
G1 X36.722 Y8.586 E0.92017
G1 X37.695 Y8.572 E0.95254
G1 X38.667 Y8.643 E0.98496
G1 X39.626 Y8.801 E1.01728
G1 X40.57 Y9.042 E1.04969
G1 X41.422 Y9.34 E1.07971
G1 X42.374 Y9.772 E1.11448
G1 X43.222 Y10.252 E1.14689
G1 X43.966 Y10.764 E1.17693
G1 X44.463 Y11.16 E1.19806
G1 X44.872 Y11.505 E1.21586
G1 X46.875 Y13.142 E1.3019
G1 X48.864 Y14.678 E1.38548
G1 X50.92 Y16.172 E1.47001
G1 X52.981 Y17.585 E1.55313
G1 X55.119 Y18.962 E1.63771
G1 X57.239 Y20.244 E1.72011
G1 X59.451 Y21.498 E1.80468
G1 X61.664 Y22.671 E1.88799
G1 X63.933 Y23.792 E1.97216
G1 X66.208 Y24.838 E2.05544
G1 X68.538 Y25.83 E2.13967
G1 X70.925 Y26.768 E2.22497
G1 X73.221 Y27.594 E2.30613
G1 X75.638 Y28.389 E2.39076
G1 X78.052 Y29.108 E2.47453
G1 X80.478 Y29.756 E2.55805
G1 X82.901 Y30.331 E2.64088
G1 X85.428 Y30.855 E2.72671
G1 X87.846 Y31.285 E2.8084
G1 X90.396 Y31.665 E2.89415
G1 X92.866 Y31.963 E2.9769
G1 X95.345 Y32.19 E3.05969
G1 X97.865 Y32.349 E3.14367
G1 X100.405 Y32.438 E3.22821
G1 X102.897 Y32.454 E3.31109
G1 X105.443 Y32.399 E3.39579
G1 X107.929 Y32.275 E3.47858
G1 X110.457 Y32.075 E3.56293
G1 X112.976 Y31.807 E3.64718
G1 X115.416 Y31.475 E3.72908
G1 X117.934 Y31.062 E3.81395
G1 X120.432 Y30.579 E3.89857
G1 X122.833 Y30.041 E3.98041
G1 X125.273 Y29.424 E4.06412
G1 X127.721 Y28.728 E4.14877
G1 X130.154 Y27.964 E4.23359
G1 X132.499 Y27.153 E4.31611
G1 X134.851 Y26.265 E4.39973
G1 X137.238 Y25.286 E4.48554
G1 X138.482 Y24.752 E4.53057
G1 X139.392 Y24.411 E4.56289
G1 X140.291 Y24.16 E4.59393
G1 X141.005 Y24.016 E4.61816
G1 X141.355 Y23.96 E4.62995
G1 X142.276 Y23.851 E4.6608
G1 X142.785 Y23.823 E4.67775
G1 X143.391 Y23.809 E4.69791
G1 X176.571 Y23.809 E5.80148
G1 X177.324 Y23.822 E5.82653
G1 X178.29 Y23.882 E5.85872
G1 X179.174 Y24.008 E5.88842
G1 X180.154 Y24.214 E5.92173
G1 X181.018 Y24.475 E5.95175
G1 X182.359 Y25.042 E6.00017
G1 X182.665 Y25.196 E6.01157
G1 X183.483 Y25.657 E6.0428
G1 X184.329 Y26.239 E6.07695
G1 X185.352 Y27.118 E6.12181
G1 X185.632 Y27.39 E6.13479
G1 X186.271 Y28.078 E6.16602
G1 X186.889 Y28.875 E6.19957
G1 X187.411 Y29.688 E6.2317
G1 X187.8 Y30.409 E6.25895
G1 X188.221 Y31.314 E6.29215
G1 X188.552 Y32.23 E6.32454
G1 X188.784 Y33.102 E6.35455
G1 X188.957 Y34.051 E6.38664
G1 X189.066 Y34.973 E6.41752
G1 X189.094 Y35.484 E6.43454
G1 X189.108 Y36.09 E6.4547
G1 X189.108 Y72.604 E7.66916
G1 X189.095 Y73.357 E7.69421
G1 X189.035 Y74.324 E7.72643
G1 X188.906 Y75.224 E7.75667
G1 X188.708 Y76.173 E7.78892
G1 X188.469 Y76.977 E7.81682
G1 X187.63 Y79.453 E7.90377
G1 X186.885 Y81.871 E7.98792
G1 X186.209 Y84.305 E8.07194
G1 X185.605 Y86.756 E8.1559
G1 X185.073 Y89.202 E8.23916
G1 X184.61 Y91.668 E8.32261
G1 X184.211 Y94.184 E8.40734
G1 X183.891 Y96.656 E8.49024
G1 X183.636 Y99.168 E8.57422
G1 X183.456 Y101.666 E8.65752
G1 X183.355 Y103.712 E8.72565
G1 X183.136 Y106.405 E8.81552
G1 X182.994 Y108.938 E8.8999
G1 X182.922 Y111.472 E8.98421
G1 X182.922 Y113.984 E9.06776
G1 X182.994 Y116.495 E9.15131
G1 X183.137 Y119.01 E9.2351
G1 X183.35 Y121.534 E9.31934
G1 X183.632 Y124.005 E9.40206
G1 X183.984 Y126.484 E9.48534
G1 X184.411 Y128.974 E9.56937
G1 X184.899 Y131.409 E9.65197
G1 X185.475 Y133.912 E9.73739
G1 X186.097 Y136.303 E9.81957
G1 X186.804 Y138.737 E9.90387
G1 X187.588 Y141.173 E9.98898
G1 X188.41 Y143.507 E10.07128
G1 X189.32 Y145.873 E10.1556
G1 X190.284 Y148.178 E10.2387
G1 X191.327 Y150.483 E10.32285
G1 X192.429 Y152.752 E10.40674
G1 X193.595 Y154.985 E10.49053
G1 X194.833 Y157.205 E10.57507
G1 X196.099 Y159.327 E10.65726
G1 X197.477 Y161.497 E10.74275
G1 X198.872 Y163.563 E10.82567
G1 X200.329 Y165.595 E10.90883
G1 X201.88 Y167.634 E10.99404
G1 X203.432 Y169.557 E11.07623
G1 X205.054 Y171.456 E11.15929
G1 X206.79 Y173.374 E11.24533
G1 X207.992 Y174.642 E11.30345
G1 X208.606 Y175.352 E11.33467
G1 X209.197 Y176.17 E11.36823
G1 X209.676 Y176.978 E11.39947
G1 X210.112 Y177.889 E11.43306
G1 X210.441 Y178.767 E11.46425
G1 X210.71 Y179.74 E11.49783
G1 X210.885 Y180.698 E11.53022
G1 X210.974 Y181.667 E11.56258
G1 X210.978 Y182.641 E11.59498
G1 X210.903 Y183.541 E11.62501
G1 X210.726 Y184.571 E11.65977
G1 X210.483 Y185.478 E11.691
G1 X210.136 Y186.426 E11.72458
G1 X209.722 Y187.307 E11.75696
G1 X209.231 Y188.147 E11.78932
G1 X208.667 Y188.942 E11.82174
G1 X208.037 Y189.683 E11.85409
G1 X207.56 Y190.184 E11.8771
G1 X194.021 Y203.723 E12.51393
G1 X193.506 Y204.223 E12.5378
G1 X192.831 Y204.824 E12.56786
G1 X191.994 Y205.446 E12.60255
G1 X191.225 Y205.919 E12.63258
G1 X190.288 Y206.384 E12.66737
G1 X189.413 Y206.726 E12.69861
G1 X188.445 Y207.006 E12.73213
G1 X187.489 Y207.194 E12.76453
G1 X186.52 Y207.296 E12.79694
G1 X185.545 Y207.311 E12.82937
G1 X184.575 Y207.24 E12.86172
G1 X183.612 Y207.084 E12.89417
G1 X182.67 Y206.843 E12.92651
G1 X181.785 Y206.533 E12.9577
G1 X180.864 Y206.116 E12.99132
G1 X180.017 Y205.636 E13.02371
G1 X179.239 Y205.101 E13.05511
G1 X178.301 Y204.308 E13.09596
G1 X177.851 Y203.876 E13.11671
G1 X175.527 Y201.552 E13.22602
G1 X173.611 Y199.69 E13.31489
G1 X171.745 Y197.977 E13.39914
G1 X169.885 Y196.363 E13.48104
G1 X167.893 Y194.73 E13.56671
G1 X165.802 Y193.11 E13.65469
G1 X165.038 Y192.458 E13.6881
G1 X164.571 Y192.013 E13.70955
G1 X27.693 Y55.135 E20.14787
G1 X27.223 Y54.651 E20.17031
G1 X26.417 Y53.72 E20.21127
G1 X25.413 Y52.423 E20.26582
G1 X23.81 Y50.42 E20.35115
G1 X22.164 Y48.481 E20.43575
G1 X20.499 Y46.627 E20.51863
G1 X17.951 Y43.977 E20.6409
G1 X15.804 Y41.83 E20.74189
G1 X15.326 Y41.337 E20.76473
G1 X14.726 Y40.662 E20.79476
G1 X14.104 Y39.822 E20.82953
G1 X13.598 Y38.991 E20.86189
G1 X13.166 Y38.118 E20.89429
G1 X12.837 Y37.277 E20.92432
G1 X12.554 Y36.308 E20.9579
G1 X12.359 Y35.317 E20.99149
G1 X12.258 Y34.349 E21.02386
G1 X12.243 Y33.375 E21.05626
G1 X12.315 Y32.405 E21.08861
G1 X12.471 Y31.443 E21.12102
G1 X12.712 Y30.499 E21.15343
G1 X13.01 Y29.647 E21.18345
G1 X13.441 Y28.695 E21.21821
G1 X13.922 Y27.848 E21.2506
G1 X14.48 Y27.04 E21.28326
G1 X15.234 Y26.148 E21.32211
G1 X15.67 Y25.694 E21.34305
M204 S2000
G0 F7500 X15.953 Y25.977
M204 S500
G1 F1500 X29.502 Y12.429 E21.98033
G1 X29.997 Y11.949 E22.00326
G1 X30.672 Y11.349 E22.0333
G1 X31.454 Y10.769 E22.06568
G1 X32.256 Y10.281 E22.09691
G1 X33.097 Y9.865 E22.12811
G1 X33.938 Y9.536 E22.15815
G1 X34.873 Y9.265 E22.19053
G1 X35.794 Y9.084 E22.22175
G1 X36.728 Y8.986 E22.25298
G1 X37.666 Y8.971 E22.28418
G1 X38.603 Y9.038 E22.31543
G1 X39.528 Y9.189 E22.3466
G1 X40.438 Y9.42 E22.37783
G1 X41.29 Y9.718 E22.40785
G1 X42.177 Y10.12 E22.44024
G1 X42.995 Y10.582 E22.47148
G1 X43.739 Y11.094 E22.50152
G1 X44.205 Y11.465 E22.52133
G1 X44.619 Y11.815 E22.53937
G1 X46.631 Y13.459 E22.62578
G1 X48.629 Y15.002 E22.70975
G1 X50.685 Y16.496 E22.79428
G1 X52.764 Y17.921 E22.87811
G1 X54.902 Y19.298 E22.96269
G1 X57.042 Y20.592 E23.04587
G1 X59.254 Y21.846 E23.13044
G1 X61.487 Y23.03 E23.2145
G1 X63.756 Y24.151 E23.29868
G1 X66.051 Y25.206 E23.38269
G1 X68.381 Y26.198 E23.46692
G1 X70.78 Y27.141 E23.55265
G1 X73.096 Y27.974 E23.63451
G1 X75.513 Y28.769 E23.71914
G1 X77.94 Y29.492 E23.80337
G1 X80.386 Y30.145 E23.88757
G1 X82.82 Y30.723 E23.97078
G1 X85.348 Y31.247 E24.05665
G1 X87.787 Y31.681 E24.13904
G1 X90.337 Y32.061 E24.22479
G1 X92.818 Y32.36 E24.30791
G1 X95.316 Y32.589 E24.39134
G1 X97.851 Y32.749 E24.47582
G1 X100.391 Y32.838 E24.56036
G1 X102.903 Y32.854 E24.64391
G1 X105.463 Y32.799 E24.72907
G1 X107.949 Y32.675 E24.81186
G1 X110.494 Y32.474 E24.89677
G1 X113.018 Y32.205 E24.98119
G1 X115.481 Y31.87 E25.06387
G1 X118.003 Y31.456 E25.14887
G1 X120.508 Y30.971 E25.23374
G1 X122.931 Y30.429 E25.31632
G1 X125.371 Y29.812 E25.40003
G1 X127.841 Y29.11 E25.48543
G1 X130.274 Y28.346 E25.57025
G1 X132.63 Y27.531 E25.65317
G1 X135.003 Y26.635 E25.73753
G1 X137.39 Y25.656 E25.82334
G1 X138.623 Y25.126 E25.86798
G1 X139.5 Y24.796 E25.89915
G1 X140.37 Y24.552 E25.9292
G1 X141.069 Y24.411 E25.95292
G1 X141.402 Y24.357 E25.96414
G1 X142.298 Y24.25 E25.99415
G1 X142.794 Y24.223 E26.01067
G1 X143.4 Y24.209 E26.03083
G1 X176.564 Y24.209 E27.13387
G1 X177.3 Y24.221 E27.15835
G1 X178.234 Y24.278 E27.18948
G1 X179.118 Y24.404 E27.21918
G1 X180.038 Y24.597 E27.25044
G1 X180.902 Y24.858 E27.28046
G1 X182.179 Y25.399 E27.32659
G1 X182.469 Y25.545 E27.33739
G1 X183.257 Y25.987 E27.36744
G1 X184.068 Y26.542 E27.40012
G1 X185.091 Y27.421 E27.44498
G1 X185.339 Y27.663 E27.45651
G1 X185.955 Y28.324 E27.48656
G1 X186.553 Y29.092 E27.51893
G1 X187.059 Y29.878 E27.55002
G1 X187.448 Y30.599 E27.57727
G1 X187.845 Y31.45 E27.60851
G1 X188.165 Y32.333 E27.63974
G1 X188.397 Y33.205 E27.66976
G1 X188.56 Y34.098 E27.69995
G1 X188.667 Y34.995 E27.72999
G1 X188.694 Y35.493 E27.74658
G1 X188.708 Y36.099 E27.76674
G1 X188.708 Y72.597 E28.98067
G1 X188.696 Y73.333 E29.00515
G1 X188.639 Y74.267 E29.03628
G1 X188.514 Y75.143 E29.06571
G1 X188.324 Y76.059 E29.09682
G1 X188.09 Y76.849 E29.12423
G1 X187.251 Y79.325 E29.21118
G1 X186.503 Y81.753 E29.29568
G1 X185.824 Y84.198 E29.38008
G1 X185.214 Y86.671 E29.46479
G1 X184.682 Y89.117 E29.54805
G1 X184.217 Y91.594 E29.63188
G1 X183.816 Y94.121 E29.71698
G1 X183.494 Y96.605 E29.80028
G1 X183.238 Y99.128 E29.88463
G1 X183.056 Y101.646 E29.9686
G1 X182.956 Y103.68 E30.03633
G1 X182.738 Y106.373 E30.12619
G1 X182.594 Y108.927 E30.21127
G1 X182.522 Y111.461 E30.29559
G1 X182.522 Y113.984 E30.37951
G1 X182.594 Y116.506 E30.46342
G1 X182.738 Y119.044 E30.54797
G1 X182.952 Y121.568 E30.63222
G1 X183.236 Y124.061 E30.71568
G1 X183.59 Y126.552 E30.79936
G1 X184.019 Y129.053 E30.88376
G1 X184.509 Y131.499 E30.96673
G1 X185.088 Y134.013 E31.05253
G1 X185.713 Y136.415 E31.13508
G1 X186.423 Y138.86 E31.21976
G1 X187.207 Y141.296 E31.30488
G1 X188.037 Y143.651 E31.38793
G1 X188.951 Y146.027 E31.4726
G1 X189.92 Y148.343 E31.5561
G1 X190.967 Y150.658 E31.64061
G1 X192.074 Y152.937 E31.72488
G1 X193.24 Y155.17 E31.80866
G1 X194.489 Y157.41 E31.89396
G1 X195.755 Y159.532 E31.97615
G1 X197.145 Y161.721 E32.06239
G1 X198.54 Y163.787 E32.14531
G1 X200.004 Y165.828 E32.22885
G1 X201.569 Y167.885 E32.31481
G1 X203.128 Y169.817 E32.39738
G1 X204.757 Y171.724 E32.4808
G1 X206.493 Y173.642 E32.56684
G1 X207.689 Y174.904 E32.62467
G1 X208.303 Y175.614 E32.65589
G1 X208.853 Y176.375 E32.68712
G1 X209.315 Y177.151 E32.71716
G1 X209.737 Y178.029 E32.74956
G1 X210.066 Y178.907 E32.78075
G1 X210.317 Y179.812 E32.81198
G1 X210.487 Y180.735 E32.8432
G1 X210.574 Y181.669 E32.8744
G1 X210.579 Y182.608 E32.90563
G1 X210.504 Y183.508 E32.93567
G1 X210.339 Y184.468 E32.96807
G1 X210.107 Y185.341 E32.99811
G1 X209.774 Y186.256 E33.0305
G1 X209.376 Y187.106 E33.06171
G1 X208.904 Y187.916 E33.09289
G1 X208.362 Y188.683 E33.12413
G1 X207.747 Y189.407 E33.15573
G1 X207.27 Y189.908 E33.17873
G1 X193.742 Y203.436 E33.81505
G1 X193.24 Y203.924 E33.83833
G1 X192.565 Y204.525 E33.86839
G1 X191.784 Y205.105 E33.90075
G1 X191.015 Y205.578 E33.93078
G1 X190.142 Y206.011 E33.96319
G1 X189.267 Y206.353 E33.99444
G1 X188.367 Y206.614 E34.0256
G1 X187.446 Y206.796 E34.05683
G1 X186.513 Y206.896 E34.08804
G1 X185.574 Y206.912 E34.11927
G1 X184.638 Y206.845 E34.15049
G1 X183.711 Y206.696 E34.18171
G1 X182.802 Y206.465 E34.21291
G1 X181.917 Y206.155 E34.2441
G1 X181.061 Y205.768 E34.27534
G1 X180.244 Y205.306 E34.30656
G1 X179.466 Y204.771 E34.33796
G1 X178.578 Y204.019 E34.37667
G1 X178.128 Y203.587 E34.39741
G1 X175.81 Y201.269 E34.50645
G1 X173.882 Y199.395 E34.59587
G1 X172.016 Y197.682 E34.68012
G1 X170.139 Y196.054 E34.76276
G1 X168.147 Y194.421 E34.84843
G1 X166.062 Y192.806 E34.93615
G1 X165.314 Y192.168 E34.96885
G1 X164.847 Y191.723 E34.9903
G1 X27.98 Y54.856 E41.42811
G1 X27.51 Y54.372 E41.45055
G1 X26.733 Y53.475 E41.49002
G1 X25.729 Y52.178 E41.54457
G1 X24.115 Y50.161 E41.63049
G1 X22.469 Y48.222 E41.71509
G1 X20.797 Y46.36 E41.79832
G1 X18.234 Y43.694 E41.92132
G1 X16.091 Y41.551 E42.02212
G1 X15.625 Y41.071 E42.04437
G1 X15.025 Y40.396 E42.07441
G1 X14.445 Y39.614 E42.10679
G1 X13.956 Y38.813 E42.13801
G1 X13.539 Y37.972 E42.16923
G1 X13.21 Y37.131 E42.19926
G1 X12.938 Y36.196 E42.23165
G1 X12.757 Y35.275 E42.26287
G1 X12.658 Y34.342 E42.29408
G1 X12.642 Y33.404 E42.32528
G1 X12.71 Y32.468 E42.35649
G1 X12.859 Y31.541 E42.38772
G1 X13.09 Y30.631 E42.41895
G1 X13.388 Y29.779 E42.44897
G1 X13.789 Y28.892 E42.48134
G1 X14.251 Y28.075 E42.51256
G1 X14.786 Y27.298 E42.54394
G1 X15.523 Y26.425 E42.58194
G1 X15.953 Y25.977 E42.60259
M204 S2000
G0 F7500 X16.236 Y26.26
M204 S500
G1 F1500 X29.781 Y12.716 E43.23968
G1 X30.263 Y12.248 E43.26203
G1 X30.938 Y11.648 E43.29207
G1 X31.663 Y11.11 E43.32209
G1 X32.434 Y10.639 E43.35214
G1 X33.243 Y10.238 E43.38218
G1 X34.084 Y9.909 E43.41221
G1 X34.951 Y9.657 E43.44224
G1 X35.837 Y9.482 E43.47228
G1 X36.735 Y9.386 E43.50232
G1 X37.638 Y9.37 E43.53236
G1 X38.539 Y9.433 E43.5624
G1 X39.43 Y9.577 E43.59242
G1 X40.306 Y9.798 E43.62246
G1 X41.158 Y10.096 E43.65249
G1 X41.981 Y10.469 E43.68254
G1 X42.768 Y10.912 E43.71258
G1 X43.512 Y11.424 E43.74262
G1 X43.947 Y11.771 E43.76112
G1 X44.366 Y12.125 E43.77937
G1 X46.387 Y13.776 E43.86616
G1 X48.394 Y15.326 E43.95051
G1 X50.45 Y16.82 E44.03504
G1 X52.547 Y18.257 E44.11959
G1 X54.685 Y19.634 E44.20417
G1 X56.845 Y20.94 E44.28812
G1 X59.057 Y22.194 E44.3727
G1 X61.31 Y23.389 E44.45752
G1 X63.579 Y24.51 E44.54169
G1 X65.894 Y25.574 E44.62643
G1 X68.224 Y26.566 E44.71066
G1 X70.635 Y27.513 E44.79682
G1 X72.971 Y28.354 E44.87939
G1 X75.388 Y29.149 E44.96402
G1 X77.828 Y29.876 E45.0487
G1 X80.294 Y30.534 E45.13359
G1 X82.739 Y31.115 E45.21717
G1 X85.268 Y31.639 E45.30308
G1 X87.728 Y32.077 E45.38618
G1 X90.278 Y32.457 E45.47193
G1 X92.77 Y32.757 E45.55542
G1 X95.291 Y32.988 E45.63962
G1 X97.837 Y33.149 E45.72447
G1 X100.377 Y33.238 E45.809
G1 X102.909 Y33.254 E45.89321
G1 X105.472 Y33.199 E45.97848
G1 X107.98 Y33.073 E46.062
G1 X110.535 Y32.872 E46.14724
G1 X113.061 Y32.602 E46.23174
G1 X115.546 Y32.265 E46.31514
G1 X118.072 Y31.85 E46.40029
G1 X120.584 Y31.363 E46.48539
G1 X123.029 Y30.817 E46.56872
G1 X125.469 Y30.2 E46.65242
G1 X127.961 Y29.492 E46.73859
G1 X130.394 Y28.728 E46.82341
G1 X132.761 Y27.909 E46.90671
G1 X135.155 Y27.005 E46.99183
G1 X137.542 Y26.026 E47.07764
G1 X138.764 Y25.5 E47.12188
G1 X139.608 Y25.181 E47.15189
G1 X140.478 Y24.937 E47.18195
G1 X141.134 Y24.806 E47.2042
G1 X141.449 Y24.754 E47.21482
G1 X142.345 Y24.647 E47.24483
G1 X142.803 Y24.623 E47.26008
G1 X143.409 Y24.609 E47.28024
G1 X176.558 Y24.609 E48.38278
G1 X177.276 Y24.62 E48.40667
G1 X178.178 Y24.674 E48.43672
G1 X179.037 Y24.796 E48.46558
G1 X179.922 Y24.98 E48.49564
G1 X180.786 Y25.241 E48.52566
G1 X181.999 Y25.756 E48.56949
G1 X182.273 Y25.894 E48.5797
G1 X183.061 Y26.336 E48.60975
G1 X183.807 Y26.845 E48.63978
G1 X184.83 Y27.724 E48.68464
G1 X185.046 Y27.936 E48.69471
G1 X185.662 Y28.597 E48.72476
G1 X186.217 Y29.309 E48.75479
