;FLAVOR:Marlin
;TIME:16561
;Filament used: 12.9422m
;Layer height: 0.2
;MINX:10.741
;MINY:10.507
;MINZ:0.2
;MAXX:209.479
;MAXY:209.246
;MAXZ:28
;TARGET_MACHINE.NAME:Creality Ender-3 S1
;Generated with Cura_SteamEngine 5.6.0
M82 ;absolute extrusion mode
; Ender 3 S1 Start G-code
; M413 S0 ; Disable power loss recovery
G92 E0 ; Reset Extruder

; Prep surfaces before auto home for better accuracy
M140 S60
M104 S200

G28 ; Home all axes
G1 Z10.0 F3000 ; Move Z Axis up little to prevent scratching of Heat Bed
G1 X0 Y0

M190 S60
M109 S200

G1 X0.1 Y20 Z0.3 F5000.0 ; Move to start position
G1 X0.1 Y200.0 Z0.3 F1500.0 E15 ; Draw the first line
G1 X0.4 Y200.0 Z0.3 F5000.0 ; Move to side a little
G1 X0.4 Y20 Z0.3 F1500.0 E30 ; Draw the second line
G92 E0 ; Reset Extruder
G1 Z2.0 F3000 ; Move Z Axis up little to prevent scratching of Heat Bed
G1 X5 Y20 Z0.3 F5000.0 ; Move over to prevent blob squish

G92 E0
G92 E0
G1 F2400 E-0.8
;LAYER_COUNT:140
;LAYER:0
M107
M204 S2000
G0 F7500 X14.16 Y27.638 Z0.2
M204 S500
;TYPE:SKIRT
G1 F2400 E0
G1 F1500 X27.714 Y14.084 E0.63754
G1 X28.207 Y13.605 E0.6604
G1 X28.95 Y12.949 E0.69337
G1 X29.735 Y12.37 E0.72581
G1 X30.566 Y11.864 E0.75817
G1 X31.438 Y11.432 E0.79054
G1 X32.279 Y11.103 E0.82057
G1 X33.282 Y10.811 E0.85532
G1 X34.239 Y10.623 E0.88776
G1 X35.207 Y10.522 E0.92013
G1 X36.182 Y10.507 E0.95256
G1 X37.152 Y10.578 E0.98491
G1 X38.112 Y10.735 E1.01726
G1 X39.023 Y10.965 E1.04851
G1 X39.975 Y11.3 E1.08208
G1 X40.862 Y11.703 E1.11448
G1 X41.709 Y12.183 E1.14686
G1 X42.484 Y12.716 E1.17815
G1 X43.304 Y13.397 E1.2136
G1 X45.389 Y15.311 E1.30774
G1 X47.272 Y16.942 E1.39059
G1 X49.202 Y18.521 E1.47353
G1 X51.241 Y20.094 E1.55918
G1 X53.261 Y21.564 E1.64228
G1 X55.3 Y22.96 E1.72446
G1 X57.473 Y24.36 E1.81044
G1 X59.581 Y25.635 E1.89238
G1 X61.814 Y26.902 E1.97777
G1 X64.005 Y28.062 E2.06023
G1 X66.28 Y29.187 E2.14464
G1 X68.531 Y30.222 E2.22704
G1 X70.905 Y31.233 E2.31287
G1 X73.233 Y32.147 E2.39605
G1 X75.575 Y32.991 E2.47885
G1 X77.972 Y33.779 E2.56277
G1 X80.389 Y34.499 E2.64665
G1 X82.832 Y35.152 E2.73076
G1 X85.264 Y35.728 E2.81388
G1 X87.749 Y36.243 E2.89829
G1 X90.19 Y36.677 E2.98075
G1 X92.729 Y37.056 E3.06614
G1 X95.233 Y37.358 E3.15002
G1 X97.669 Y37.581 E3.23138
G1 X100.218 Y37.742 E3.31633
G1 X102.75 Y37.831 E3.4006
G1 X105.242 Y37.847 E3.48349
G1 X107.787 Y37.792 E3.56815
G1 X110.273 Y37.668 E3.65094
G1 X112.814 Y37.467 E3.73572
G1 X115.322 Y37.2 E3.81961
G1 X116.245 Y37.089 E3.85053
G1 X117.218 Y37.018 E3.88297
G1 X118.192 Y37.033 E3.91537
G1 X119.159 Y37.135 E3.94771
G1 X120.115 Y37.321 E3.98011
G1 X120.983 Y37.569 E4.01013
G1 X121.959 Y37.945 E4.04492
G1 X122.832 Y38.376 E4.0773
G1 X123.663 Y38.882 E4.10966
G1 X124.445 Y39.457 E4.14195
G1 X125.053 Y39.987 E4.16877
G1 X125.554 Y40.465 E4.1918
G1 X132.018 Y46.931 E4.4959
G1 X132.504 Y47.432 E4.51911
G1 X133.162 Y48.176 E4.55215
G1 X133.699 Y48.902 E4.58218
G1 X134.166 Y49.649 E4.61148
G1 X134.568 Y50.357 E4.63856
G1 X135.132 Y51.386 E4.67759
G1 X136.412 Y53.567 E4.7617
G1 X137.753 Y55.709 E4.84575
G1 X139.155 Y57.817 E4.92996
G1 X140.587 Y59.844 E5.0125
G1 X142.104 Y61.866 E5.09658
G1 X143.671 Y63.835 E5.18027
G1 X145.299 Y65.769 E5.26436
G1 X146.966 Y67.634 E5.34755
G1 X148.697 Y69.469 E5.43146
G1 X150.467 Y71.24 E5.51473
G1 X152.327 Y72.999 E5.59988
G1 X154.187 Y74.659 E5.6828
G1 X156.123 Y76.294 E5.76708
G1 X158.092 Y77.863 E5.85082
G1 X160.065 Y79.345 E5.93289
G1 X162.159 Y80.826 E6.0182
G1 X164.264 Y82.229 E6.10234
G1 X166.369 Y83.547 E6.18494
G1 X168.573 Y84.842 E6.26996
G1 X170.279 Y85.791 E6.33489
G1 X171.106 Y86.303 E6.36725
G1 X171.831 Y86.842 E6.39729
G1 X172.427 Y87.361 E6.42358
G1 X172.935 Y87.845 E6.44692
G1 X179.292 Y94.204 E6.74598
G1 X179.888 Y94.818 E6.77444
G1 X180.488 Y95.493 E6.80447
G1 X181.111 Y96.333 E6.83926
G1 X181.616 Y97.166 E6.87166
G1 X182.046 Y98.038 E6.904
G1 X182.375 Y98.879 E6.93403
G1 X182.665 Y99.883 E6.96879
G1 X182.852 Y100.839 E7.00119
G1 X182.952 Y101.809 E7.03362
G1 X182.966 Y102.782 E7.06599
G1 X182.896 Y103.744 E7.09807
G1 X182.636 Y105.947 E7.17185
G1 X182.402 Y108.484 E7.25659
G1 X182.245 Y110.942 E7.33851
G1 X182.155 Y113.501 E7.42367
G1 X182.136 Y116.016 E7.50733
G1 X182.19 Y118.508 E7.59023
G1 X182.313 Y121.036 E7.67441
G1 X182.508 Y123.539 E7.75791
G1 X182.775 Y126.057 E7.84213
G1 X183.108 Y128.52 E7.9248
G1 X183.52 Y131.033 E8.00949
G1 X183.995 Y133.508 E8.09332
G1 X184.532 Y135.917 E8.17541
G1 X185.151 Y138.368 E8.25949
G1 X185.844 Y140.815 E8.34407
G1 X186.598 Y143.223 E8.428
G1 X187.429 Y145.63 E8.51269
G1 X188.3 Y147.943 E8.5949
G1 X189.246 Y150.254 E8.67795
G1 X190.288 Y152.604 E8.76345
G1 X191.364 Y154.86 E8.84659
G1 X192.506 Y157.088 E8.92986
G1 X193.719 Y159.3 E9.01376
G1 X194.993 Y161.472 E9.09751
G1 X196.301 Y163.568 E9.17969
G1 X197.714 Y165.692 E9.26454
G1 X199.197 Y167.792 E9.35004
G1 X200.678 Y169.77 E9.43223
G1 X202.23 Y171.722 E9.51517
G1 X203.88 Y173.681 E9.60036
G1 X205.573 Y175.58 E9.68498
G1 X206.601 Y176.698 E9.7355
G1 X207.227 Y177.446 E9.76794
G1 X207.783 Y178.244 E9.80029
G1 X208.25 Y179.057 E9.83147
G1 X208.646 Y179.908 E9.86269
G1 X209 Y180.893 E9.8975
G1 X209.243 Y181.835 E9.92986
G1 X209.404 Y182.795 E9.96223
G1 X209.479 Y183.767 E9.99466
G1 X209.467 Y184.741 E10.02706
G1 X209.369 Y185.71 E10.05945
G1 X209.186 Y186.667 E10.09186
G1 X208.919 Y187.603 E10.12423
G1 X208.571 Y188.511 E10.15657
G1 X208.143 Y189.387 E10.189
G1 X207.639 Y190.22 E10.22138
G1 X207.067 Y191.002 E10.25361
G1 X206.523 Y191.632 E10.28129
G1 X206.054 Y192.124 E10.3039
G1 X192.518 Y205.659 E10.94057
G1 X192.004 Y206.158 E10.96439
G1 X191.33 Y206.759 E10.99443
G1 X190.491 Y207.381 E11.02917
G1 X189.659 Y207.888 E11.06157
G1 X188.787 Y208.319 E11.09392
G1 X187.912 Y208.661 E11.12517
G1 X186.943 Y208.941 E11.15872
G1 X185.987 Y209.13 E11.19113
G1 X185.019 Y209.231 E11.2235
G1 X184.044 Y209.246 E11.25593
G1 X183.074 Y209.175 E11.28828
G1 X182.112 Y209.019 E11.3207
G1 X181.168 Y208.778 E11.3531
G1 X180.283 Y208.468 E11.38429
G1 X179.363 Y208.051 E11.41789
G1 X178.517 Y207.571 E11.45024
G1 X177.772 Y207.061 E11.48027
G1 X177.284 Y206.675 E11.50096
G1 X176.566 Y206.073 E11.53212
G1 X174.529 Y204.408 E11.61963
G1 X172.59 Y202.912 E11.70108
G1 X170.494 Y201.388 E11.78728
G1 X168.45 Y199.988 E11.86968
G1 X166.305 Y198.606 E11.95455
G1 X164.192 Y197.328 E12.03668
G1 X161.987 Y196.078 E12.12098
G1 X159.769 Y194.903 E12.20447
G1 X157.51 Y193.787 E12.28827
G1 X155.212 Y192.73 E12.3724
G1 X152.895 Y191.743 E12.45616
G1 X150.506 Y190.804 E12.54154
G1 X148.203 Y189.976 E12.62294
G1 X145.807 Y189.188 E12.70683
G1 X143.377 Y188.464 E12.79116
G1 X140.954 Y187.817 E12.87457
G1 X138.532 Y187.243 E12.95736
G1 X136.003 Y186.719 E13.04326
G1 X133.587 Y186.289 E13.12488
G1 X131.037 Y185.909 E13.21063
G1 X128.567 Y185.611 E13.29338
G1 X126.088 Y185.384 E13.37618
G1 X123.568 Y185.225 E13.46016
G1 X120.98 Y185.134 E13.54629
G1 X119.186 Y185.116 E13.60596
G1 X81.236 Y185.115 E14.86818
G1 X80.503 Y185.103 E14.89257
G1 X79.531 Y185.044 E14.92496
G1 X78.568 Y184.898 E14.95735
G1 X77.621 Y184.667 E14.98977
G1 X76.733 Y184.367 E15.02095
G1 X75.841 Y183.977 E15.05333
G1 X74.958 Y183.49 E15.08687
G1 X74.207 Y182.988 E15.11691
G1 X73.392 Y182.33 E15.15175
G1 X72.694 Y181.652 E15.18411
G1 X72.058 Y180.915 E15.21649
G1 X71.488 Y180.125 E15.24889
G1 X71.026 Y179.349 E15.27893
G1 X70.572 Y178.407 E15.31371
G1 X70.243 Y177.529 E15.3449
G1 X69.974 Y176.556 E15.37847
G1 X69.797 Y175.589 E15.41117
G1 X69.7 Y174.4 E15.45085
G1 X69.687 Y173.792 E15.47107
G1 X69.687 Y166.479 E15.71431
G1 X69.65 Y163.885 E15.80059
G1 X69.541 Y161.339 E15.88535
G1 X69.366 Y158.859 E15.96804
G1 X69.121 Y156.392 E16.0505
G1 X68.793 Y153.829 E16.13644
G1 X68.409 Y151.387 E16.21866
G1 X67.907 Y148.686 E16.31003
G1 X67.775 Y147.731 E16.34209
G1 X67.732 Y147.033 E16.36535
G1 X67.717 Y146.394 E16.38661
G1 X67.717 Y132.481 E16.84936
G1 X67.68 Y129.887 E16.93565
G1 X67.571 Y127.341 E17.02041
G1 X67.396 Y124.861 E17.1031
G1 X67.151 Y122.394 E17.18555
G1 X66.823 Y119.831 E17.27149
G1 X66.436 Y117.368 E17.35442
G1 X65.98 Y114.914 E17.43744
G1 X65.444 Y112.431 E17.52192
G1 X64.847 Y109.992 E17.60544
G1 X64.179 Y107.559 E17.68936
G1 X63.455 Y105.199 E17.77146
G1 X62.63 Y102.754 E17.85729
G1 X61.765 Y100.406 E17.94051
G1 X60.841 Y98.109 E18.02286
G1 X59.814 Y95.75 E18.10843
G1 X58.743 Y93.464 E18.1924
G1 X57.624 Y91.242 E18.27514
G1 X56.433 Y89.04 E18.35841
G1 X55.169 Y86.848 E18.44257
G1 X53.833 Y84.677 E18.52735
G1 X52.473 Y82.6 E18.60993
G1 X51.032 Y80.531 E18.69379
G1 X49.535 Y78.505 E18.77757
G1 X47.984 Y76.526 E18.8612
G1 X46.357 Y74.566 E18.94592
G1 X44.706 Y72.689 E19.02907
G1 X43.006 Y70.862 E19.11207
G1 X41.24 Y69.069 E19.19577
G1 X39.417 Y67.322 E19.27975
G1 X37.533 Y65.614 E19.36433
G1 X35.64 Y63.994 E19.4472
G1 X33.659 Y62.392 E19.53194
G1 X31.684 Y60.887 E19.61453
G1 X29.505 Y59.322 E19.70376
G1 X27.977 Y58.259 E19.76567
G1 X27.258 Y57.742 E19.79512
G1 X26.492 Y57.137 E19.82759
G1 X25.783 Y56.464 E19.8601
G1 X25.079 Y55.66 E19.89564
G1 X24.296 Y54.666 E19.93773
G1 X22.678 Y52.666 E20.02329
G1 X21.029 Y50.743 E20.10755
G1 X19.366 Y48.909 E20.18989
G1 X17.109 Y46.572 E20.29795
G1 X14.316 Y43.778 E20.42935
G1 X13.827 Y43.274 E20.4527
G1 X13.226 Y42.6 E20.48274
G1 X12.604 Y41.76 E20.5175
G1 X12.098 Y40.929 E20.54986
G1 X11.665 Y40.056 E20.58227
G1 X11.336 Y39.215 E20.61231
G1 X11.045 Y38.213 E20.64701
G1 X10.857 Y37.256 E20.67945
G1 X10.756 Y36.288 E20.71182
G1 X10.741 Y35.313 E20.74425
G1 X10.812 Y34.342 E20.77664
G1 X10.969 Y33.382 E20.80899
G1 X11.199 Y32.471 E20.84024
G1 X11.534 Y31.52 E20.87378
G1 X11.937 Y30.633 E20.90618
G1 X12.417 Y29.787 E20.93853
G1 X12.952 Y29.01 E20.96991
G1 X13.752 Y28.063 E21.01114
G1 X14.16 Y27.638 E21.03074
M204 S2000
G0 F7500 X14.449 Y27.915
M204 S500
G1 F1500 X27.993 Y14.371 E21.6678
G1 X28.486 Y13.892 E21.69067
G1 X29.188 Y13.27 E21.72186
G1 X29.943 Y12.711 E21.75311
G1 X30.744 Y12.222 E21.78432
G1 X31.584 Y11.805 E21.81551
G1 X32.425 Y11.476 E21.84555
G1 X33.36 Y11.203 E21.87794
G1 X34.281 Y11.021 E21.90917
G1 X35.214 Y10.922 E21.94038
G1 X36.153 Y10.906 E21.97161
G1 X37.088 Y10.973 E22.00279
G1 X38.014 Y11.123 E22.03399
G1 X38.925 Y11.353 E22.06524
G1 X39.81 Y11.664 E22.09644
G1 X40.665 Y12.051 E22.12766
G1 X41.482 Y12.513 E22.15887
G1 X42.257 Y13.046 E22.19016
G1 X43.033 Y13.692 E22.22374
G1 X45.118 Y15.606 E22.31788
G1 X47.019 Y17.252 E22.40151
G1 X48.958 Y18.838 E22.48483
G1 X50.997 Y20.411 E22.57048
G1 X53.035 Y21.894 E22.65431
G1 X55.083 Y23.296 E22.73686
G1 X57.256 Y24.696 E22.82284
G1 X59.384 Y25.983 E22.90555
G1 X61.617 Y27.25 E22.99094
G1 X63.828 Y28.421 E23.07416
G1 X66.103 Y29.546 E23.15857
G1 X68.374 Y30.59 E23.2417
G1 X70.748 Y31.601 E23.32753
G1 X73.097 Y32.523 E23.41146
G1 X75.45 Y33.371 E23.49465
G1 X77.847 Y34.159 E23.57857
G1 X80.277 Y34.883 E23.6629
G1 X82.74 Y35.541 E23.74769
G1 X85.183 Y36.12 E23.8312
G1 X87.669 Y36.635 E23.91564
G1 X90.131 Y37.073 E23.99881
G1 X92.67 Y37.452 E24.08419
G1 X95.185 Y37.755 E24.16845
G1 X97.644 Y37.98 E24.25058
G1 X100.204 Y38.142 E24.33589
G1 X102.736 Y38.231 E24.42016
G1 X105.248 Y38.247 E24.50371
G1 X107.807 Y38.192 E24.58884
G1 X110.293 Y38.068 E24.67163
G1 X112.851 Y37.866 E24.75697
G1 X115.364 Y37.598 E24.84103
G1 X116.275 Y37.488 E24.87155
G1 X117.212 Y37.418 E24.9028
G1 X118.151 Y37.431 E24.93404
G1 X119.083 Y37.528 E24.9652
G1 X120.005 Y37.706 E24.99644
G1 X120.873 Y37.954 E25.02646
G1 X121.783 Y38.304 E25.05889
G1 X122.625 Y38.718 E25.0901
G1 X123.426 Y39.204 E25.12126
G1 X124.182 Y39.759 E25.15245
G1 X124.79 Y40.289 E25.17928
G1 X125.271 Y40.748 E25.20139
G1 X131.731 Y47.21 E25.5053
G1 X132.217 Y47.711 E25.52851
G1 X132.84 Y48.414 E25.55975
G1 X133.377 Y49.14 E25.58979
G1 X133.818 Y49.847 E25.6175
G1 X134.217 Y50.549 E25.64436
G1 X134.781 Y51.578 E25.68339
G1 X136.073 Y53.779 E25.76827
G1 X137.42 Y55.931 E25.85272
G1 X138.828 Y58.048 E25.93728
G1 X140.26 Y60.075 E26.01982
G1 X141.791 Y62.115 E26.10466
G1 X143.365 Y64.093 E26.18873
G1 X145.001 Y66.036 E26.27321
G1 X146.675 Y67.909 E26.35677
G1 X148.414 Y69.752 E26.44104
G1 X150.192 Y71.531 E26.5247
G1 X152.051 Y73.29 E26.60982
G1 X153.929 Y74.965 E26.69352
G1 X155.865 Y76.6 E26.7778
G1 X157.852 Y78.183 E26.8623
G1 X159.834 Y79.672 E26.94475
G1 X161.928 Y81.153 E27.03006
G1 X164.042 Y82.562 E27.11455
G1 X166.166 Y83.892 E27.19791
G1 X168.379 Y85.192 E27.28327
G1 X170.069 Y86.131 E27.34757
G1 X170.867 Y86.624 E27.37877
G1 X171.592 Y87.163 E27.40882
G1 X172.151 Y87.651 E27.4335
G1 X172.652 Y88.128 E27.45651
G1 X179.005 Y94.483 E27.75538
G1 X179.589 Y95.084 E27.78325
G1 X180.189 Y95.759 E27.81329
G1 X180.769 Y96.541 E27.84567
G1 X181.257 Y97.343 E27.8769
G1 X181.673 Y98.184 E27.9081
G1 X182.002 Y99.025 E27.93814
G1 X182.273 Y99.96 E27.97052
G1 X182.454 Y100.881 E28.00174
G1 X182.552 Y101.815 E28.03297
G1 X182.567 Y102.753 E28.06417
G1 X182.499 Y103.697 E28.09565
G1 X182.239 Y105.9 E28.16943
G1 X182.004 Y108.447 E28.25451
G1 X181.845 Y110.928 E28.3372
G1 X181.755 Y113.487 E28.42236
G1 X181.736 Y116.013 E28.50638
G1 X181.79 Y118.528 E28.59005
G1 X181.914 Y121.067 E28.67459
G1 X182.11 Y123.581 E28.75846
G1 X182.377 Y126.099 E28.84268
G1 X182.713 Y128.585 E28.92612
G1 X183.127 Y131.109 E29.01119
G1 X183.603 Y133.584 E29.09502
G1 X184.144 Y136.015 E29.17785
G1 X184.766 Y138.477 E29.26231
G1 X185.462 Y140.935 E29.34728
G1 X186.216 Y143.343 E29.4312
G1 X187.051 Y145.761 E29.51629
G1 X187.93 Y148.095 E29.59924
G1 X188.88 Y150.416 E29.68265
G1 X189.922 Y152.766 E29.76815
G1 X191.008 Y155.042 E29.85203
G1 X192.155 Y157.28 E29.93567
G1 X193.368 Y159.492 E30.01958
G1 X194.654 Y161.684 E30.1041
G1 X195.968 Y163.79 E30.18667
G1 X197.387 Y165.923 E30.27187
G1 X198.87 Y168.023 E30.35738
G1 X200.365 Y170.019 E30.44033
G1 X201.924 Y171.98 E30.52365
G1 X203.581 Y173.947 E30.60919
G1 X205.274 Y175.846 E30.69381
G1 X206.295 Y176.955 E30.74394
G1 X206.899 Y177.675 E30.7752
G1 X207.436 Y178.444 E30.8064
G1 X207.887 Y179.226 E30.83642
G1 X208.283 Y180.077 E30.86764
G1 X208.613 Y180.994 E30.90006
G1 X208.849 Y181.902 E30.93126
G1 X209.005 Y182.827 E30.96246
G1 X209.079 Y183.763 E30.99369
G1 X209.069 Y184.701 E31.02489
G1 X208.976 Y185.635 E31.05611
G1 X208.801 Y186.558 E31.08735
G1 X208.545 Y187.46 E31.11854
G1 X208.211 Y188.336 E31.14972
G1 X207.8 Y189.181 E31.18097
G1 X207.316 Y189.984 E31.21216
G1 X206.764 Y190.741 E31.24332
G1 X206.233 Y191.356 E31.27034
G1 X205.771 Y191.841 E31.29262
G1 X192.239 Y205.372 E31.9291
G1 X191.738 Y205.859 E31.95234
G1 X191.064 Y206.46 E31.98238
G1 X190.282 Y207.04 E32.01476
G1 X189.481 Y207.53 E32.04599
G1 X188.641 Y207.946 E32.07717
G1 X187.766 Y208.288 E32.10841
G1 X186.865 Y208.549 E32.13961
G1 X185.945 Y208.732 E32.17081
G1 X185.012 Y208.831 E32.20202
G1 X184.073 Y208.847 E32.23325
G1 X183.137 Y208.78 E32.26446
G1 X182.21 Y208.631 E32.29569
G1 X181.3 Y208.4 E32.32692
G1 X180.415 Y208.09 E32.35811
G1 X179.56 Y207.703 E32.38932
G1 X178.743 Y207.241 E32.42054
G1 X177.998 Y206.731 E32.45057
G1 X177.541 Y206.368 E32.46998
G1 X176.823 Y205.766 E32.50114
G1 X174.782 Y204.098 E32.58881
G1 X172.825 Y202.588 E32.67103
G1 X170.729 Y201.064 E32.75722
G1 X168.676 Y199.658 E32.83998
G1 X166.522 Y198.27 E32.92521
G1 X164.389 Y196.98 E33.00812
G1 X162.184 Y195.73 E33.09242
G1 X159.946 Y194.544 E33.17666
G1 X157.687 Y193.428 E33.26047
G1 X155.369 Y192.362 E33.34533
G1 X153.052 Y191.375 E33.42909
G1 X150.652 Y190.432 E33.51486
G1 X148.328 Y189.596 E33.597
G1 X145.932 Y188.808 E33.68089
G1 X143.491 Y188.081 E33.7656
G1 X141.046 Y187.428 E33.84978
G1 X138.613 Y186.851 E33.93294
G1 X136.084 Y186.327 E34.01884
G1 X133.646 Y185.893 E34.10121
G1 X131.096 Y185.513 E34.18696
G1 X128.615 Y185.214 E34.27007
G1 X126.117 Y184.985 E34.3535
G1 X123.582 Y184.825 E34.43799
G1 X120.994 Y184.734 E34.52412
G1 X119.19 Y184.716 E34.58412
G1 X81.242 Y184.715 E35.84628
G1 X80.527 Y184.704 E35.87006
G1 X79.59 Y184.648 E35.90128
G1 X78.662 Y184.509 E35.93249
G1 X77.749 Y184.288 E35.96373
G1 X76.893 Y184 E35.99377
G1 X76.001 Y183.61 E36.02615
G1 X75.18 Y183.157 E36.05734
G1 X74.429 Y182.655 E36.08738
