;FLAVOR:Marlin
;TIME:5539
;Filament used: 3.4235m
;Layer height: 0.2
;MINX:43.251
;MINY:39.408
;MINZ:0.2
;MAXX:160.71
;MAXY:147.88
;MAXZ:20
;TARGET_MACHINE.NAME:Creality Ender-3 S1
;Generated with Cura_SteamEngine 5.6.0
M82 ;absolute extrusion mode
; Ender 3 S1 Start G-code
; M413 S0 ; Disable power loss recovery
G92 E0 ; Reset Extruder

; Prep surfaces before auto home for better accuracy
M140 S60
M104 S200

G28 ; Home all axes
G1 Z10.0 F3000 ; Move Z Axis up little to prevent scratching of Heat Bed
G1 X0 Y0

M190 S60
M109 S200

G1 X0.1 Y20 Z0.3 F5000.0 ; Move to start position
G1 X0.1 Y200.0 Z0.3 F1500.0 E15 ; Draw the first line
G1 X0.4 Y200.0 Z0.3 F5000.0 ; Move to side a little
G1 X0.4 Y20 Z0.3 F1500.0 E30 ; Draw the second line
G92 E0 ; Reset Extruder
G1 Z2.0 F3000 ; Move Z Axis up little to prevent scratching of Heat Bed
G1 X5 Y20 Z0.3 F5000.0 ; Move over to prevent blob squish

G92 E0
G92 E0
G1 F2400 E-0.8
;LAYER_COUNT:100
;LAYER:0
M107
M204 S2000
G0 F7500 X57.914 Y47.069 Z0.2
M204 S500
;TYPE:SKIRT
G1 F2400 E0
G1 F1500 X58.523 Y46.328 E0.0319
G1 X58.895 Y45.936 E0.04988
G1 X59.245 Y45.585 E0.06636
G1 X59.964 Y44.928 E0.09876
G1 X60.737 Y44.337 E0.13112
G1 X61.525 Y43.836 E0.16218
G1 X62.427 Y43.358 E0.19613
G1 X63.312 Y42.952 E0.22852
G1 X64.231 Y42.628 E0.26093
G1 X65.158 Y42.389 E0.29277
G1 X65.679 Y42.291 E0.3104
G1 X66.161 Y42.213 E0.32664
G1 X67.613 Y42.076 E0.37515
G1 X68.22 Y42.063 E0.39534
G1 X88.576 Y42.063 E1.07238
G1 X91.16 Y42.026 E1.15834
G1 X93.725 Y41.917 E1.24373
G1 X96.204 Y41.741 E1.32638
G1 X98.705 Y41.494 E1.40997
G1 X101.213 Y41.173 E1.49407
G1 X103.696 Y40.783 E1.57767
G1 X106.152 Y40.326 E1.66076
G1 X108.693 Y39.78 E1.7472
G1 X109.189 Y39.685 E1.764
G1 X109.947 Y39.561 E1.78954
G1 X110.844 Y39.453 E1.81959
G1 X111.386 Y39.423 E1.83765
G1 X112.01 Y39.409 E1.85841
G1 X147.014 Y39.408 E3.02264
G1 X147.924 Y39.422 E3.05291
G1 X148.855 Y39.478 E3.08394
G1 X149.455 Y39.557 E3.10406
G1 X150.091 Y39.659 E3.12549
G1 X151.046 Y39.858 E3.15793
G1 X151.977 Y40.142 E3.19031
G1 X152.862 Y40.497 E3.22202
G1 X153.291 Y40.701 E3.23782
G1 X153.873 Y40.997 E3.25954
G1 X154.72 Y41.477 E3.29192
G1 X155.521 Y42.03 E3.32429
G1 X156.218 Y42.605 E3.35435
G1 X156.624 Y42.99 E3.37296
G1 X157.094 Y43.457 E3.39499
G1 X157.729 Y44.148 E3.42621
G1 X158.343 Y44.949 E3.45977
G1 X158.842 Y45.734 E3.49071
G1 X159.102 Y46.209 E3.50872
G1 X159.399 Y46.789 E3.5304
G1 X159.802 Y47.676 E3.5628
G1 X160.124 Y48.594 E3.59516
G1 X160.362 Y49.519 E3.62692
G1 X160.452 Y49.992 E3.64294
G1 X160.558 Y50.646 E3.66497
G1 X160.665 Y51.543 E3.69502
G1 X160.697 Y52.136 E3.71477
G1 X160.71 Y52.811 E3.73723
G1 X160.709 Y83.832 E4.76899
G1 X160.697 Y84.595 E4.79437
G1 X160.639 Y85.571 E4.82689
G1 X160.564 Y86.132 E4.84571
G1 X160.463 Y86.769 E4.86717
G1 X160.265 Y87.721 E4.89951
G1 X159.985 Y88.654 E4.93191
G1 X159.651 Y89.493 E4.96194
G1 X159.425 Y89.969 E4.97947
G1 X159.127 Y90.558 E5.00142
G1 X158.648 Y91.406 E5.03381
G1 X158.096 Y92.207 E5.06617
G1 X157.486 Y92.946 E5.09804
G1 X157.127 Y93.324 E5.11538
G1 X156.659 Y93.795 E5.13746
G1 X155.968 Y94.43 E5.16868
G1 X155.169 Y95.043 E5.20217
G1 X154.458 Y95.499 E5.23026
G1 X152.222 Y96.814 E5.31654
G1 X150.083 Y98.155 E5.40051
G1 X147.976 Y99.56 E5.48474
G1 X145.964 Y100.984 E5.56673
G1 X143.891 Y102.541 E5.65296
G1 X141.971 Y104.072 E5.73463
G1 X140.035 Y105.706 E5.81889
G1 X138.172 Y107.372 E5.90202
G1 X136.306 Y109.137 E5.98745
G1 X134.538 Y110.908 E6.07068
G1 X132.818 Y112.729 E6.15399
G1 X131.128 Y114.625 E6.23847
G1 X129.518 Y116.537 E6.3216
G1 X127.953 Y118.504 E6.40521
G1 X126.448 Y120.512 E6.48867
G1 X124.992 Y122.572 E6.57257
G1 X123.581 Y124.693 E6.6573
G1 X122.258 Y126.81 E6.74033
G1 X120.991 Y128.974 E6.82374
G1 X119.774 Y131.19 E6.90782
G1 X118.624 Y133.433 E6.99166
G1 X117.558 Y135.667 E7.07399
G1 X116.237 Y138.675 E7.18326
G1 X115.814 Y139.688 E7.21977
G1 X115.525 Y140.318 E7.24282
G1 X115.186 Y140.994 E7.26798
G1 X114.71 Y141.843 E7.30035
G1 X114.161 Y142.648 E7.33276
G1 X113.572 Y143.368 E7.3637
G1 X113.166 Y143.801 E7.38344
G1 X112.704 Y144.265 E7.40522
G1 X112.011 Y144.899 E7.43646
G1 X111.231 Y145.496 E7.46913
G1 X109.991 Y146.247 E7.51734
G1 X109.396 Y146.554 E7.53961
G1 X108.511 Y146.96 E7.572
G1 X107.594 Y147.286 E7.60437
G1 X106.694 Y147.521 E7.63531
G1 X106.128 Y147.629 E7.65447
G1 X105.51 Y147.729 E7.67529
G1 X104.076 Y147.865 E7.7232
G1 X103.452 Y147.879 E7.74396
G1 X54.949 Y147.88 E9.35718
G1 X54.083 Y147.868 E9.38598
G1 X53.11 Y147.811 E9.4184
G1 X52.148 Y147.665 E9.45076
G1 X51.2 Y147.436 E9.4832
G1 X50.278 Y147.124 E9.51557
G1 X49.387 Y146.732 E9.54795
G1 X48.564 Y146.281 E9.57916
G1 X47.725 Y145.72 E9.61273
G1 X47.021 Y145.154 E9.64278
G1 X46.268 Y144.429 E9.67754
G1 X45.631 Y143.693 E9.70992
G1 X45.101 Y142.962 E9.73995
G1 X44.565 Y142.065 E9.7747
G1 X44.143 Y141.187 E9.80711
G1 X43.801 Y140.275 E9.8395
G1 X43.541 Y139.337 E9.87188
G1 X43.363 Y138.369 E9.90461
G1 X43.265 Y137.189 E9.94399
G1 X43.251 Y136.538 E9.96565
G1 X43.252 Y97.43 E11.26639
G1 X43.263 Y96.708 E11.2904
G1 X43.323 Y95.72 E11.32333
G1 X43.469 Y94.756 E11.35575
G1 X43.7 Y93.809 E11.38818
G1 X44.003 Y92.914 E11.4196
G1 X44.564 Y91.69 E11.46439
G1 X46.058 Y88.844 E11.57129
G1 X47.148 Y86.601 E11.65424
G1 X48.182 Y84.316 E11.73766
G1 X49.181 Y81.922 E11.82394
G1 X50.061 Y79.637 E11.90538
G1 X50.906 Y77.245 E11.98975
G1 X51.677 Y74.845 E12.0736
G1 X52.375 Y72.445 E12.15673
G1 X53.014 Y69.986 E12.24123
G1 X53.58 Y67.525 E12.32522
G1 X54.074 Y65.063 E12.40874
G1 X54.494 Y62.61 E12.49151
G1 X54.848 Y60.12 E12.57516
G1 X55.135 Y57.597 E12.65962
G1 X55.35 Y55.069 E12.74401
G1 X55.446 Y53.741 E12.78829
G1 X55.554 Y52.813 E12.81936
G1 X55.631 Y52.334 E12.8355
G1 X55.831 Y51.38 E12.86792
G1 X56.106 Y50.474 E12.89941
G1 X56.658 Y49.171 E12.94648
G1 X56.885 Y48.72 E12.96327
G1 X57.363 Y47.872 E12.99565
G1 X57.914 Y47.069 E13.02804
M204 S2000
G0 F7500 X58.223 Y47.323
M204 S500
G1 F1500 X58.814 Y46.603 E13.05902
G1 X59.178 Y46.218 E13.07664
G1 X59.515 Y45.88 E13.09252
G1 X60.207 Y45.245 E13.12376
G1 X60.952 Y44.674 E13.15498
G1 X61.713 Y44.189 E13.18499
G1 X62.594 Y43.721 E13.21817
G1 X63.446 Y43.329 E13.24936
G1 X64.331 Y43.015 E13.2806
G1 X65.232 Y42.782 E13.31155
G1 X65.743 Y42.686 E13.32884
G1 X66.225 Y42.608 E13.34508
G1 X67.622 Y42.476 E13.39175
G1 X68.229 Y42.463 E13.41195
G1 X88.582 Y42.463 E14.08889
G1 X91.177 Y42.426 E14.17521
G1 X93.742 Y42.317 E14.2606
G1 X96.235 Y42.14 E14.34372
G1 X98.756 Y41.891 E14.42798
G1 X101.264 Y41.57 E14.51208
G1 X103.758 Y41.178 E14.59605
G1 X106.238 Y40.717 E14.67995
G1 X108.768 Y40.173 E14.76602
G1 X109.254 Y40.08 E14.78247
G1 X109.995 Y39.958 E14.80745
G1 X110.892 Y39.85 E14.8375
G1 X111.395 Y39.823 E14.85426
G1 X112.01 Y39.809 E14.87472
G1 X147.008 Y39.808 E16.03875
G1 X147.9 Y39.821 E16.06843
G1 X148.831 Y39.877 E16.09945
G1 X149.392 Y39.952 E16.11827
G1 X150.01 Y40.051 E16.13909
G1 X150.93 Y40.241 E16.17033
G1 X151.828 Y40.513 E16.20154
G1 X152.69 Y40.858 E16.23242
G1 X153.11 Y41.058 E16.2479
G1 X153.676 Y41.345 E16.269
G1 X154.493 Y41.807 E16.30022
G1 X155.266 Y42.339 E16.33143
G1 X155.963 Y42.914 E16.36148
G1 X156.342 Y43.273 E16.37885
G1 X156.799 Y43.728 E16.40029
G1 X157.434 Y44.419 E16.43151
G1 X158.005 Y45.164 E16.46273
G1 X158.504 Y45.949 E16.49367
G1 X158.746 Y46.392 E16.51045
G1 X159.035 Y46.955 E16.5315
G1 X159.425 Y47.809 E16.56273
G1 X159.737 Y48.694 E16.59394
G1 X159.969 Y49.594 E16.62485
G1 X160.057 Y50.057 E16.64053
G1 X160.161 Y50.693 E16.66196
G1 X160.268 Y51.59 E16.69201
G1 X160.297 Y52.144 E16.71046
G1 X160.31 Y52.811 E16.73265
G1 X160.309 Y83.826 E17.76421
G1 X160.298 Y84.571 E17.78899
G1 X160.242 Y85.518 E17.82055
G1 X160.169 Y86.069 E17.83903
G1 X160.071 Y86.688 E17.85988
G1 X159.882 Y87.606 E17.89105
G1 X159.613 Y88.506 E17.92229
G1 X159.279 Y89.345 E17.95233
G1 X159.068 Y89.789 E17.96868
G1 X158.779 Y90.362 E17.99002
G1 X158.318 Y91.18 E18.02125
G1 X157.787 Y91.953 E18.05244
G1 X157.195 Y92.671 E18.08339
G1 X156.844 Y93.042 E18.10038
G1 X156.388 Y93.5 E18.12188
G1 X155.697 Y94.135 E18.15309
G1 X154.953 Y94.706 E18.18428
G1 X154.255 Y95.154 E18.21187
G1 X152.019 Y96.469 E18.29815
G1 X149.861 Y97.822 E18.38286
G1 X147.754 Y99.227 E18.46709
G1 X145.724 Y100.664 E18.54982
G1 X143.651 Y102.221 E18.63605
G1 X141.713 Y103.766 E18.71848
G1 X139.777 Y105.4 E18.80274
G1 X137.897 Y107.081 E18.88662
G1 X136.031 Y108.846 E18.97205
G1 X134.255 Y110.625 E19.05566
G1 X132.527 Y112.454 E19.13935
G1 X130.829 Y114.359 E19.22423
G1 X129.212 Y116.279 E19.30771
G1 X127.64 Y118.255 E19.3917
G1 X126.121 Y120.281 E19.47592
G1 X124.665 Y122.341 E19.55982
G1 X123.248 Y124.471 E19.64491
G1 X121.919 Y126.598 E19.72833
G1 X120.64 Y128.781 E19.81248
G1 X119.423 Y130.997 E19.89657
G1 X118.268 Y133.251 E19.9808
G1 X117.197 Y135.495 E20.06351
G1 X115.871 Y138.514 E20.17318
G1 X115.45 Y139.521 E20.20948
G1 X115.161 Y140.151 E20.23253
G1 X114.837 Y140.799 E20.25663
G1 X114.379 Y141.618 E20.28784
G1 X113.851 Y142.395 E20.31908
G1 X113.28 Y143.094 E20.3491
G1 X112.874 Y143.527 E20.36885
G1 X112.433 Y143.97 E20.38964
G1 X111.768 Y144.581 E20.41967
G1 X110.988 Y145.178 E20.45234
G1 X109.807 Y145.892 E20.49824
G1 X109.229 Y146.191 E20.51989
G1 X108.376 Y146.583 E20.55111
G1 X107.493 Y146.899 E20.5823
G1 X106.619 Y147.128 E20.61235
G1 X106.064 Y147.234 E20.63115
G1 X105.446 Y147.334 E20.65197
G1 X104.067 Y147.465 E20.69804
G1 X103.452 Y147.479 E20.7185
G1 X54.954 Y147.48 E22.33155
G1 X54.106 Y147.469 E22.35976
G1 X53.169 Y147.415 E22.39097
G1 X52.241 Y147.276 E22.42218
G1 X51.328 Y147.057 E22.45341
G1 X50.439 Y146.758 E22.48461
G1 X49.579 Y146.381 E22.51584
G1 X48.756 Y145.93 E22.54705
G1 X47.976 Y145.408 E22.57827
G1 X47.272 Y144.842 E22.60831
G1 X46.57 Y144.167 E22.64071
G1 X45.955 Y143.458 E22.67192
G1 X45.425 Y142.727 E22.70195
G1 X44.925 Y141.891 E22.73435
G1 X44.517 Y141.046 E22.76556
G1 X44.186 Y140.168 E22.79677
G1 X43.934 Y139.264 E22.82798
G1 X43.762 Y138.336 E22.85938
G1 X43.664 Y137.156 E22.89876
G1 X43.651 Y136.538 E22.91932
G1 X43.652 Y97.436 E24.21985
G1 X43.662 Y96.732 E24.24327
G1 X43.719 Y95.779 E24.27503
G1 X43.858 Y94.85 E24.30627
G1 X44.079 Y93.937 E24.33751
G1 X44.367 Y93.081 E24.36755
G1 X44.928 Y91.857 E24.41233
G1 X46.418 Y89.019 E24.51894
G1 X47.508 Y86.776 E24.60189
G1 X48.546 Y84.481 E24.68567
G1 X49.55 Y82.076 E24.77235
G1 X50.434 Y79.781 E24.85415
G1 X51.283 Y77.378 E24.93891
G1 X52.058 Y74.967 E25.02314
G1 X52.759 Y72.557 E25.10662
G1 X53.401 Y70.087 E25.1915
G1 X53.97 Y67.615 E25.27587
G1 X54.466 Y65.142 E25.35976
G1 X54.888 Y62.677 E25.44294
G1 X55.244 Y60.176 E25.52696
G1 X55.534 Y57.631 E25.61216
G1 X55.749 Y55.103 E25.69654
G1 X55.843 Y53.787 E25.74043
G1 X55.949 Y52.876 E25.77093
G1 X56.023 Y52.415 E25.78646
G1 X56.214 Y51.496 E25.81768
G1 X56.489 Y50.59 E25.84917
G1 X57.015 Y49.351 E25.89394
G1 X57.234 Y48.916 E25.91014
G1 X57.693 Y48.098 E25.94133
G1 X58.223 Y47.323 E25.97256
M204 S2000
G0 F7500 X58.532 Y47.577
M204 S500
G1 F1500 X59.105 Y46.878 E26.00262
G1 X59.462 Y46.5 E26.01992
G1 X59.786 Y46.174 E26.0352
G1 X60.451 Y45.562 E26.06526
G1 X61.167 Y45.011 E26.09531
G1 X61.928 Y44.526 E26.12533
G1 X62.761 Y44.084 E26.15669
G1 X63.581 Y43.706 E26.18672
G1 X64.432 Y43.402 E26.21678
G1 X65.306 Y43.175 E26.24681
G1 X65.807 Y43.081 E26.26377
G1 X66.289 Y43.003 E26.28001
G1 X67.631 Y42.876 E26.32484
G1 X68.238 Y42.863 E26.34504
G1 X88.588 Y42.863 E27.02188
G1 X91.194 Y42.826 E27.10856
G1 X93.759 Y42.717 E27.19395
G1 X96.266 Y42.539 E27.27755
G1 X98.807 Y42.288 E27.36247
G1 X101.315 Y41.967 E27.44657
G1 X103.82 Y41.573 E27.53091
G1 X106.323 Y41.108 E27.61558
G1 X108.843 Y40.566 E27.70132
G1 X109.319 Y40.475 E27.71743
G1 X110.043 Y40.355 E27.74184
G1 X110.94 Y40.247 E27.77189
G1 X111.404 Y40.223 E27.78735
G1 X112.01 Y40.209 E27.80751
G1 X147.003 Y40.208 E28.97138
G1 X147.876 Y40.22 E29.00042
G1 X148.778 Y40.274 E29.03047
G1 X149.329 Y40.347 E29.04896
G1 X149.93 Y40.443 E29.0692
G1 X150.815 Y40.624 E29.09925
G1 X151.68 Y40.884 E29.12929
G1 X152.518 Y41.219 E29.1593
G1 X152.929 Y41.415 E29.17445
G1 X153.48 Y41.694 E29.19499
G1 X154.267 Y42.137 E29.22503
G1 X155.011 Y42.648 E29.25505
G1 X155.708 Y43.223 E29.2851
G1 X156.06 Y43.557 E29.30124
G1 X156.505 Y43.999 E29.3221
G1 X157.117 Y44.663 E29.35214
G1 X157.668 Y45.379 E29.38219
G1 X158.153 Y46.141 E29.41223
G1 X158.39 Y46.575 E29.42867
G1 X158.671 Y47.122 E29.44913
G1 X159.048 Y47.943 E29.47918
G1 X159.35 Y48.794 E29.50921
G1 X159.576 Y49.668 E29.53924
G1 X159.662 Y50.122 E29.5546
G1 X159.764 Y50.74 E29.57544
G1 X159.871 Y51.637 E29.60548
G1 X159.897 Y52.152 E29.62263
G1 X159.91 Y52.811 E29.64456
G1 X159.909 Y83.82 E30.67592
G1 X159.898 Y84.565 E30.7007
G1 X159.845 Y85.466 E30.73072
G1 X159.774 Y86.007 E30.74887
G1 X159.679 Y86.608 E30.76911
G1 X159.499 Y87.492 E30.79911
G1 X159.241 Y88.358 E30.82917
G1 X158.907 Y89.197 E30.8592
G1 X158.711 Y89.609 E30.87438
G1 X158.43 Y90.166 E30.89513
G1 X157.988 Y90.954 E30.92518
G1 X157.478 Y91.699 E30.9552
G1 X156.904 Y92.396 E30.98524
G1 X156.56 Y92.76 E31.00189
G1 X156.117 Y93.206 E31.0228
G1 X155.453 Y93.818 E31.05284
G1 X154.737 Y94.369 E31.08289
G1 X154.052 Y94.809 E31.10996
G1 X151.816 Y96.124 E31.19624
G1 X149.639 Y97.489 E31.28171
G1 X147.532 Y98.894 E31.36594
G1 X145.484 Y100.344 E31.4494
G1 X143.411 Y101.901 E31.53563
G1 X141.455 Y103.46 E31.61882
G1 X139.519 Y105.094 E31.70308
G1 X137.622 Y106.79 E31.78772
G1 X135.756 Y108.555 E31.87314
G1 X133.972 Y110.342 E31.95713
G1 X132.237 Y112.18 E32.04119
G1 X130.523 Y114.101 E32.12682
G1 X128.906 Y116.021 E32.21031
G1 X127.327 Y118.006 E32.29467
G1 X125.794 Y120.05 E32.37965
G1 X124.338 Y122.11 E32.46356
G1 X122.915 Y124.25 E32.54903
G1 X121.58 Y126.386 E32.63281
G1 X120.289 Y128.588 E32.71771
G1 X119.072 Y130.804 E32.8018
G1 X117.912 Y133.069 E32.88644
G1 X116.836 Y135.323 E32.96951
G1 X115.505 Y138.353 E33.07958
G1 X115.086 Y139.354 E33.11567
G1 X114.803 Y139.972 E33.13828
G1 X114.487 Y140.605 E33.16181
G1 X114.048 Y141.394 E33.19184
G1 X113.541 Y142.142 E33.2219
G1 X112.97 Y142.841 E33.25192
G1 X112.59 Y143.245 E33.27036
G1 X112.162 Y143.675 E33.29054
G1 X111.497 Y144.286 E33.32058
G1 X110.781 Y144.836 E33.35061
G1 X109.623 Y145.537 E33.39563
G1 X109.061 Y145.828 E33.41668
G1 X108.241 Y146.207 E33.44673
G1 X107.392 Y146.512 E33.47673
G1 X106.518 Y146.741 E33.50678
G1 X106 Y146.839 E33.52432
G1 X105.382 Y146.939 E33.54514
G1 X104.058 Y147.065 E33.58937
G1 X103.452 Y147.079 E33.60953
G1 X54.959 Y147.08 E35.22242
G1 X54.129 Y147.07 E35.25003
G1 X53.227 Y147.019 E35.28007
G1 X52.334 Y146.887 E35.3101
G1 X51.455 Y146.678 E35.34015
G1 X50.599 Y146.391 E35.37018
G1 X49.771 Y146.03 E35.40022
G1 X48.978 Y145.597 E35.43027
G1 X48.227 Y145.096 E35.4603
G1 X47.523 Y144.53 E35.49034
G1 X46.872 Y143.904 E35.52038
G1 X46.279 Y143.223 E35.55042
G1 X45.749 Y142.492 E35.58045
G1 X45.285 Y141.717 E35.61049
G1 X44.891 Y140.904 E35.64054
G1 X44.571 Y140.06 E35.67056
G1 X44.327 Y139.19 E35.70061
G1 X44.161 Y138.303 E35.73063
G1 X44.064 Y137.147 E35.76921
G1 X44.051 Y136.538 E35.78947
G1 X44.052 Y97.442 E37.08981
G1 X44.062 Y96.738 E37.11323
G1 X44.115 Y95.837 E37.14325
G1 X44.247 Y94.943 E37.1733
G1 X44.458 Y94.065 E37.20334
G1 X44.746 Y93.209 E37.23338
G1 X45.282 Y92.043 E37.27606
G1 X46.778 Y89.194 E37.38309
G1 X47.868 Y86.951 E37.46603
G1 X48.91 Y84.646 E37.55016
G1 X49.919 Y82.23 E37.63725
G1 X50.807 Y79.925 E37.7194
G1 X51.66 Y77.511 E37.80456
G1 X52.439 Y75.089 E37.88918
G1 X53.143 Y72.669 E37.97301
G1 X53.788 Y70.188 E38.05827
G1 X54.36 Y67.705 E38.14301
G1 X54.858 Y65.221 E38.22728
G1 X55.282 Y62.745 E38.31083
G1 X55.64 Y60.232 E38.39525
G1 X55.933 Y57.665 E38.48119
G1 X56.148 Y55.137 E38.56557
G1 X56.24 Y53.833 E38.60905
G1 X56.344 Y52.939 E38.63899
G1 X56.415 Y52.496 E38.65391
G1 X56.597 Y51.611 E38.68396
G1 X56.857 Y50.746 E38.714
G1 X57.372 Y49.531 E38.75789
G1 X57.583 Y49.111 E38.77353
G1 X58.023 Y48.323 E38.80354
G1 X58.532 Y47.577 E38.83358
M204 S2000
G1 F2400 E38.03358
;MESH:motor_mount.stl
G0 F7500 X65.752 Y54.428
G0 X94.857 Y82.463
M204 S500
;TYPE:WALL-INNER
G1 F2400 E38.83358
