;FLAVOR:Marlin
;TIME:3588
;Filament used: 1.73415m
;Layer height: 0.2
;MINX:80.001
;MINY:84
;MINZ:0.2
;MAXX:140.495
;MAXY:135.999
;MAXZ:44
;TARGET_MACHINE.NAME:Creality Ender-3 S1
;Generated with Cura_SteamEngine 5.6.0
M82 ;absolute extrusion mode
; Ender 3 S1 Start G-code
; M413 S0 ; Disable power loss recovery
G92 E0 ; Reset Extruder

; Prep surfaces before auto home for better accuracy
M140 S60
M104 S200

G28 ; Home all axes
G1 Z10.0 F3000 ; Move Z Axis up little to prevent scratching of Heat Bed
G1 X0 Y0

M190 S60
M109 S200

G1 X0.1 Y20 Z0.3 F5000.0 ; Move to start position
G1 X0.1 Y200.0 Z0.3 F1500.0 E15 ; Draw the first line
G1 X0.4 Y200.0 Z0.3 F5000.0 ; Move to side a little
G1 X0.4 Y20 Z0.3 F1500.0 E30 ; Draw the second line
G92 E0 ; Reset Extruder
G1 Z2.0 F3000 ; Move Z Axis up little to prevent scratching of Heat Bed
G1 X5 Y20 Z0.3 F5000.0 ; Move over to prevent blob squish

G92 E0
G92 E0
G1 F2400 E-0.8
;LAYER_COUNT:220
;LAYER:0
M107
M204 S2000
G0 F7500 X83.582 Y87.477 Z0.2
M204 S500
;TYPE:SKIRT
G1 F2400 E0
G1 F1500 X82.992 Y88.097 E0.02847
G1 X82.4 Y88.819 E0.05952
G1 X81.85 Y89.623 E0.09192
G1 X81.374 Y90.473 E0.12432
G1 X81.218 Y90.782 E0.13583
G1 X80.677 Y92.066 E0.18218
G1 X80.402 Y92.972 E0.21367
G1 X80.202 Y93.926 E0.24609
G1 X80.074 Y94.818 E0.27606
G1 X80.014 Y95.785 E0.30828
G1 X80.001 Y96.538 E0.33333
G1 X80.001 Y123.703 E1.23684
G1 X80.014 Y124.309 E1.257
G1 X80.042 Y124.817 E1.27393
G1 X80.156 Y125.786 E1.30638
G1 X80.311 Y126.642 E1.33531
G1 X80.557 Y127.577 E1.36747
G1 X80.888 Y128.494 E1.39989
G1 X81.309 Y129.399 E1.43309
G1 X81.698 Y130.12 E1.46034
G1 X82.22 Y130.933 E1.49247
G1 X82.838 Y131.73 E1.52602
G1 X83.477 Y132.418 E1.55725
G1 X83.757 Y132.69 E1.57023
G1 X84.78 Y133.569 E1.61509
G1 X85.626 Y134.151 E1.64925
G1 X86.444 Y134.612 E1.68048
G1 X86.75 Y134.766 E1.69187
G1 X88.091 Y135.333 E1.74029
G1 X88.955 Y135.594 E1.77031
G1 X89.935 Y135.8 E1.80362
G1 X90.819 Y135.926 E1.83332
G1 X91.785 Y135.986 E1.86551
G1 X92.539 Y135.999 E1.89059
G1 X119.719 Y135.999 E2.7946
G1 X120.325 Y135.985 E2.81476
G1 X120.835 Y135.957 E2.83175
G1 X121.757 Y135.848 E2.86263
G1 X122.706 Y135.675 E2.89472
G1 X123.578 Y135.443 E2.92473
G1 X124.494 Y135.112 E2.95712
G1 X125.399 Y134.691 E2.99032
G1 X126.12 Y134.302 E3.01757
G1 X126.933 Y133.78 E3.0497
G1 X127.73 Y133.162 E3.08325
G1 X128.418 Y132.523 E3.11448
G1 X128.998 Y131.915 E3.14242
G1 X129.63 Y131.139 E3.17571
G1 X130.157 Y130.364 E3.20688
G1 X130.633 Y129.514 E3.23929
G1 X130.793 Y129.194 E3.25118
G1 X131.306 Y127.987 E3.29481
G1 X131.432 Y127.634 E3.30727
G1 X132.823 Y123.96 E3.43793
G1 X133.802 Y121.63 E3.52199
G1 X134.824 Y119.377 E3.60428
G1 X135.948 Y117.073 E3.68954
G1 X137.086 Y114.895 E3.77127
G1 X138.393 Y112.567 E3.86007
G1 X139.003 Y111.511 E3.90063
G1 X139.358 Y110.849 E3.92562
G1 X139.734 Y109.992 E3.95674
G1 X140.047 Y109.071 E3.9891
G1 X140.277 Y108.124 E4.02151
G1 X140.423 Y107.161 E4.05391
G1 X140.482 Y106.189 E4.08629
G1 X140.495 Y105.294 E4.11607
G1 X140.494 Y100.33 E4.28117
G1 X140.479 Y99.675 E4.30296
G1 X140.392 Y98.588 E4.33923
G1 X140.223 Y97.624 E4.37178
G1 X139.969 Y96.683 E4.4042
G1 X139.634 Y95.769 E4.43658
G1 X139.187 Y94.824 E4.47135
G1 X138.729 Y94.045 E4.5014
G1 X138.122 Y93.194 E4.53617
G1 X137.534 Y92.509 E4.56619
G1 X136.84 Y91.828 E4.59853
G1 X136.088 Y91.21 E4.63091
G1 X135.283 Y90.659 E4.66335
G1 X134.326 Y90.069 E4.70075
G1 X132.157 Y88.763 E4.78496
G1 X131.302 Y88.298 E4.81733
G1 X129.358 Y87.36 E4.88912
G1 X127.084 Y86.198 E4.97405
G1 X125.395 Y85.307 E5.03757
G1 X124.86 Y85.047 E5.05735
G1 X123.97 Y84.689 E5.08926
G1 X123.039 Y84.404 E5.12164
G1 X122.085 Y84.204 E5.15406
G1 X121.182 Y84.074 E5.18441
G1 X120.214 Y84.014 E5.21666
G1 X119.304 Y84 E5.24693
G1 X92.3 Y84.001 E6.14509
G1 X91.676 Y84.015 E6.16585
G1 X90.214 Y84.156 E6.2147
G1 X89.358 Y84.311 E6.24364
G1 X88.423 Y84.557 E6.27579
G1 X87.506 Y84.888 E6.30822
G1 X86.601 Y85.309 E6.34142
G1 X85.88 Y85.698 E6.36866
G1 X85.067 Y86.22 E6.4008
G1 X84.27 Y86.838 E6.43434
G1 X83.582 Y87.477 E6.46557
M204 S2000
G0 F7500 X83.855 Y87.77
M204 S500
G1 F1500 X84.516 Y87.154 E6.49562
G1 X85.284 Y86.556 E6.528
G1 X86.07 Y86.05 E6.55909
G1 X86.791 Y85.661 E6.58634
G1 X87.642 Y85.264 E6.61757
G1 X88.525 Y84.944 E6.64881
G1 X89.429 Y84.705 E6.67991
G1 X90.285 Y84.55 E6.70884
G1 X91.685 Y84.415 E6.75562
G1 X92.3 Y84.401 E6.77608
G1 X119.298 Y84.4 E7.67404
G1 X120.19 Y84.413 E7.70371
G1 X121.125 Y84.47 E7.73487
G1 X122.004 Y84.596 E7.7644
G1 X122.923 Y84.787 E7.79562
G1 X123.821 Y85.06 E7.82684
G1 X124.685 Y85.407 E7.85781
G1 X125.208 Y85.661 E7.87714
G1 X126.897 Y86.552 E7.94066
G1 X129.184 Y87.72 E8.02607
G1 X131.111 Y88.65 E8.09724
G1 X131.951 Y89.106 E8.12902
G1 X134.116 Y90.409 E8.21307
G1 X135.058 Y90.99 E8.24988
G1 X135.834 Y91.519 E8.28112
G1 X136.56 Y92.114 E8.31234
G1 X137.23 Y92.77 E8.34352
G1 X137.818 Y93.455 E8.37355
G1 X138.384 Y94.248 E8.40595
G1 X138.842 Y95.027 E8.43601
G1 X139.259 Y95.907 E8.4684
G1 X139.583 Y96.788 E8.49962
G1 X139.829 Y97.694 E8.53084
G1 X139.993 Y98.62 E8.56212
G1 X140.079 Y99.684 E8.59763
G1 X140.094 Y100.33 E8.61912
G1 X140.095 Y105.289 E8.78406
G1 X140.083 Y106.165 E8.81319
G1 X140.027 Y107.102 E8.84441
G1 X139.888 Y108.03 E8.87562
G1 X139.668 Y108.943 E8.90686
G1 X139.368 Y109.831 E8.93803
G1 X138.992 Y110.688 E8.96916
G1 X138.657 Y111.311 E8.99269
G1 X138.044 Y112.371 E9.03341
G1 X136.738 Y114.699 E9.1222
G1 X135.588 Y116.898 E9.20473
G1 X134.464 Y119.202 E9.29
G1 X133.433 Y121.475 E9.37301
G1 X132.454 Y123.805 E9.45707
G1 X131.058 Y127.492 E9.5882
G1 X130.938 Y127.831 E9.60016
G1 X130.435 Y129.016 E9.64297
G1 X130.284 Y129.319 E9.65423
G1 X129.826 Y130.139 E9.68547
G1 X129.299 Y130.914 E9.71664
G1 X128.709 Y131.639 E9.74773
G1 X128.145 Y132.23 E9.7749
G1 X127.484 Y132.846 E9.80496
G1 X126.716 Y133.444 E9.83733
G1 X125.93 Y133.95 E9.86842
G1 X125.209 Y134.339 E9.89567
G1 X124.358 Y134.736 E9.9269
G1 X123.475 Y135.056 E9.95814
G1 X122.603 Y135.288 E9.98815
G1 X121.71 Y135.451 E10.01834
G1 X120.813 Y135.558 E10.04839
G1 X120.316 Y135.585 E10.06495
G1 X119.71 Y135.599 E10.08511
G1 X92.546 Y135.599 E10.98858
G1 X91.809 Y135.587 E11.0131
G1 X90.875 Y135.53 E11.04422
G1 X89.991 Y135.404 E11.07392
G1 X89.071 Y135.211 E11.10519
G1 X88.207 Y134.95 E11.13521
G1 X86.93 Y134.409 E11.18133
G1 X86.64 Y134.263 E11.19213
G1 X85.852 Y133.821 E11.22218
G1 X85.041 Y133.266 E11.25487
G1 X84.018 Y132.387 E11.29973
G1 X83.77 Y132.145 E11.31125
G1 X83.154 Y131.484 E11.34131
G1 X82.556 Y130.716 E11.37368
G1 X82.05 Y129.93 E11.40477
G1 X81.661 Y129.209 E11.43202
G1 X81.264 Y128.358 E11.46325
G1 X80.944 Y127.475 E11.49449
G1 X80.705 Y126.571 E11.52559
G1 X80.55 Y125.715 E11.55452
G1 X80.441 Y124.795 E11.58534
G1 X80.414 Y124.3 E11.60183
G1 X80.401 Y123.694 E11.62199
G1 X80.401 Y96.545 E12.52497
G1 X80.413 Y95.809 E12.54945
G1 X80.47 Y94.875 E12.58057
G1 X80.594 Y94.007 E12.60973
G1 X80.785 Y93.088 E12.64095
G1 X81.06 Y92.182 E12.67244
G1 X81.576 Y90.961 E12.71653
G1 X81.723 Y90.668 E12.72744
G1 X82.181 Y89.848 E12.75867
G1 X82.709 Y89.073 E12.78986
G1 X83.301 Y88.351 E12.82092
G1 X83.855 Y87.77 E12.84762
M204 S2000
G0 F7500 X84.128 Y88.063
M204 S500
G1 F1500 X84.789 Y87.447 E12.87767
G1 X85.501 Y86.892 E12.9077
G1 X86.26 Y86.402 E12.93775
G1 X86.961 Y86.023 E12.96425
G1 X87.779 Y85.64 E12.99429
G1 X88.628 Y85.331 E13.02434
G1 X89.5 Y85.099 E13.05435
G1 X90.356 Y84.944 E13.08329
G1 X91.694 Y84.815 E13.128
G1 X92.3 Y84.801 E13.14816
G1 X119.293 Y84.8 E14.04595
G1 X120.166 Y84.812 E14.07499
G1 X121.068 Y84.866 E14.10504
G1 X121.923 Y84.988 E14.13377
G1 X122.807 Y85.17 E14.16378
G1 X123.672 Y85.431 E14.19384
G1 X124.51 Y85.767 E14.22386
G1 X125.021 Y86.015 E14.24276
G1 X126.71 Y86.906 E14.30627
G1 X129.01 Y88.08 E14.39216
G1 X130.92 Y89.002 E14.4627
G1 X131.745 Y89.449 E14.49391
G1 X133.906 Y90.75 E14.5778
G1 X134.833 Y91.321 E14.61401
G1 X135.581 Y91.829 E14.64409
G1 X136.28 Y92.4 E14.67411
G1 X136.926 Y93.031 E14.70414
G1 X137.514 Y93.716 E14.73417
G1 X138.039 Y94.451 E14.76421
G1 X138.497 Y95.23 E14.79427
G1 X138.884 Y96.046 E14.82431
G1 X139.197 Y96.893 E14.85434
G1 X139.435 Y97.764 E14.88437
G1 X139.594 Y98.653 E14.91441
G1 X139.679 Y99.693 E14.94911
G1 X139.694 Y100.33 E14.97031
G1 X139.695 Y105.284 E15.13508
G1 X139.684 Y106.142 E15.16362
G1 X139.631 Y107.044 E15.19367
G1 X139.499 Y107.937 E15.22369
G1 X139.289 Y108.815 E15.25372
G1 X139.001 Y109.671 E15.28376
G1 X138.639 Y110.499 E15.31381
G1 X138.311 Y111.111 E15.33691
G1 X137.695 Y112.175 E15.3778
G1 X136.39 Y114.503 E15.46657
G1 X135.228 Y116.723 E15.54991
G1 X134.104 Y119.027 E15.63517
G1 X133.064 Y121.32 E15.71891
G1 X132.085 Y123.65 E15.80297
G1 X130.684 Y127.35 E15.93456
G1 X130.561 Y127.697 E15.94681
G1 X130.077 Y128.838 E15.98803
G1 X129.934 Y129.125 E15.99869
G1 X129.495 Y129.915 E16.02875
G1 X128.989 Y130.662 E16.05876
G1 X128.419 Y131.363 E16.08881
G1 X127.872 Y131.937 E16.11519
G1 X127.211 Y132.553 E16.14524
G1 X126.499 Y133.108 E16.17526
G1 X125.74 Y133.598 E16.20531
G1 X125.039 Y133.977 E16.23182
G1 X124.221 Y134.36 E16.26186
G1 X123.372 Y134.669 E16.29191
G1 X122.5 Y134.901 E16.32192
G1 X121.663 Y135.054 E16.35022
G1 X120.766 Y135.161 E16.38026
G1 X120.307 Y135.185 E16.39555
G1 X119.701 Y135.199 E16.41571
G1 X92.552 Y135.199 E17.31869
G1 X91.833 Y135.188 E17.34261
G1 X90.931 Y135.134 E17.37266
G1 X90.072 Y135.012 E17.40152
G1 X89.187 Y134.828 E17.43159
G1 X88.323 Y134.567 E17.4616
G1 X87.11 Y134.052 E17.50543
G1 X86.836 Y133.914 E17.51564
G1 X86.048 Y133.472 E17.54569
G1 X85.302 Y132.963 E17.57573
G1 X84.279 Y132.084 E17.62059
G1 X84.063 Y131.872 E17.63065
G1 X83.447 Y131.211 E17.6607
G1 X82.892 Y130.499 E17.69073
G1 X82.402 Y129.74 E17.72078
G1 X82.023 Y129.039 E17.74728
G1 X81.64 Y128.221 E17.77732
G1 X81.331 Y127.372 E17.80737
G1 X81.099 Y126.5 E17.83739
G1 X80.944 Y125.644 E17.86632
G1 X80.838 Y124.748 E17.89633
G1 X80.814 Y124.291 E17.91155
G1 X80.801 Y123.685 E17.93171
G1 X80.801 Y96.551 E18.83419
G1 X80.812 Y95.833 E18.85807
G1 X80.866 Y94.931 E18.88813
G1 X80.986 Y94.088 E18.91645
G1 X81.168 Y93.203 E18.9465
G1 X81.428 Y92.338 E18.97654
G1 X81.934 Y91.14 E19.0198
G1 X82.073 Y90.862 E19.03013
G1 X82.512 Y90.073 E19.06016
G1 X83.019 Y89.326 E19.09019
G1 X83.591 Y88.627 E19.12023
G1 X84.128 Y88.063 E19.14613
M204 S2000
G1 F2400 E18.34613
G0 F7500 X120.516 Y94.409
G0 X120.983 Y94.647
G0 X121.353 Y95.017
G0 X121.488 Y95.282
G0 X122.836 Y99.045
M204 S500
G1 F2400 E19.14613
G1 F1500 X123.264 Y98.603 E19.1666
G1 X123.455 Y98.465 E19.17444
G1 X124.113 Y98.206 E19.19796
G1 X125.739 Y98.198 E19.25204
G1 X126.393 Y98.358 E19.27443
G1 X126.971 Y98.786 E19.29835
G1 X127.248 Y99.155 E19.3137
G1 X127.268 Y99.178 E19.31471
G1 X127.573 Y99.477 E19.32892
G1 X127.593 Y99.494 E19.32979
G1 X127.938 Y99.752 E19.34412
G1 X127.964 Y99.769 E19.34515
G1 X128.284 Y99.939 E19.3572
G1 X128.304 Y99.948 E19.35793
G1 X128.55 Y100.046 E19.36674
G1 X128.567 Y100.052 E19.36734
G1 X128.815 Y100.126 E19.37595
G1 X128.827 Y100.129 E19.37636
G1 X129.113 Y100.195 E19.38612
G1 X129.158 Y100.2 E19.38763
G1 X129.294 Y100.2 E19.39215
G1 X129.295 Y105.803 E19.57851
G1 X129.117 Y105.805 E19.58443
G1 X129.068 Y105.812 E19.58608
G1 X128.733 Y105.903 E19.59762
G1 X128.718 Y105.908 E19.59815
G1 X128.463 Y105.999 E19.60715
G1 X128.444 Y106.007 E19.60784
G1 X128.079 Y106.182 E19.6213
G1 X128.051 Y106.198 E19.62237
G1 X127.721 Y106.427 E19.63573
G1 X127.704 Y106.44 E19.63645
G1 X127.368 Y106.733 E19.65127
G1 X127.354 Y106.746 E19.65191
G1 X126.734 Y107.398 E19.68183
G1 X126.544 Y107.535 E19.68962
G1 X125.886 Y107.794 E19.71314
G1 X124.261 Y107.802 E19.76719
G1 X123.607 Y107.642 E19.78959
G1 X123.094 Y107.264 E19.81078
G1 X123.007 Y107.166 E19.81514
G1 X122.283 Y105.901 E19.86362
G1 X122.19 Y105.817 E19.86778
G1 X122.172 Y105.813 E19.8684
G1 X122.164 Y105.767 E19.86995
G1 X122.107 Y105.657 E19.87407
G1 X122 Y105.613 E19.87792
G1 X122 Y100.399 E20.05134
G1 X122.006 Y100.399 E20.05154
G1 X122.124 Y100.359 E20.05568
G1 X122.179 Y100.298 E20.05841
G1 X122.472 Y99.785 E20.07806
G1 X122.477 Y99.775 E20.07843
G1 X122.626 Y99.476 E20.08955
G1 X122.639 Y99.444 E20.09069
G1 X122.68 Y99.307 E20.09545
G1 X122.836 Y99.045 E20.10559
M204 S2000
G0 F7500 X123.154 Y99.293
M204 S500
G1 F1500 X123.529 Y98.904 E20.12356
G1 X123.647 Y98.819 E20.1284
G1 X124.19 Y98.605 E20.14781
G1 X125.69 Y98.598 E20.1977
G1 X126.222 Y98.728 E20.21592
G1 X126.685 Y99.072 E20.2351
G1 X126.928 Y99.395 E20.24855
G1 X126.988 Y99.463 E20.25156
G1 X127.293 Y99.762 E20.26577
G1 X127.354 Y99.815 E20.26846
G1 X127.699 Y100.073 E20.28278
G1 X127.777 Y100.122 E20.28585
G1 X128.097 Y100.292 E20.2979
G1 X128.156 Y100.319 E20.30006
G1 X128.402 Y100.417 E20.30887
G1 X128.452 Y100.435 E20.31063
G1 X128.7 Y100.509 E20.31924
G1 X128.737 Y100.519 E20.32052
G1 X128.894 Y100.555 E20.32587
G1 X128.895 Y105.444 E20.48848
G1 X128.628 Y105.517 E20.49769
G1 X128.583 Y105.531 E20.49926
G1 X128.328 Y105.622 E20.50826
G1 X128.271 Y105.646 E20.51032
G1 X127.906 Y105.821 E20.52378
G1 X127.823 Y105.869 E20.52697
G1 X127.493 Y106.098 E20.54033
G1 X127.441 Y106.139 E20.54253
G1 X127.105 Y106.432 E20.55736
G1 X127.064 Y106.471 E20.55924
G1 X126.47 Y107.096 E20.58792
G1 X126.352 Y107.181 E20.59276
G1 X125.809 Y107.395 E20.61217
G1 X124.31 Y107.402 E20.66203
G1 X123.778 Y107.272 E20.68024
G1 X123.366 Y106.967 E20.69729
G1 X123.333 Y106.93 E20.69894
G1 X122.63 Y105.702 E20.746
G1 X122.507 Y105.557 E20.75233
G1 X122.485 Y105.497 E20.75445
G1 X122.4 Y105.399 E20.75877
G1 X122.4 Y100.649 E20.91675
G1 X122.408 Y100.644 E20.91707
G1 X122.526 Y100.497 E20.92334
G1 X122.819 Y99.984 E20.94299
G1 X122.835 Y99.954 E20.94412
G1 X122.984 Y99.655 E20.95523
G1 X123.022 Y99.557 E20.95872
G1 X123.048 Y99.47 E20.96174
G1 X123.154 Y99.293 E20.96861
M204 S2000
G0 F7500 X123.473 Y99.537
M204 S500
G1 F1500 X123.786 Y99.213 E20.98359
G1 X123.842 Y99.172 E20.9859
G1 X124.268 Y99.005 E21.00112
G1 X125.645 Y98.999 E21.04692
G1 X126.046 Y99.097 E21.06065
G1 X126.401 Y99.36 E21.07534
G1 X126.608 Y99.635 E21.08679
G1 X126.708 Y99.749 E21.09183
G1 X127.013 Y100.048 E21.10604
G1 X127.114 Y100.135 E21.11047
G1 X127.459 Y100.393 E21.1248
G1 X127.589 Y100.475 E21.12991
G1 X127.909 Y100.645 E21.14196
G1 X128.008 Y100.691 E21.1456
G1 X128.254 Y100.789 E21.1544
G1 X128.338 Y100.818 E21.15736
G1 X128.494 Y100.865 E21.16278
G1 X128.495 Y105.14 E21.30496
G1 X128.449 Y105.154 E21.30656
G1 X128.194 Y105.245 E21.31557
G1 X128.098 Y105.285 E21.31903
G1 X127.733 Y105.46 E21.33249
G1 X127.595 Y105.54 E21.3378
G1 X127.265 Y105.769 E21.35116
G1 X127.178 Y105.837 E21.35483
G1 X126.842 Y106.13 E21.36966
G1 X126.774 Y106.195 E21.37279
G1 X126.208 Y106.79 E21.4001
G1 X126.157 Y106.828 E21.40221
G1 X125.731 Y106.995 E21.41743
G1 X124.355 Y107.001 E21.4632
G1 X123.953 Y106.903 E21.47696
G1 X123.65 Y106.679 E21.48949
G1 X122.977 Y105.503 E21.53456
G1 X122.852 Y105.343 E21.54131
G1 X122.8 Y105.265 E21.54443
G1 X122.8 Y100.798 E21.693
G1 X122.873 Y100.695 E21.6972
G1 X123.166 Y100.182 E21.71685
G1 X123.193 Y100.132 E21.71874
G1 X123.342 Y99.833 E21.72985
G1 X123.406 Y99.671 E21.73565
G1 X123.419 Y99.628 E21.73714
G1 X123.473 Y99.537 E21.74066
M204 S2000
G0 F7500 X123.795 Y99.78
M204 S500
G1 F1500 X124.044 Y99.523 E21.75256
G1 X124.344 Y99.405 E21.76328
G1 X125.596 Y99.399 E21.80493
G1 X125.875 Y99.467 E21.81448
G1 X126.115 Y99.645 E21.82442
G1 X126.288 Y99.875 E21.83399
G1 X126.428 Y100.035 E21.84106
G1 X126.733 Y100.334 E21.85527
G1 X126.875 Y100.455 E21.86147
G1 X127.22 Y100.713 E21.8758
G1 X127.401 Y100.828 E21.88293
G1 X127.721 Y100.998 E21.89498
G1 X127.86 Y101.063 E21.90009
G1 X128.094 Y101.156 E21.90846
G1 X128.095 Y104.855 E22.03149
G1 X128.059 Y104.868 E22.03276
G1 X127.925 Y104.925 E22.03761
G1 X127.56 Y105.1 E22.05107
G1 X127.367 Y105.212 E22.05849
G1 X127.037 Y105.441 E22.07185
G1 X126.915 Y105.536 E22.077
G1 X126.579 Y105.829 E22.09182
G1 X126.484 Y105.92 E22.0962
G1 X125.954 Y106.478 E22.12179
G1 X125.655 Y106.595 E22.13247
G1 X124.404 Y106.601 E22.17408
G1 X124.123 Y106.532 E22.18371
G1 X123.955 Y106.409 E22.19063
