;FLAVOR:Marlin
;TIME:3374
;Filament used: 2.51795m
;Layer height: 0.2
;MINX:69.749
;MINY:59.567
;MINZ:0.2
;MAXX:150.219
;MAXY:160.383
;MAXZ:4
;TARGET_MACHINE.NAME:Creality Ender-3 S1
;Generated with Cura_SteamEngine 5.6.0
M82 ;absolute extrusion mode
; Ender 3 S1 Start G-code
; M413 S0 ; Disable power loss recovery
G92 E0 ; Reset Extruder

; Prep surfaces before auto home for better accuracy
M140 S60
M104 S200

G28 ; Home all axes
G1 Z10.0 F3000 ; Move Z Axis up little to prevent scratching of Heat Bed
G1 X0 Y0

M190 S60
M109 S200

G1 X0.1 Y20 Z0.3 F5000.0 ; Move to start position
G1 X0.1 Y200.0 Z0.3 F1500.0 E15 ; Draw the first line
G1 X0.4 Y200.0 Z0.3 F5000.0 ; Move to side a little
G1 X0.4 Y20 Z0.3 F1500.0 E30 ; Draw the second line
G92 E0 ; Reset Extruder
G1 Z2.0 F3000 ; Move Z Axis up little to prevent scratching of Heat Bed
G1 X5 Y20 Z0.3 F5000.0 ; Move over to prevent blob squish

G92 E0
G92 E0
G1 F2400 E-0.8
;LAYER_COUNT:20
;LAYER:0
M107
M204 S2000
G0 F7500 X72.973 Y64.029 Z0.2
M204 S500
;TYPE:SKIRT
G1 F2400 E0
G1 F1500 X73.322 Y63.66 E0.01689
G1 X73.781 Y63.199 E0.03853
G1 X74.499 Y62.54 E0.07094
G1 X75.272 Y61.948 E0.10333
G1 X76.056 Y61.448 E0.13426
G1 X76.525 Y61.191 E0.15204
G1 X77.101 Y60.894 E0.1736
G1 X78.002 Y60.481 E0.20656
G1 X78.921 Y60.156 E0.23898
G1 X79.848 Y59.917 E0.27083
G1 X80.379 Y59.817 E0.2888
G1 X81 Y59.717 E0.30972
G1 X82.425 Y59.582 E0.35733
G1 X83.048 Y59.568 E0.37805
G1 X102.052 Y59.567 E1.01013
G1 X102.963 Y59.581 E1.04043
G1 X103.894 Y59.637 E1.07145
G1 X104.494 Y59.716 E1.09158
G1 X105.13 Y59.818 E1.113
G1 X106.085 Y60.017 E1.14545
G1 X107.016 Y60.301 E1.17782
G1 X107.901 Y60.656 E1.20954
G1 X108.336 Y60.863 E1.22556
G1 X108.926 Y61.164 E1.24759
G1 X109.74 Y61.625 E1.27871
G1 X110.474 Y62.125 E1.30824
G1 X112.334 Y63.506 E1.3853
G1 X114.41 Y64.963 E1.46965
G1 X116.512 Y66.353 E1.55347
G1 X118.64 Y67.675 E1.63679
G1 X120.807 Y68.937 E1.7202
G1 X123.074 Y70.174 E1.80609
G1 X125.245 Y71.28 E1.88713
G1 X127.553 Y72.375 E1.9721
G1 X129.846 Y73.381 E2.05538
G1 X132.191 Y74.335 E2.13958
G1 X134.528 Y75.211 E2.22259
G1 X136.942 Y76.036 E2.30744
G1 X139.346 Y76.784 E2.39118
G1 X140.808 Y77.191 E2.44165
G1 X141.623 Y77.429 E2.46989
G1 X142.543 Y77.745 E2.50225
G1 X143.448 Y78.148 E2.5352
G1 X143.761 Y78.306 E2.54686
G1 X144.609 Y78.784 E2.57924
G1 X145.412 Y79.335 E2.61163
G1 X146.133 Y79.927 E2.64266
G1 X146.742 Y80.507 E2.67063
G1 X147.381 Y81.195 E2.70186
G1 X147.999 Y81.992 E2.7354
G1 X148.521 Y82.805 E2.76754
G1 X148.91 Y83.526 E2.79478
G1 X149.331 Y84.431 E2.82798
G1 X149.662 Y85.347 E2.86038
G1 X149.894 Y86.219 E2.89039
G1 X150.067 Y87.168 E2.92247
G1 X150.176 Y88.09 E2.95335
G1 X150.204 Y88.601 E2.97037
G1 X150.218 Y89.225 E2.99113
G1 X150.219 Y122.228 E4.08882
G1 X150.208 Y123.095 E4.11766
G1 X150.182 Y123.69 E4.13746
G1 X150.118 Y124.608 E4.16807
G1 X150.025 Y125.687 E4.20409
G1 X149.885 Y128.166 E4.28668
G1 X149.802 Y132.111 E4.41792
G1 X149.801 Y146.808 E4.90674
G1 X149.789 Y147.571 E4.93212
G1 X149.731 Y148.547 E4.96464
G1 X149.656 Y149.108 E4.98346
G1 X149.555 Y149.745 E5.00492
G1 X149.357 Y150.697 E5.03726
G1 X149.077 Y151.63 E5.06966
G1 X148.743 Y152.469 E5.09969
G1 X148.517 Y152.945 E5.11722
G1 X148.219 Y153.534 E5.13917
G1 X147.74 Y154.382 E5.17157
G1 X147.188 Y155.183 E5.20392
G1 X146.578 Y155.922 E5.23579
G1 X146.229 Y156.291 E5.25268
G1 X145.77 Y156.752 E5.27432
G1 X145.052 Y157.411 E5.30674
G1 X144.279 Y158.003 E5.33912
G1 X143.495 Y158.503 E5.37005
G1 X143.026 Y158.76 E5.38783
G1 X142.45 Y159.057 E5.40939
G1 X141.549 Y159.47 E5.44235
G1 X140.63 Y159.795 E5.47478
G1 X139.703 Y160.034 E5.50662
G1 X139.179 Y160.133 E5.52435
G1 X138.561 Y160.233 E5.54517
G1 X137.127 Y160.369 E5.59308
G1 X136.521 Y160.383 E5.61324
G1 X102.841 Y160.383 E6.73345
G1 X102.087 Y160.37 E6.75853
G1 X101.129 Y160.312 E6.79045
G1 X100.559 Y160.236 E6.80958
G1 X99.927 Y160.135 E6.83086
G1 X98.974 Y159.935 E6.86325
G1 X98.068 Y159.661 E6.89473
G1 X96.741 Y159.099 E6.94266
G1 X96.152 Y158.801 E6.96462
G1 X95.304 Y158.322 E6.99701
G1 X94.503 Y157.77 E7.02937
G1 X93.764 Y157.16 E7.06124
G1 X93.395 Y156.811 E7.07813
G1 X92.934 Y156.352 E7.09977
G1 X92.275 Y155.634 E7.13218
G1 X91.683 Y154.861 E7.16457
G1 X91.169 Y154.054 E7.19639
G1 X90.92 Y153.599 E7.21364
G1 X90.618 Y153.012 E7.2356
G1 X90.207 Y152.11 E7.26856
G1 X89.904 Y151.259 E7.29861
G1 X89.732 Y150.646 E7.31978
G1 X89.047 Y147.89 E7.41424
G1 X88.375 Y145.487 E7.49723
G1 X87.626 Y143.079 E7.5811
G1 X86.814 Y140.704 E7.66459
G1 X85.92 Y138.31 E7.74958
G1 X84.988 Y136.014 E7.832
G1 X83.975 Y133.714 E7.91559
G1 X82.889 Y131.415 E8.00016
G1 X81.755 Y129.188 E8.08328
G1 X80.561 Y126.999 E8.16621
G1 X79.281 Y124.801 E8.25081
G1 X77.972 Y122.693 E8.33334
G1 X76.562 Y120.559 E8.41841
G1 X75.122 Y118.509 E8.50173
G1 X73.584 Y116.443 E8.5874
G1 X72.439 Y114.968 E8.6495
G1 X71.917 Y114.23 E8.67957
G1 X71.374 Y113.294 E8.71556
G1 X71.075 Y112.714 E8.73726
G1 X70.662 Y111.813 E8.77023
G1 X70.338 Y110.895 E8.80261
G1 X70.11 Y110.022 E8.83262
G1 X69.998 Y109.427 E8.85275
G1 X69.892 Y108.753 E8.87545
G1 X69.764 Y107.391 E8.92095
G1 X69.75 Y106.767 E8.94171
G1 X69.749 Y73.232 E10.05709
G1 X69.765 Y72.327 E10.08719
G1 X69.822 Y71.398 E10.11815
G1 X69.897 Y70.826 E10.13733
G1 X69.997 Y70.199 E10.15845
G1 X70.196 Y69.245 E10.19087
G1 X70.47 Y68.338 E10.22238
G1 X71.034 Y67.006 E10.27049
G1 X71.332 Y66.417 E10.29244
G1 X71.811 Y65.569 E10.32484
G1 X72.363 Y64.768 E10.35719
G1 X72.973 Y64.029 E10.38906
M204 S2000
G0 F7500 X73.264 Y64.304
M204 S500
G1 F1500 X73.606 Y63.942 E10.40563
G1 X74.052 Y63.493 E10.42668
G1 X74.743 Y62.857 E10.45791
G1 X75.487 Y62.285 E10.48913
G1 X76.271 Y61.785 E10.52005
G1 X76.708 Y61.547 E10.5366
G1 X77.284 Y61.25 E10.55816
G1 X78.136 Y60.858 E10.58935
G1 X79.021 Y60.543 E10.6206
G1 X79.922 Y60.31 E10.65155
G1 X80.443 Y60.212 E10.66918
G1 X81.064 Y60.112 E10.6901
G1 X82.434 Y59.982 E10.73587
G1 X83.048 Y59.968 E10.7563
G1 X102.046 Y59.967 E11.38818
G1 X102.939 Y59.98 E11.41788
G1 X103.87 Y60.036 E11.4489
G1 X104.431 Y60.111 E11.46773
G1 X105.049 Y60.21 E11.48854
G1 X105.969 Y60.4 E11.51979
G1 X106.867 Y60.672 E11.551
G1 X107.729 Y61.017 E11.58188
G1 X108.155 Y61.22 E11.59757
G1 X108.729 Y61.512 E11.61899
G1 X109.543 Y61.973 E11.65011
G1 X110.236 Y62.446 E11.67801
G1 X112.104 Y63.833 E11.7554
G1 X114.189 Y65.297 E11.84013
G1 X116.291 Y66.687 E11.92395
G1 X118.439 Y68.021 E12.00805
G1 X120.615 Y69.288 E12.0918
G1 X122.882 Y70.525 E12.17769
G1 X125.063 Y71.636 E12.2591
G1 X127.392 Y72.741 E12.34484
G1 X129.695 Y73.752 E12.42849
G1 X132.04 Y74.706 E12.5127
G1 X134.399 Y75.59 E12.59649
G1 X136.813 Y76.415 E12.68133
G1 X139.227 Y77.166 E12.76542
G1 X140.696 Y77.575 E12.81614
G1 X141.493 Y77.807 E12.84375
G1 X142.381 Y78.111 E12.87496
G1 X143.268 Y78.505 E12.90725
G1 X143.565 Y78.655 E12.91831
G1 X144.383 Y79.114 E12.94951
G1 X145.158 Y79.644 E12.98074
G1 X145.879 Y80.236 E13.01177
G1 X146.449 Y80.78 E13.03797
G1 X147.065 Y81.441 E13.06802
G1 X147.663 Y82.209 E13.1004
G1 X148.169 Y82.995 E13.13149
G1 X148.558 Y83.716 E13.15874
G1 X148.955 Y84.567 E13.18997
G1 X149.275 Y85.45 E13.22121
G1 X149.507 Y86.322 E13.25122
G1 X149.67 Y87.215 E13.28141
G1 X149.777 Y88.112 E13.31146
G1 X149.804 Y88.61 E13.32805
G1 X149.818 Y89.225 E13.34851
G1 X149.819 Y122.223 E14.44602
G1 X149.808 Y123.078 E14.47446
G1 X149.783 Y123.662 E14.49391
G1 X149.719 Y124.574 E14.52431
G1 X149.627 Y125.653 E14.56033
G1 X149.485 Y128.158 E14.64378
G1 X149.402 Y132.103 E14.77502
G1 X149.401 Y146.802 E15.26391
G1 X149.39 Y147.547 E15.28869
G1 X149.334 Y148.494 E15.32025
G1 X149.261 Y149.045 E15.33873
G1 X149.163 Y149.664 E15.35958
G1 X148.974 Y150.582 E15.39075
G1 X148.705 Y151.482 E15.42199
G1 X148.371 Y152.321 E15.45203
G1 X148.16 Y152.765 E15.46838
G1 X147.871 Y153.338 E15.48972
G1 X147.41 Y154.156 E15.52095
G1 X146.879 Y154.929 E15.55214
G1 X146.287 Y155.647 E15.5831
G1 X145.945 Y156.009 E15.59966
G1 X145.499 Y156.458 E15.62071
G1 X144.808 Y157.094 E15.65194
G1 X144.064 Y157.666 E15.68316
G1 X143.28 Y158.166 E15.71409
G1 X142.843 Y158.404 E15.73064
G1 X142.267 Y158.701 E15.75219
G1 X141.415 Y159.093 E15.78338
G1 X140.53 Y159.408 E15.81463
G1 X139.629 Y159.641 E15.84558
G1 X139.115 Y159.738 E15.86298
G1 X138.497 Y159.838 E15.8838
G1 X137.118 Y159.969 E15.92987
G1 X136.512 Y159.983 E15.95003
G1 X102.848 Y159.983 E17.0697
G1 X102.111 Y159.971 E17.09422
G1 X101.181 Y159.915 E17.12521
G1 X100.622 Y159.841 E17.14396
G1 X100.008 Y159.743 E17.16464
G1 X99.09 Y159.552 E17.19583
G1 X98.184 Y159.278 E17.22731
G1 X96.921 Y158.742 E17.27294
G1 X96.348 Y158.453 E17.29429
G1 X95.53 Y157.992 E17.32552
G1 X94.757 Y157.461 E17.35671
G1 X94.039 Y156.869 E17.38766
G1 X93.677 Y156.527 E17.40423
G1 X93.228 Y156.081 E17.42528
G1 X92.592 Y155.39 E17.45651
G1 X92.02 Y154.646 E17.48772
G1 X91.52 Y153.862 E17.51865
G1 X91.276 Y153.416 E17.53556
G1 X90.982 Y152.845 E17.55692
G1 X90.584 Y151.976 E17.58871
G1 X90.281 Y151.125 E17.61876
G1 X90.12 Y150.55 E17.63862
G1 X89.435 Y147.794 E17.73307
G1 X88.76 Y145.379 E17.81647
G1 X88.008 Y142.96 E17.90073
G1 X87.193 Y140.575 E17.98456
G1 X86.295 Y138.17 E18.06994
G1 X85.359 Y135.864 E18.15272
G1 X84.337 Y133.543 E18.23707
G1 X83.25 Y131.244 E18.32165
G1 X82.111 Y129.007 E18.40514
G1 X80.907 Y126.798 E18.48882
G1 X79.627 Y124.6 E18.57341
G1 X78.306 Y122.472 E18.65672
G1 X76.896 Y120.338 E18.74179
G1 X75.443 Y118.27 E18.82585
G1 X73.905 Y116.204 E18.91152
G1 X72.766 Y114.737 E18.97329
G1 X72.244 Y113.999 E19.00336
G1 X71.73 Y113.111 E19.03748
G1 X71.431 Y112.531 E19.05919
G1 X71.039 Y111.679 E19.09038
G1 X70.725 Y110.794 E19.12161
G1 X70.497 Y109.921 E19.15162
G1 X70.393 Y109.364 E19.17047
G1 X70.29 Y108.715 E19.19232
G1 X70.164 Y107.382 E19.23686
G1 X70.15 Y106.767 E19.25732
G1 X70.149 Y73.239 E20.37246
G1 X70.164 Y72.351 E20.402
G1 X70.221 Y71.422 E20.43296
G1 X70.292 Y70.889 E20.45084
G1 X70.389 Y70.28 E20.47135
G1 X70.579 Y69.361 E20.50257
G1 X70.853 Y68.454 E20.53408
G1 X71.391 Y67.186 E20.57989
G1 X71.68 Y66.613 E20.60124
G1 X72.141 Y65.795 E20.63247
G1 X72.672 Y65.022 E20.66366
G1 X73.264 Y64.304 E20.69461
M204 S2000
G0 F7500 X73.555 Y64.579
M204 S500
G1 F1500 X72.981 Y65.276 E20.72464
G1 X72.471 Y66.021 E20.75467
G1 X72.029 Y66.809 E20.78472
G1 X71.748 Y67.366 E20.80547
G1 X71.221 Y68.61 E20.85041
G1 X70.962 Y69.476 E20.88047
G1 X70.781 Y70.36 E20.91048
G1 X70.687 Y70.952 E20.93042
G1 X70.618 Y71.474 E20.94793
G1 X70.563 Y72.375 E20.97796
G1 X70.549 Y73.245 E21.0069
G1 X70.55 Y106.767 E22.12184
G1 X70.564 Y107.373 E22.142
G1 X70.688 Y108.677 E22.18557
G1 X70.788 Y109.301 E22.20659
G1 X70.884 Y109.82 E22.22414
G1 X71.112 Y110.693 E22.25415
G1 X71.416 Y111.544 E22.28421
G1 X71.794 Y112.364 E22.31424
G1 X72.085 Y112.928 E22.33535
G1 X72.571 Y113.768 E22.36763
G1 X73.093 Y114.506 E22.39769
G1 X74.226 Y115.965 E22.45913
G1 X75.764 Y118.031 E22.5448
G1 X77.23 Y120.117 E22.6296
G1 X78.64 Y122.251 E22.71467
G1 X79.973 Y124.399 E22.79875
G1 X81.253 Y126.597 E22.88335
G1 X82.467 Y128.826 E22.96777
G1 X83.611 Y131.073 E23.05163
G1 X84.699 Y133.372 E23.13623
G1 X85.729 Y135.713 E23.22129
G1 X86.67 Y138.03 E23.30447
G1 X87.572 Y140.446 E23.39025
G1 X88.39 Y142.841 E23.47442
G1 X89.145 Y145.271 E23.55905
G1 X89.823 Y147.698 E23.64287
G1 X90.508 Y150.454 E23.73732
G1 X90.658 Y150.991 E23.75587
G1 X90.961 Y151.842 E23.78591
G1 X91.338 Y152.662 E23.81593
G1 X91.632 Y153.233 E23.83729
G1 X91.871 Y153.67 E23.85386
G1 X92.357 Y154.431 E23.88389
G1 X92.909 Y155.146 E23.91393
G1 X93.522 Y155.81 E23.94399
G1 X93.959 Y156.243 E23.96445
G1 X94.314 Y156.578 E23.98068
G1 X95.011 Y157.152 E24.01072
G1 X95.756 Y157.662 E24.04075
G1 X96.544 Y158.104 E24.0708
G1 X97.101 Y158.385 E24.09155
G1 X98.34 Y158.91 E24.1363
G1 X99.205 Y159.169 E24.16633
G1 X100.089 Y159.351 E24.19635
G1 X100.685 Y159.446 E24.21643
G1 X101.233 Y159.518 E24.23481
G1 X102.135 Y159.572 E24.26486
G1 X102.854 Y159.583 E24.28878
G1 X136.503 Y159.583 E25.40795
G1 X137.109 Y159.569 E25.42811
G1 X138.433 Y159.443 E25.47235
G1 X139.051 Y159.343 E25.49317
G1 X139.555 Y159.248 E25.51023
G1 X140.429 Y159.021 E25.54026
G1 X141.28 Y158.716 E25.57033
G1 X142.1 Y158.338 E25.60036
G1 X142.66 Y158.049 E25.62132
G1 X143.088 Y157.815 E25.63754
G1 X143.849 Y157.329 E25.66758
G1 X144.564 Y156.777 E25.69762
G1 X145.228 Y156.164 E25.72768
G1 X145.661 Y155.727 E25.74814
G1 X145.996 Y155.372 E25.76437
G1 X146.57 Y154.675 E25.7944
G1 X147.08 Y153.93 E25.82443
G1 X147.522 Y153.142 E25.85448
G1 X147.803 Y152.585 E25.87523
G1 X147.999 Y152.173 E25.89041
G1 X148.333 Y151.334 E25.92044
G1 X148.591 Y150.468 E25.9505
G1 X148.771 Y149.584 E25.9805
G1 X148.866 Y148.983 E26.00074
G1 X148.937 Y148.442 E26.01889
G1 X148.99 Y147.541 E26.04891
G1 X149.001 Y146.796 E26.07369
G1 X149.002 Y132.095 E26.56265
G1 X149.085 Y128.15 E26.69389
G1 X149.229 Y125.619 E26.7782
G1 X149.32 Y124.54 E26.81422
G1 X149.384 Y123.634 E26.84443
G1 X149.408 Y123.061 E26.8635
G1 X149.419 Y122.218 E26.89154
G1 X149.418 Y89.225 E27.98889
G1 X149.404 Y88.619 E28.00906
G1 X149.38 Y88.159 E28.02438
G1 X149.273 Y87.262 E28.05442
G1 X149.12 Y86.425 E28.08272
G1 X148.888 Y85.553 E28.11273
G1 X148.579 Y84.704 E28.14278
G1 X148.196 Y83.886 E28.17282
G1 X147.817 Y83.185 E28.19933
G1 X147.327 Y82.426 E28.22938
G1 X146.772 Y81.714 E28.2594
G1 X146.156 Y81.053 E28.28946
G1 X145.603 Y80.526 E28.31486
G1 X144.904 Y79.953 E28.34492
G1 X144.158 Y79.445 E28.37494
G1 X143.37 Y79.004 E28.40498
G1 X143.089 Y78.863 E28.41543
G1 X142.219 Y78.477 E28.44709
G1 X141.364 Y78.186 E28.47713
G1 X140.584 Y77.959 E28.50415
G1 X139.108 Y77.548 E28.55511
G1 X136.694 Y76.797 E28.63919
G1 X134.259 Y75.964 E28.72479
G1 X131.889 Y75.077 E28.80896
G1 X129.544 Y74.123 E28.89316
G1 X127.231 Y73.107 E28.97718
G1 X124.892 Y71.997 E29.0633
G1 X122.69 Y70.876 E29.14548
G1 X120.423 Y69.639 E29.23137
G1 X118.238 Y68.367 E29.31547
G1 X116.07 Y67.021 E29.40034
G1 X113.968 Y65.631 E29.48416
G1 X111.874 Y64.16 E29.56927
G1 X109.998 Y62.767 E29.64699
G1 X109.318 Y62.304 E29.67435
G1 X108.532 Y61.86 E29.70437
G1 X107.974 Y61.577 E29.72518
G1 X107.557 Y61.378 E29.74055
G1 X106.719 Y61.043 E29.77057
G1 X105.854 Y60.783 E29.80061
G1 X104.969 Y60.602 E29.83065
G1 X104.368 Y60.506 E29.8509
G1 X103.817 Y60.433 E29.86938
G1 X102.915 Y60.379 E29.89944
G1 X102.041 Y60.367 E29.92851
G1 X83.048 Y60.368 E30.56022
G1 X82.443 Y60.382 E30.58035
G1 X81.128 Y60.507 E30.62428
G1 X80.507 Y60.607 E30.6452
G1 X79.996 Y60.703 E30.6625
G1 X79.122 Y60.93 E30.69253
G1 X78.271 Y61.235 E30.7226
G1 X77.451 Y61.613 E30.75263
G1 X76.891 Y61.902 E30.77359
G1 X76.463 Y62.136 E30.78981
G1 X75.702 Y62.622 E30.81984
G1 X74.987 Y63.174 E30.84989
G1 X74.323 Y63.787 E30.87994
G1 X73.89 Y64.224 E30.90041
G1 X73.555 Y64.579 E30.91664
M204 S2000
G1 F2400 E30.11664
;MESH:slide_brace_incut[pt_1_mil].stl
G0 F7500 X85.761 Y73.771
G0 X88.433 Y77.167
M204 S500
;TYPE:WALL-INNER
G1 F2400 E30.91664
G1 F1500 X87.736 Y77.274 E30.94009
G1 X87.046 Y77.157 E30.96337
G1 X86.45 Y76.852 E30.98564
G1 X85.964 Y76.366 E31.0085
G1 X85.648 Y75.749 E31.03156
G1 X85.542 Y75.065 E31.05458
G1 X85.648 Y74.388 E31.07737
G1 X85.966 Y73.766 E31.1006
G1 X86.45 Y73.282 E31.12337
G1 X87.066 Y72.967 E31.14638
G1 X87.749 Y72.858 E31.16938
G1 X88.434 Y72.968 E31.19246
G1 X89.048 Y73.282 E31.2154
G1 X89.531 Y73.765 E31.23812
G1 X89.849 Y74.383 E31.26123
G1 X89.956 Y75.072 E31.28442
G1 X89.852 Y75.729 E31.30655
G1 X89.546 Y76.345 E31.32942
G1 X89.046 Y76.853 E31.35313
G1 X88.433 Y77.167 E31.37604
M204 S2000
G1 F2400 E30.57604
G0 F7500 X88.451 Y77.267
G0 X89.682 Y76.473
G0 X95.804 Y76.451
G0 X97.737 Y77.273
M204 S500
G1 F2400 E31.37604
G1 F1500 X97.065 Y77.167 E31.39867
G1 X96.452 Y76.853 E31.42157
G1 X95.952 Y76.345 E31.44528
G1 X95.645 Y75.729 E31.46817
G1 X95.542 Y75.062 E31.49062
G1 X95.649 Y74.382 E31.51352
G1 X95.967 Y73.765 E31.5366
G1 X96.45 Y73.282 E31.55932
G1 X97.066 Y72.967 E31.58233
G1 X97.749 Y72.858 E31.60534
G1 X98.434 Y72.968 E31.62841
G1 X99.048 Y73.282 E31.65135
G1 X99.532 Y73.766 E31.67412
G1 X99.85 Y74.388 E31.69735
G1 X99.957 Y75.065 E31.72015
